;FLAVOR:Marlin
;TIME:2887
;Filament used: 1.16801m
;Layer height: 0.1
;Generated with Cura_SteamEngine 3.2.1
M190 S60
M104 S180
M109 S180
M82 ;absolute extrusion mode
G28 ;Home
G1 Z15.0 F6000 ;Move the platform down 15mm
;Prime the extruder
G92 E0
G1 F200 E3
G92 E0
;LAYER_COUNT:80
;LAYER:0
M107
M204 S5000
M205 X30 Y30
G0 F3600 X33.031 Y17.24 Z0.2
M204 S500
M205 X20 Y20
;TYPE:SKIRT
G1 F1500 X34.119 Y15.09 E0.08014
G1 X34.477 Y14.471 E0.10393
G1 X34.888 Y13.912 E0.127
G1 X35.41 Y13.278 E0.15432
G1 X35.895 Y12.752 E0.17812
G1 X36.435 Y12.284 E0.20188
G1 X36.801 Y12.021 E0.21687
G1 X37.674 Y11.439 E0.25177
G1 X38.29 Y11.076 E0.27555
G1 X39.161 Y10.706 E0.30703
G1 X40.133 Y10.375 E0.34118
G1 X40.822 Y10.182 E0.36498
G1 X41.859 Y10.042 E0.39978
G1 X43.357 Y9.963 E0.44967
G1 X43.701 Y9.954 E0.46112
G1 X103.224 Y10.023 E2.44086
G1 X103.939 Y10.064 E2.46468
G1 X104.644 Y10.184 E2.48847
G1 X105.149 Y10.322 E2.50588
G1 X106.011 Y10.595 E2.53595
G1 X106.68 Y10.848 E2.55974
G1 X107.43 Y11.244 E2.58795
G1 X108.359 Y11.815 E2.62422
G1 X108.947 Y12.223 E2.64802
G1 X109.391 Y12.603 E2.66746
G1 X109.773 Y12.962 E2.6849
G1 X110.266 Y13.48 E2.70868
G1 X110.698 Y14.05 E2.73247
G1 X110.913 Y14.393 E2.74593
G1 X111.725 Y15.78 E2.79939
G1 X112.141 Y16.628 E2.83081
G1 X113.06 Y18.917 E2.91284
G1 X113.328 Y19.742 E2.9417
G1 X113.639 Y20.979 E2.98412
G1 X113.767 Y21.628 E3.00612
G1 X114 Y23.249 E3.06059
G1 X114.062 Y23.979 E3.08496
G1 X114.107 Y25.571 E3.13793
G1 X114.084 Y26.324 E3.16298
G1 X113.935 Y27.985 E3.21845
G1 X113.848 Y28.61 E3.23944
G1 X113.638 Y29.713 E3.27678
G1 X113.487 Y30.335 E3.29807
G1 X113.023 Y31.9 E3.35236
G1 X112.772 Y32.596 E3.37697
G1 X112.136 Y34.084 E3.4308
G1 X111.805 Y34.749 E3.4555
G1 X110.98 Y36.19 E3.51073
G1 X110.591 Y36.79 E3.53451
G1 X110.137 Y37.342 E3.55828
G1 X109.547 Y37.907 E3.58545
G1 X108.702 Y38.618 E3.62218
G1 X108.129 Y39.047 E3.64599
G1 X107.513 Y39.41 E3.66977
G1 X107.089 Y39.609 E3.68535
G1 X105.948 Y40.095 E3.7266
G1 X105.275 Y40.338 E3.7504
G1 X104.684 Y40.485 E3.77065
G1 X104.26 Y40.569 E3.78503
G1 X103.551 Y40.669 E3.80885
G1 X103.014 Y40.691 E3.82672
G1 X42.334 Y40.674 E5.84495
G1 X41.62 Y40.634 E5.86873
G1 X40.701 Y40.462 E5.89983
G1 X39.967 Y40.268 E5.92508
G1 X39.286 Y40.046 E5.9489
G1 X38.481 Y39.667 E5.9785
G1 X37.407 Y39.067 E6.01941
G1 X36.803 Y38.684 E6.0432
G1 X36.395 Y38.366 E6.06041
G1 X36.129 Y38.141 E6.07199
G1 X35.609 Y37.65 E6.09578
G1 X35.047 Y36.964 E6.12528
G1 X34.409 Y36.067 E6.16189
G1 X33.907 Y35.234 E6.19424
G1 X33.164 Y33.757 E6.24923
G1 X32.874 Y33.088 E6.27348
G1 X32.334 Y31.618 E6.32556
G1 X32.08 Y30.736 E6.35609
G1 X31.58 Y28.374 E6.43639
G1 X31.451 Y27.414 E6.46861
G1 X31.347 Y25.591 E6.52934
G1 X31.349 Y24.839 E6.55435
G1 X31.438 Y23.368 E6.60337
G1 X31.52 Y22.662 E6.62701
G1 X31.798 Y21.058 E6.68115
G1 X32 Y20.227 E6.7096
G1 X32.637 Y18.206 E6.78008
G1 X33.031 Y17.24 E6.81477
M204 S5000
M205 X30 Y30
G0 F3600 X33.387 Y17.421
M204 S500
M205 X20 Y20
G1 F1500 X34.475 Y15.271 E6.89492
G1 X34.823 Y14.672 E6.91796
G1 X35.197 Y14.166 E6.93889
G1 X35.719 Y13.532 E6.9662
G1 X36.189 Y13.024 E6.98922
G1 X36.715 Y12.573 E7.01227
G1 X37.023 Y12.354 E7.02484
G1 X37.896 Y11.772 E7.05973
G1 X38.493 Y11.421 E7.08277
G1 X39.29 Y11.084 E7.11155
G1 X40.262 Y10.753 E7.1457
G1 X40.929 Y10.568 E7.16872
G1 X41.88 Y10.441 E7.20063
G1 X43.378 Y10.362 E7.25053
G1 X43.701 Y10.354 E7.26127
G1 X103.224 Y10.423 E9.24102
G1 X103.915 Y10.464 E9.26404
G1 X104.597 Y10.584 E9.28707
G1 X105.029 Y10.703 E9.30197
G1 X105.891 Y10.976 E9.33205
G1 X106.538 Y11.223 E9.35508
G1 X107.221 Y11.584 E9.38078
G1 X108.15 Y12.155 E9.41705
G1 X108.718 Y12.551 E9.44008
G1 X109.117 Y12.895 E9.4576
G1 X109.499 Y13.254 E9.47503
G1 X109.975 Y13.756 E9.49804
G1 X110.568 Y14.595 E9.53221
G1 X111.38 Y15.982 E9.58567
G1 X111.77 Y16.778 E9.61515
G1 X112.689 Y19.067 E9.69719
G1 X112.94 Y19.839 E9.72419
G1 X113.251 Y21.076 E9.76661
G1 X113.371 Y21.685 E9.78726
G1 X113.604 Y23.306 E9.84173
G1 X113.663 Y23.99 E9.86456
G1 X113.708 Y25.582 E9.91753
G1 X113.686 Y26.288 E9.94103
G1 X113.537 Y27.949 E9.99649
G1 X113.455 Y28.535 E10.01617
G1 X113.245 Y29.638 E10.05352
G1 X113.103 Y30.222 E10.07351
G1 X112.639 Y31.787 E10.1278
G1 X112.404 Y32.439 E10.15085
G1 X111.768 Y33.927 E10.20467
G1 X111.458 Y34.55 E10.22782
G1 X110.633 Y35.991 E10.28305
G1 X110.255 Y36.571 E10.30607
G1 X109.812 Y37.104 E10.32912
G1 X109.289 Y37.601 E10.35312
G1 X108.444 Y38.312 E10.38985
G1 X107.889 Y38.727 E10.4129
G1 X107.29 Y39.074 E10.43592
G1 X106.932 Y39.241 E10.44906
G1 X105.791 Y39.727 E10.49031
G1 X105.14 Y39.961 E10.51332
G1 X104.606 Y40.093 E10.53162
G1 X104.182 Y40.177 E10.54599
G1 X103.496 Y40.272 E10.56903
G1 X103.014 Y40.291 E10.58507
G1 X42.334 Y40.274 E12.60329
G1 X41.643 Y40.234 E12.62632
G1 X40.803 Y40.075 E12.65475
G1 X40.069 Y39.881 E12.68
G1 X39.411 Y39.665 E12.70304
G1 X38.676 Y39.318 E12.73007
G1 X37.602 Y38.718 E12.77099
G1 X37.018 Y38.346 E12.79402
G1 X36.653 Y38.061 E12.80942
G1 X36.387 Y37.836 E12.82101
G1 X35.885 Y37.359 E12.84404
G1 X35.373 Y36.733 E12.87094
G1 X34.735 Y35.836 E12.90755
G1 X34.264 Y35.054 E12.93791
G1 X33.521 Y33.577 E12.9929
G1 X33.249 Y32.95 E13.01563
G1 X32.709 Y31.48 E13.06772
G1 X32.471 Y30.654 E13.09631
G1 X31.971 Y28.292 E13.17661
G1 X31.851 Y27.391 E13.20684
G1 X31.747 Y25.568 E13.26758
G1 X31.748 Y24.864 E13.29099
G1 X31.837 Y23.393 E13.34001
G1 X31.914 Y22.73 E13.36221
G1 X32.192 Y21.126 E13.41635
G1 X32.382 Y20.347 E13.44302
G1 X33.019 Y18.326 E13.5135
G1 X33.387 Y17.421 E13.54599
M204 S5000
M205 X30 Y30
G0 F3600 X33.744 Y17.601
M204 S500
M205 X20 Y20
G1 F1500 X34.832 Y15.451 E13.62614
G1 X35.17 Y14.874 E13.64838
G1 X35.506 Y14.421 E13.66714
G1 X36.028 Y13.787 E13.69445
G1 X36.483 Y13.296 E13.71672
G1 X37.245 Y12.687 E13.74916
G1 X38.118 Y12.105 E13.78406
G1 X38.696 Y11.767 E13.80633
G1 X39.419 Y11.463 E13.83241
G1 X40.391 Y11.132 E13.86657
G1 X41.036 Y10.954 E13.88882
G1 X41.901 Y10.841 E13.91784
G1 X43.399 Y10.762 E13.96773
G1 X43.7 Y10.754 E13.97774
G1 X103.223 Y10.823 E15.95749
G1 X103.891 Y10.864 E15.97975
G1 X104.549 Y10.984 E16.00199
G1 X104.908 Y11.084 E16.01439
G1 X105.77 Y11.357 E16.04446
G1 X106.394 Y11.597 E16.0667
G1 X107.011 Y11.925 E16.08994
G1 X107.94 Y12.496 E16.12621
G1 X108.488 Y12.88 E16.14846
G1 X108.843 Y13.186 E16.16405
G1 X109.225 Y13.545 E16.18149
G1 X109.684 Y14.032 E16.20375
G1 X110.223 Y14.797 E16.23487
G1 X111.035 Y16.184 E16.28833
G1 X111.399 Y16.927 E16.31585
G1 X112.318 Y19.216 E16.39788
G1 X112.552 Y19.937 E16.4231
G1 X112.863 Y21.174 E16.46552
G1 X112.975 Y21.742 E16.48478
G1 X113.208 Y23.363 E16.53924
G1 X113.263 Y24.002 E16.56058
G1 X113.308 Y25.594 E16.61355
G1 X113.288 Y26.252 E16.63544
G1 X113.139 Y27.913 E16.69091
G1 X113.062 Y28.46 E16.70928
G1 X112.852 Y29.563 E16.74663
G1 X112.72 Y30.108 E16.76528
G1 X112.256 Y31.673 E16.81957
G1 X112.036 Y32.282 E16.84111
G1 X111.4 Y33.77 E16.89493
G1 X111.111 Y34.351 E16.91651
G1 X110.286 Y35.792 E16.97174
G1 X109.919 Y36.352 E16.99401
G1 X109.489 Y36.864 E17.01625
G1 X109.031 Y37.295 E17.03716
G1 X108.186 Y38.006 E17.07389
G1 X107.65 Y38.405 E17.09612
G1 X106.775 Y38.873 E17.12912
G1 X105.634 Y39.359 E17.17037
G1 X105.004 Y39.584 E17.19262
G1 X104.528 Y39.7 E17.20892
G1 X104.104 Y39.784 E17.22329
G1 X103.441 Y39.875 E17.24555
G1 X103.014 Y39.891 E17.25976
G1 X42.334 Y39.874 E19.27799
G1 X41.667 Y39.834 E19.30021
G1 X40.905 Y39.688 E19.32602
G1 X40.171 Y39.494 E19.35127
G1 X39.536 Y39.285 E19.3735
G1 X38.871 Y38.969 E19.39799
G1 X37.797 Y38.369 E19.43891
G1 X37.233 Y38.008 E19.46118
G1 X36.911 Y37.756 E19.47478
G1 X36.645 Y37.531 E19.48637
G1 X36.161 Y37.069 E19.50862
G1 X35.699 Y36.501 E19.53298
G1 X35.061 Y35.604 E19.56959
G1 X34.621 Y34.875 E19.59791
G1 X33.878 Y33.398 E19.6529
G1 X33.624 Y32.812 E19.67414
G1 X33.084 Y31.342 E19.72623
G1 X32.862 Y30.571 E19.75291
G1 X32.362 Y28.209 E19.83321
G1 X32.25 Y27.368 E19.86143
G1 X32.146 Y25.545 E19.92216
G1 X32.147 Y24.888 E19.94402
G1 X32.236 Y23.417 E19.99303
G1 X32.308 Y22.799 E20.01373
G1 X32.586 Y21.195 E20.06787
G1 X32.763 Y20.468 E20.09276
G1 X33.4 Y18.447 E20.16323
G1 X33.744 Y17.601 E20.19361
M204 S5000
M205 X30 Y30
G0 F3600 X34.101 Y17.782
M204 S500
M205 X20 Y20
G1 F1500 X35.189 Y15.632 E20.27375
G1 X35.515 Y15.076 E20.29519
G1 X35.815 Y14.675 E20.31185
G1 X36.337 Y14.041 E20.33916
G1 X36.776 Y13.569 E20.3606
G1 X37.467 Y13.019 E20.38998
G1 X38.34 Y12.437 E20.42487
G1 X38.897 Y12.114 E20.44629
G1 X39.548 Y11.842 E20.46976
G1 X40.52 Y11.511 E20.50391
G1 X41.142 Y11.341 E20.52535
G1 X41.922 Y11.24 E20.55151
G1 X43.42 Y11.161 E20.60141
G1 X43.7 Y11.154 E20.61072
G1 X103.223 Y11.223 E22.59047
G1 X103.866 Y11.264 E22.6119
G1 X104.787 Y11.466 E22.64326
G1 X105.649 Y11.739 E22.67333
G1 X106.25 Y11.971 E22.69476
G1 X106.802 Y12.266 E22.71557
G1 X107.731 Y12.837 E22.75184
G1 X108.258 Y13.208 E22.77328
G1 X108.569 Y13.478 E22.78698
G1 X108.951 Y13.837 E22.80441
G1 X109.393 Y14.307 E22.82587
G1 X109.878 Y14.999 E22.85398
G1 X110.69 Y16.386 E22.90743
G1 X111.028 Y17.076 E22.93299
G1 X111.947 Y19.365 E23.01503
G1 X112.164 Y20.034 E23.03842
G1 X112.475 Y21.271 E23.08084
G1 X112.579 Y21.799 E23.09874
G1 X112.812 Y23.42 E23.15321
G1 X112.863 Y24.013 E23.17301
G1 X112.908 Y25.605 E23.22598
G1 X112.889 Y26.217 E23.24634
G1 X112.74 Y27.878 E23.30181
G1 X112.669 Y28.386 E23.31887
G1 X112.459 Y29.489 E23.35622
G1 X112.336 Y29.994 E23.3735
G1 X111.872 Y31.559 E23.42779
G1 X111.669 Y32.125 E23.44779
G1 X111.033 Y33.613 E23.50162
G1 X110.764 Y34.153 E23.52168
G1 X109.939 Y35.594 E23.57691
G1 X109.584 Y36.132 E23.59835
G1 X109.166 Y36.623 E23.61979
G1 X108.774 Y36.989 E23.63763
G1 X107.929 Y37.7 E23.67436
G1 X107.411 Y38.084 E23.69581
G1 X106.619 Y38.505 E23.72564
G1 X105.478 Y38.991 E23.76689
G1 X104.87 Y39.206 E23.78834
G1 X104.451 Y39.308 E23.80268
G1 X104.027 Y39.392 E23.81706
G1 X103.388 Y39.478 E23.8385
G1 X103.015 Y39.491 E23.85092
G1 X42.335 Y39.474 E25.86914
G1 X41.691 Y39.434 E25.8906
G1 X41.007 Y39.301 E25.91378
G1 X40.273 Y39.107 E25.93903
G1 X39.661 Y38.904 E25.96048
G1 X39.066 Y38.62 E25.9824
G1 X37.992 Y38.02 E26.02332
G1 X37.45 Y37.671 E26.04476
G1 X37.17 Y37.45 E26.05663
G1 X36.904 Y37.225 E26.06821
G1 X36.438 Y36.779 E26.08967
G1 X36.025 Y36.269 E26.1115
G1 X35.387 Y35.372 E26.14811
G1 X34.979 Y34.695 E26.1744
G1 X34.236 Y33.218 E26.22939
G1 X34 Y32.674 E26.24911
G1 X33.46 Y31.204 E26.3012
G1 X33.254 Y30.488 E26.32598
G1 X32.754 Y28.126 E26.40628
G1 X32.649 Y27.345 E26.43249
G1 X32.545 Y25.522 E26.49322
G1 X32.546 Y24.912 E26.51351
G1 X32.635 Y23.441 E26.56252
G1 X32.702 Y22.867 E26.58175
G1 X32.98 Y21.263 E26.63589
G1 X33.145 Y20.588 E26.659
G1 X33.782 Y18.567 E26.72948
G1 X34.101 Y17.782 E26.75766
M204 S5000
M205 X30 Y30
G1 F2400 E21.75766
G0 F3600 X38.7 Y18.685
G0 X38.744 Y18.693
G0 X46.311 Y20.178
G0 X46.355 Y20.185
G0 X46.626 Y20.24
M204 S500
M205 X20 Y20
;TYPE:SUPPORT
G1 F2400 E26.75766
G1 F1500 X48.574 Y20.243 E26.82245
G1 X48.367 Y20.373 E26.83058
G1 X47.883 Y20.721 E26.85041
G1 X47.529 Y21.038 E26.86622
G1 X47.104 Y21.516 E26.88749
G1 X46.76 Y21.995 E26.9071
G1 X46.626 Y22.203 E26.91533
G1 X46.626 Y20.24 E26.98062
M204 S5000
M205 X30 Y30
G0 F3600 X46.786 Y21.328
M204 S500
M205 X20 Y20
G1 F1500 X47.057 Y21.328 E26.98964
M204 S5000
M205 X30 Y30
G0 F3600 X54.404 Y20.24
M204 S500
M205 X20 Y20
G1 F1500 X59.215 Y20.24 E27.14965
G1 X59.236 Y20.315 E27.15224
G1 X59.25 Y20.632 E27.1628
G1 X59.219 Y20.917 E27.17233
G1 X59.165 Y21.13 E27.17964
G1 X59.041 Y21.434 E27.19056
G1 X58.643 Y21.977 E27.21295
G1 X58.346 Y22.111 E27.22379
G1 X58.288 Y22.152 E27.22615
G1 X58.095 Y22.22 E27.23296
G1 X57.793 Y22.292 E27.24328
G1 X57.495 Y22.311 E27.25321
G1 X57.169 Y22.279 E27.26411
G1 X56.893 Y22.193 E27.27372
G1 X56.632 Y22.065 E27.28339
G1 X56.405 Y21.907 E27.29259
G1 X55.745 Y21.202 E27.32471
G1 X55.405 Y20.895 E27.33995
G1 X54.917 Y20.533 E27.36016
G1 X54.404 Y20.24 E27.37981
M204 S5000
M205 X30 Y30
G0 F3600 X55.986 Y20.4
M204 S500
M205 X20 Y20
G1 F1500 X55.986 Y21.225 E27.40725
M204 S5000
M205 X30 Y30
G0 F3600 X56.083 Y21.328
M204 S500
M205 X20 Y20
G1 F1500 X58.911 Y21.328 E27.50131
M204 S5000
M205 X30 Y30
G0 F3600 X58.652 Y21.695
M204 S500
M205 X20 Y20
G1 F1500 X58.652 Y20.4 E27.54438
M204 S5000
M205 X30 Y30
G0 F3600 X57.791 Y28.387
M204 S500
M205 X20 Y20
G1 F1500 X58.164 Y28.491 E27.55726
G1 X58.354 Y28.579 E27.56422
G1 X58.647 Y28.781 E27.57606
G1 X58.816 Y28.944 E27.58387
G1 X59.038 Y29.261 E27.59674
G1 X59.129 Y29.456 E27.6039
G1 X59.219 Y29.77 E27.61476
G1 X59.25 Y30.076 E27.62499
G1 X59.231 Y30.367 E27.63469
G1 X59.213 Y30.44 E27.63719
G1 X54.422 Y30.44 E27.79654
G1 X54.96 Y30.113 E27.81748
G1 X55.425 Y29.77 E27.8367
G1 X55.524 Y29.67 E27.84138
G1 X55.829 Y29.395 E27.85504
G1 X56.388 Y28.786 E27.88253
G1 X56.673 Y28.589 E27.89405
G1 X56.895 Y28.488 E27.90217
G1 X57.23 Y28.385 E27.91382
G1 X57.454 Y28.369 E27.92129
G1 X57.557 Y28.369 E27.92472
G1 X57.791 Y28.387 E27.93252
M204 S5000
M205 X30 Y30
G0 F3600 X58.652 Y29.008
M204 S500
M205 X20 Y20
G1 F1500 X58.652 Y30.28 E27.97483
M204 S5000
M205 X30 Y30
G0 F3600 X58.889 Y29.326
M204 S500
M205 X20 Y20
G1 F1500 X56.109 Y29.326 E28.06729
M204 S5000
M205 X30 Y30
G0 F3600 X55.986 Y29.46
M204 S500
M205 X20 Y20
G1 F1500 X55.986 Y30.28 E28.09457
M204 S5000
M205 X30 Y30
G0 F3600 X48.586 Y30.44
M204 S500
M205 X20 Y20
G1 F1500 X46.626 Y30.44 E28.15976
G1 X46.631 Y28.498 E28.22435
G1 X46.724 Y28.649 E28.23025
G1 X47.055 Y29.113 E28.2492
G1 X47.464 Y29.569 E28.26958
G1 X47.93 Y29.983 E28.29031
G1 X48.342 Y30.292 E28.30744
G1 X48.586 Y30.44 E28.31693
M204 S5000
M205 X30 Y30
G0 F3600 X47.033 Y29.326
M204 S500
M205 X20 Y20
G1 F1500 X46.789 Y29.326 E28.32505
M204 S5000
M205 X30 Y30
G1 F2400 E23.32505
G0 F3600 X67.597 Y29.725
G0 X67.641 Y29.725
G0 X77.809 Y29.92
G0 X77.853 Y29.92
G0 X86.199 Y30.082
M204 S500
M205 X20 Y20
G1 F2400 E28.32505
G1 F1500 X86.231 Y29.771 E28.33545
G1 X86.302 Y29.49 E28.34508
G1 X86.404 Y29.281 E28.35282
G1 X86.425 Y29.254 E28.35396
G1 X86.465 Y29.172 E28.35699
G1 X86.618 Y28.959 E28.36571
G1 X86.869 Y28.733 E28.37695
G1 X87.486 Y28.313 E28.40177
G1 X88.319 Y28.413 E28.42968
G1 X88.522 Y28.467 E28.43666
G1 X88.806 Y28.607 E28.4472
G1 X89.049 Y28.781 E28.45714
G1 X89.346 Y29.09 E28.47139
G1 X89.584 Y29.455 E28.48588
G1 X90.179 Y29.885 E28.5103
G1 X90.489 Y30.184 E28.52463
G1 X91.029 Y30.44 E28.5445
G1 X86.237 Y30.44 E28.70389
G1 X86.216 Y30.363 E28.70654
G1 X86.199 Y30.082 E28.7159
M204 S5000
M205 X30 Y30
G0 F3600 X86.567 Y29.326
M204 S500
M205 X20 Y20
G1 F1500 X89.309 Y29.326 E28.8071
M204 S5000
M205 X30 Y30
G0 F3600 X87.978 Y28.535
M204 S500
M205 X20 Y20
G1 F1500 X87.978 Y30.28 E28.86514
M204 S5000
M205 X30 Y30
G0 F3600 X87.923 Y22.312
M204 S500
M205 X20 Y20
G1 F1500 X87.648 Y22.292 E28.87431
G1 X87.367 Y22.22 E28.88396
G1 X87.104 Y22.106 E28.89349
G1 X86.813 Y21.901 E28.90533
G1 X86.618 Y21.711 E28.91439
G1 X86.419 Y21.435 E28.92571
G1 X86.311 Y21.201 E28.93428
G1 X86.214 Y20.867 E28.94584
G1 X86.199 Y20.657 E28.95285
G1 X86.199 Y20.554 E28.95627
G1 X86.23 Y20.24 E28.96677
G1 X91.05 Y20.24 E29.12708
G1 X90.788 Y20.38 E29.13696
G1 X90.54 Y20.53 E29.1466
G1 X90.067 Y20.886 E29.16629
G1 X89.629 Y21.271 E29.18569
G1 X89.367 Y21.568 E29.19886
G1 X89.057 Y21.898 E29.21392
G1 X88.953 Y21.962 E29.21798
G1 X88.894 Y22.016 E29.22064
G1 X88.821 Y22.066 E29.22358
G1 X88.551 Y22.197 E29.23357
G1 X88.25 Y22.282 E29.24397
G1 X88.193 Y22.292 E29.24589
G1 X87.923 Y22.312 E29.2549
M204 S5000
M205 X30 Y30
G0 F3600 X87.978 Y22.148
