;FLAVOR:Marlin
;TIME:2305
;Filament used: 0.979112m
;Layer height: 0.1
;Generated with Cura_SteamEngine 3.2.1
M190 S60
M104 S180
M109 S180
M82 ;absolute extrusion mode
G28 ;Home
G1 Z15.0 F6000 ;Move the platform down 15mm
;Prime the extruder
G92 E0
G1 F200 E3
G92 E0
;LAYER_COUNT:75
;LAYER:0
M107
M204 S5000
M205 X30 Y30
G0 F3600 X35.421 Y17.114 Z0.2
M204 S500
M205 X20 Y20
;TYPE:SKIRT
G1 F1500 X35.871 Y16.405 E0.02793
G1 X36.343 Y15.758 E0.05457
G1 X36.796 Y15.205 E0.07834
G1 X37.351 Y14.668 E0.10403
G1 X38.205 Y13.937 E0.14142
G1 X38.774 Y13.503 E0.16522
G1 X39.415 Y13.121 E0.19004
G1 X50.004 Y7.616 E0.58698
G1 X50.656 Y7.322 E0.61077
G1 X51.61 Y7.037 E0.64388
G1 X53.577 Y6.614 E0.7108
G1 X54.41 Y6.492 E0.7388
G1 X55.579 Y6.398 E0.77781
G1 X56.353 Y6.382 E0.80356
G1 X58.236 Y6.459 E0.86624
G1 X58.753 Y6.502 E0.8835
G1 X75.714 Y8.58 E1.45184
G1 X117.191 Y13.405 E2.84067
G1 X117.895 Y13.527 E2.86444
G1 X118.582 Y13.727 E2.88824
G1 X119.242 Y14.003 E2.91203
G1 X119.867 Y14.35 E2.93581
G1 X120.647 Y14.929 E2.96811
G1 X124.648 Y18.403 E3.14435
G1 X125.161 Y18.902 E3.16815
G1 X125.615 Y19.454 E3.19193
G1 X126.005 Y20.054 E3.21573
G1 X126.325 Y20.694 E3.23953
G1 X126.572 Y21.365 E3.26331
G1 X126.743 Y22.06 E3.28711
G1 X126.835 Y22.769 E3.31089
G1 X126.852 Y23.234 E3.32637
G1 X126.853 Y26.269 E3.42731
G1 X126.813 Y26.983 E3.4511
G1 X126.694 Y27.688 E3.47488
G1 X126.497 Y28.376 E3.49868
G1 X126.224 Y29.037 E3.52247
G1 X125.88 Y29.664 E3.54625
G1 X125.467 Y30.248 E3.57004
G1 X124.992 Y30.783 E3.59384
G1 X124.653 Y31.1 E3.60928
G1 X120.664 Y34.569 E3.7851
G1 X120.099 Y35.008 E3.8089
G1 X119.488 Y35.38 E3.83269
G1 X118.84 Y35.683 E3.85649
G1 X118.162 Y35.911 E3.88028
G1 X117.219 Y36.095 E3.91223
G1 X97.282 Y38.463 E4.58
G1 X91.945 Y39.246 E4.75941
G1 X86.752 Y40.312 E4.93573
G1 X84.218 Y40.943 E5.02259
G1 X78.43 Y42.614 E5.22296
G1 X77.733 Y42.774 E5.24674
G1 X77.369 Y42.825 E5.25897
G1 X75.686 Y43.014 E5.3153
G1 X74.972 Y43.054 E5.33908
G1 X74.507 Y43.037 E5.35456
G1 X72.741 Y42.908 E5.41345
G1 X67.362 Y42.708 E5.59248
G1 X62.038 Y42.81 E5.76959
G1 X57.241 Y43.119 E5.92947
G1 X56.719 Y43.131 E5.94684
G1 X55.568 Y43.111 E5.98513
G1 X54.935 Y43.069 E6.00623
G1 X53.739 Y42.929 E6.04628
G1 X53.06 Y42.812 E6.06919
G1 X51.587 Y42.476 E6.11944
G1 X50.899 Y42.278 E6.14326
G1 X50.057 Y41.914 E6.17377
G1 X39.332 Y36.335 E6.57586
G1 X38.716 Y35.97 E6.59967
G1 X37.941 Y35.357 E6.63254
G1 X37.031 Y34.516 E6.67375
G1 X36.534 Y34.002 E6.69753
G1 X36.011 Y33.308 E6.72643
G1 X35.567 Y32.626 E6.7535
G1 X35.211 Y32.005 E6.77731
G1 X35.004 Y31.549 E6.79396
G1 X34.733 Y30.884 E6.81785
G1 X34.501 Y30.208 E6.84162
G1 X34.387 Y29.736 E6.85777
G1 X34.218 Y28.899 E6.88617
G1 X34.115 Y28.191 E6.90997
G1 X34.091 Y27.633 E6.92854
G1 X34.09 Y21.889 E7.11959
G1 X34.13 Y21.175 E7.14337
G1 X34.185 Y20.792 E7.15624
G1 X34.294 Y20.165 E7.17741
G1 X34.455 Y19.468 E7.2012
G1 X34.673 Y18.845 E7.22316
G1 X35.115 Y17.761 E7.26209
G1 X35.421 Y17.114 E7.2859
M204 S5000
M205 X30 Y30
G0 F3600 X35.783 Y17.286
M204 S500
M205 X20 Y20
G1 F1500 X36.194 Y16.641 E7.31133
G1 X36.666 Y15.994 E7.33797
G1 X37.106 Y15.459 E7.36101
G1 X37.611 Y14.972 E7.38434
G1 X38.465 Y14.241 E7.42173
G1 X39.017 Y13.822 E7.44478
G1 X39.599 Y13.475 E7.46732
G1 X50.188 Y7.97 E7.86426
G1 X50.82 Y7.687 E7.88729
G1 X51.695 Y7.428 E7.91764
G1 X53.662 Y7.005 E7.98456
G1 X54.442 Y6.89 E8.01079
G1 X55.611 Y6.796 E8.04979
G1 X56.337 Y6.782 E8.07394
G1 X58.22 Y6.859 E8.13663
G1 X58.705 Y6.899 E8.15281
G1 X75.667 Y8.977 E8.72119
G1 X117.144 Y13.802 E10.11002
G1 X117.826 Y13.922 E10.13305
G1 X118.49 Y14.119 E10.15609
G1 X119.127 Y14.392 E10.17914
G1 X119.728 Y14.736 E10.20217
G1 X120.385 Y15.231 E10.22953
G1 X124.386 Y18.705 E10.40577
G1 X124.882 Y19.189 E10.42882
G1 X125.318 Y19.726 E10.45182
G1 X125.69 Y20.31 E10.47485
G1 X125.993 Y20.934 E10.49793
G1 X126.221 Y21.587 E10.52093
G1 X126.373 Y22.263 E10.54398
G1 X126.452 Y23.234 E10.57638
G1 X126.453 Y26.269 E10.67732
G1 X126.413 Y26.96 E10.70034
G1 X126.294 Y27.643 E10.7234
G1 X126.097 Y28.307 E10.74644
G1 X125.825 Y28.943 E10.76945
G1 X125.481 Y29.545 E10.79251
G1 X125.071 Y30.102 E10.81551
G1 X124.39 Y30.798 E10.8479
G1 X120.401 Y34.267 E11.02372
G1 X119.853 Y34.691 E11.04677
G1 X119.26 Y35.049 E11.06981
G1 X118.63 Y35.335 E11.09282
G1 X117.971 Y35.548 E11.11586
G1 X117.172 Y35.698 E11.14289
G1 X97.213 Y38.069 E11.8114
G1 X91.896 Y38.849 E11.99014
G1 X86.644 Y39.926 E12.16846
G1 X84.12 Y40.556 E12.25498
G1 X78.319 Y42.23 E12.45579
G1 X77.325 Y42.428 E12.4895
G1 X75.642 Y42.617 E12.54583
G1 X74.95 Y42.654 E12.56888
G1 X74.536 Y42.638 E12.58266
G1 X72.756 Y42.508 E12.64202
G1 X67.37 Y42.307 E12.82129
G1 X62.026 Y42.41 E12.99906
G1 X57.215 Y42.72 E13.15941
G1 X56.726 Y42.731 E13.17568
G1 X55.575 Y42.711 E13.21396
G1 X54.981 Y42.671 E13.23377
G1 X53.785 Y42.531 E13.27382
G1 X53.149 Y42.422 E13.29528
G1 X51.676 Y42.086 E13.34553
G1 X51.01 Y41.893 E13.36859
G1 X50.241 Y41.559 E13.39648
G1 X39.516 Y35.98 E13.79857
G1 X38.921 Y35.625 E13.82161
G1 X38.213 Y35.063 E13.85168
G1 X37.303 Y34.222 E13.89289
G1 X36.822 Y33.724 E13.91592
G1 X36.347 Y33.09 E13.94227
G1 X35.903 Y32.408 E13.96933
G1 X35.559 Y31.806 E13.9924
G1 X35.375 Y31.398 E14.00728
G1 X35.104 Y30.733 E14.03117
G1 X34.88 Y30.078 E14.05419
G1 X34.779 Y29.657 E14.06859
G1 X34.61 Y28.82 E14.09699
G1 X34.512 Y28.134 E14.12004
G1 X34.491 Y27.633 E14.13672
G1 X34.49 Y21.889 E14.32776
G1 X34.579 Y20.86 E14.36211
G1 X34.688 Y20.233 E14.38328
G1 X34.845 Y19.559 E14.4063
G1 X35.043 Y18.996 E14.42615
G1 X35.485 Y17.912 E14.46508
G1 X35.783 Y17.286 E14.48814
M204 S5000
M205 X30 Y30
G0 F3600 X36.145 Y17.459
M204 S500
M205 X20 Y20
G1 F1500 X36.517 Y16.877 E14.51112
G1 X36.989 Y16.23 E14.53776
G1 X37.415 Y15.714 E14.56001
G1 X37.871 Y15.276 E14.58104
G1 X38.725 Y14.545 E14.61843
G1 X39.259 Y14.141 E14.6407
G1 X39.784 Y13.83 E14.661
G1 X50.373 Y8.325 E15.05794
G1 X50.984 Y8.053 E15.08018
G1 X51.779 Y7.819 E15.10775
G1 X53.746 Y7.396 E15.17466
G1 X54.474 Y7.289 E15.19914
G1 X55.643 Y7.195 E15.23814
G1 X56.321 Y7.182 E15.2607
G1 X58.204 Y7.259 E15.32338
G1 X58.656 Y7.296 E15.33846
G1 X75.648 Y9.378 E15.90785
G1 X117.098 Y14.2 E17.29578
G1 X117.757 Y14.316 E17.31803
G1 X118.397 Y14.511 E17.34029
G1 X119.009 Y14.781 E17.36253
G1 X119.585 Y15.121 E17.38478
G1 X120.123 Y15.534 E17.40734
G1 X124.124 Y19.008 E17.58358
G1 X124.602 Y19.476 E17.60582
G1 X125.02 Y19.997 E17.62804
G1 X125.374 Y20.565 E17.6503
G1 X125.657 Y21.171 E17.67255
G1 X125.867 Y21.807 E17.69482
G1 X125.998 Y22.463 E17.71707
G1 X126.052 Y23.234 E17.74278
G1 X126.053 Y26.269 E17.84372
G1 X126.013 Y26.937 E17.86598
G1 X125.894 Y27.595 E17.88822
G1 X125.697 Y28.235 E17.91049
G1 X125.426 Y28.846 E17.93272
G1 X125.083 Y29.421 E17.95499
G1 X124.674 Y29.951 E17.97726
G1 X124.128 Y30.497 E18.00294
G1 X120.139 Y33.966 E18.17877
G1 X119.609 Y34.374 E18.20101
G1 X119.034 Y34.716 E18.22327
G1 X118.422 Y34.987 E18.24553
G1 X117.782 Y35.183 E18.26779
G1 X117.125 Y35.301 E18.28999
G1 X97.179 Y37.67 E18.95806
G1 X91.808 Y38.458 E19.13861
G1 X86.569 Y39.533 E19.31649
G1 X83.99 Y40.176 E19.4049
G1 X78.208 Y41.845 E19.60506
G1 X77.28 Y42.03 E19.63653
G1 X75.597 Y42.219 E19.69286
G1 X74.929 Y42.254 E19.71511
G1 X74.565 Y42.239 E19.72723
G1 X72.772 Y42.108 E19.78702
G1 X67.377 Y41.907 E19.96658
G1 X61.994 Y42.011 E20.14566
G1 X57.19 Y42.32 E20.30577
G1 X56.733 Y42.331 E20.32097
G1 X55.582 Y42.311 E20.35926
G1 X55.028 Y42.274 E20.37773
G1 X53.832 Y42.134 E20.41778
G1 X53.238 Y42.032 E20.43782
G1 X51.765 Y41.696 E20.48807
G1 X51.122 Y41.508 E20.51036
G1 X50.426 Y41.204 E20.53562
G1 X39.701 Y35.625 E20.93771
G1 X39.127 Y35.281 E20.95997
G1 X38.484 Y34.77 E20.98728
G1 X37.574 Y33.929 E21.0285
G1 X37.111 Y33.446 E21.05075
G1 X36.682 Y32.871 E21.07461
G1 X36.238 Y32.189 E21.10168
G1 X35.907 Y31.608 E21.12392
G1 X35.745 Y31.247 E21.13708
G1 X35.474 Y30.582 E21.16096
G1 X35.259 Y29.949 E21.1832
G1 X35.171 Y29.577 E21.19591
G1 X35.002 Y28.74 E21.22431
G1 X34.909 Y28.078 E21.24655
G1 X34.891 Y27.633 E21.26136
G1 X34.89 Y21.889 E21.45241
G1 X34.973 Y20.929 E21.48445
G1 X35.082 Y20.302 E21.50562
G1 X35.236 Y19.651 E21.52787
G1 X35.414 Y19.147 E21.54565
G1 X35.856 Y18.063 E21.58458
G1 X36.145 Y17.459 E21.60685
M204 S5000
M205 X30 Y30
G0 F3600 X36.506 Y17.633
M204 S500
M205 X20 Y20
G1 F1500 X36.84 Y17.112 E21.62744
G1 X37.312 Y16.465 E21.65408
G1 X37.724 Y15.969 E21.67552
G1 X38.132 Y15.58 E21.69427
G1 X38.986 Y14.849 E21.73166
G1 X39.5 Y14.461 E21.75308
G1 X39.968 Y14.185 E21.77115
G1 X50.557 Y8.68 E22.16809
G1 X51.147 Y8.419 E22.18955
G1 X51.863 Y8.21 E22.21436
G1 X53.83 Y7.787 E22.28128
G1 X54.506 Y7.688 E22.304
G1 X55.675 Y7.594 E22.34301
G1 X56.304 Y7.581 E22.36393
G1 X58.187 Y7.658 E22.42661
G1 X58.607 Y7.693 E22.44063
G1 X75.575 Y9.772 E23.00921
G1 X117.052 Y14.597 E24.39804
G1 X117.686 Y14.711 E24.41947
G1 X118.302 Y14.903 E24.44093
G1 X118.889 Y15.169 E24.46236
G1 X119.439 Y15.506 E24.48382
G1 X119.86 Y15.836 E24.50161
G1 X123.861 Y19.31 E24.67785
G1 X124.321 Y19.762 E24.6993
G1 X124.721 Y20.267 E24.72072
G1 X125.056 Y20.818 E24.74217
G1 X125.319 Y21.406 E24.76359
G1 X125.508 Y22.023 E24.78506
G1 X125.62 Y22.658 E24.8065
G1 X125.652 Y23.234 E24.82569
G1 X125.653 Y26.269 E24.92664
G1 X125.613 Y26.913 E24.9481
G1 X125.494 Y27.546 E24.96952
G1 X125.298 Y28.16 E24.99096
G1 X125.027 Y28.745 E25.0124
G1 X124.685 Y29.292 E25.03386
G1 X124.279 Y29.793 E25.0553
G1 X123.865 Y30.195 E25.0745
G1 X119.876 Y33.664 E25.25032
G1 X119.365 Y34.056 E25.27174
G1 X118.808 Y34.382 E25.29321
G1 X118.216 Y34.636 E25.31464
G1 X117.597 Y34.815 E25.33607
G1 X117.077 Y34.904 E25.35361
G1 X97.115 Y37.275 E26.02222
G1 X91.741 Y38.064 E26.20288
G1 X86.483 Y39.142 E26.3814
G1 X83.892 Y39.788 E26.47021
G1 X78.097 Y41.461 E26.67082
G1 X77.235 Y41.633 E26.70006
G1 X75.552 Y41.822 E26.75639
G1 X74.594 Y41.84 E26.78826
G1 X72.787 Y41.708 E26.84852
G1 X67.384 Y41.507 E27.02835
G1 X61.982 Y41.611 E27.20805
G1 X57.164 Y41.921 E27.36863
G1 X56.74 Y41.931 E27.38274
G1 X55.589 Y41.911 E27.42102
G1 X55.074 Y41.877 E27.43819
G1 X53.878 Y41.737 E27.47824
G1 X53.327 Y41.642 E27.49684
G1 X51.854 Y41.306 E27.54709
G1 X51.235 Y41.124 E27.56855
G1 X50.61 Y40.849 E27.59126
G1 X39.885 Y35.27 E27.99335
G1 X39.333 Y34.938 E28.01478
G1 X38.756 Y34.476 E28.03936
G1 X37.846 Y33.635 E28.08057
G1 X37.4 Y33.169 E28.10203
G1 X37.017 Y32.653 E28.1234
G1 X36.573 Y31.971 E28.15047
G1 X36.256 Y31.41 E28.1719
G1 X36.116 Y31.096 E28.18333
G1 X35.845 Y30.431 E28.20722
G1 X35.639 Y29.82 E28.22866
G1 X35.563 Y29.498 E28.23967
G1 X35.394 Y28.661 E28.26807
G1 X35.306 Y28.023 E28.28949
G1 X35.291 Y27.633 E28.30247
G1 X35.29 Y21.889 E28.49352
G1 X35.367 Y20.997 E28.52329
G1 X35.476 Y20.37 E28.54446
G1 X35.625 Y19.743 E28.5659
G1 X35.784 Y19.298 E28.58161
G1 X36.226 Y18.214 E28.62055
G1 X36.506 Y17.633 E28.642
M204 S5000
M205 X30 Y30
G1 F2400 E23.642
G0 F3600 X40.314 Y20.098
G0 X41.44 Y20.715
G0 X48.934 Y30.933
G0 X49.575 Y31.642
G0 X50.284 Y32.284
G0 X51.051 Y32.853
G0 X51.872 Y33.345
G0 X52.736 Y33.753
G0 X53.636 Y34.076
G0 X54.564 Y34.308
G0 X55.329 Y34.421
G0 X57.424 Y34.508
G0 X57.415 Y34.409
M204 S500
M205 X20 Y20
;TYPE:WALL-INNER
G1 F2400 E28.642
G1 F1500 X58.39 Y34.261 E28.6748
G1 X59.314 Y34.026 E28.70651
G1 X60.207 Y33.702 E28.73811
G1 X61.067 Y33.291 E28.76981
G1 X61.882 Y32.799 E28.80147
G1 X62.643 Y32.23 E28.83308
G1 X63.323 Y31.614 E28.86359
G1 X63.962 Y30.908 E28.89527
G1 X64.528 Y30.144 E28.92689
G1 X65.018 Y29.327 E28.95858
G1 X65.425 Y28.467 E28.99022
G1 X65.746 Y27.57 E29.02191
G1 X65.977 Y26.647 E29.05355
G1 X66.117 Y25.705 E29.08523
G1 X66.163 Y24.754 E29.1169
G1 X66.117 Y23.803 E29.14856
G1 X65.977 Y22.862 E29.18021
G1 X65.746 Y21.939 E29.21185
G1 X65.425 Y21.042 E29.24354
G1 X65.018 Y20.182 E29.27518
G1 X64.529 Y19.366 E29.30683
G1 X63.962 Y18.6 E29.33852
G1 X63.323 Y17.895 E29.37017
G1 X62.617 Y17.255 E29.40186
G1 X61.853 Y16.689 E29.43349
G1 X61.036 Y16.199 E29.46517
G1 X60.175 Y15.792 E29.49685
G1 X59.279 Y15.471 E29.5285
G1 X58.354 Y15.24 E29.56022
G1 X57.379 Y15.098 E29.59299
G1 X56.427 Y15.056 E29.62468
G1 X55.477 Y15.106 E29.65632
G1 X54.536 Y15.248 E29.68797
G1 X53.612 Y15.483 E29.71968
G1 X52.719 Y15.807 E29.75128
G1 X51.859 Y16.218 E29.78298
G1 X51.044 Y16.71 E29.81465
G1 X50.283 Y17.279 E29.84625
G1 X49.603 Y17.895 E29.87677
G1 X48.964 Y18.6 E29.90841
G1 X48.398 Y19.365 E29.94006
G1 X47.907 Y20.182 E29.97177
G1 X47.501 Y21.042 E30.0034
G1 X47.18 Y21.939 E30.03509
G1 X46.949 Y22.862 E30.06673
G1 X46.809 Y23.803 E30.09837
G1 X46.763 Y24.754 E30.13004
G1 X46.809 Y25.705 E30.16171
G1 X46.949 Y26.647 E30.19338
G1 X47.18 Y27.57 E30.22503
G1 X47.501 Y28.467 E30.25672
G1 X47.907 Y29.327 E30.28835
G1 X48.398 Y30.144 E30.32005
G1 X48.964 Y30.908 E30.35168
G1 X49.603 Y31.614 E30.38335
G1 X50.309 Y32.254 E30.41504
G1 X51.073 Y32.82 E30.44667
G1 X51.89 Y33.31 E30.47835
G1 X52.751 Y33.717 E30.51003
G1 X53.647 Y34.038 E30.54168
G1 X54.571 Y34.269 E30.57336
G1 X55.512 Y34.409 E30.605
G1 X56.463 Y34.454 E30.63667
G1 X57.415 Y34.409 E30.66837
M204 S5000
M205 X30 Y30
G0 F3600 X57.424 Y34.508
G0 X75.33 Y33.934
G0 X75.269 Y34.012
M204 S500
M205 X20 Y20
G1 F1500 X75.071 Y34.035 E30.675
G1 X57.598 Y36.097 E31.26018
G1 X56.463 Y36.153 E31.29798
G1 X55.343 Y36.098 E31.33528
G1 X54.235 Y35.933 E31.37254
G1 X53.191 Y35.672 E31.40833
G1 X42.675 Y30.205 E31.80253
G1 X42.417 Y30.024 E31.81302
G1 X42.185 Y29.826 E31.82316
G1 X41.957 Y29.592 E31.83403
G1 X41.748 Y29.336 E31.84502
G1 X41.571 Y29.071 E31.85562
G1 X41.421 Y28.798 E31.86598
G1 X41.298 Y28.513 E31.8763
G1 X41.193 Y28.199 E31.88731
G1 X41.12 Y27.881 E31.89817
G1 X41.08 Y27.591 E31.9079
G1 X41.08 Y21.918 E32.09659
G1 X41.12 Y21.628 E32.10632
G1 X41.197 Y21.295 E32.11769
G1 X41.293 Y21.006 E32.12782
G1 X41.423 Y20.707 E32.13866
G1 X41.575 Y20.429 E32.1492
G1 X41.745 Y20.175 E32.15937
G1 X41.957 Y19.917 E32.17048
G1 X42.182 Y19.685 E32.18122
G1 X42.42 Y19.482 E32.19163
G1 X42.676 Y19.303 E32.20202
G1 X53.191 Y13.837 E32.59618
G1 X54.235 Y13.576 E32.63197
G1 X55.353 Y13.41 E32.66956
G1 X56.463 Y13.354 E32.70653
G1 X57.578 Y13.41 E32.74366
G1 X74.673 Y15.506 E33.3165
G1 X116.21 Y20.329 E34.70731
G1 X118.469 Y22.294 E34.80689
G1 X118.869 Y22.641 E34.8245
G1 X118.34 Y22.642 E34.83386
G1 X118.339 Y22.643 E34.83391
G1 X115.863 Y22.657 E34.91626
G1 X115.863 Y26.851 E35.05575
G1 X118.339 Y26.865 E35.13811
G1 X118.34 Y26.866 E35.13815
G1 X118.869 Y26.867 E35.15575
G1 X118.469 Y27.214 E35.16511
G1 X116.21 Y29.179 E35.26469
G1 X76.064 Y33.919 E36.60923
G1 X76.298 Y35.904 E36.67571
G1 X75.701 Y35.975 E36.6957
G1 X75.503 Y35.998 E36.70233
G1 X75.48 Y35.8 E36.70662
G1 X75.292 Y34.21 E36.75988
G1 X75.269 Y34.012 E36.76416
M204 S5000
M205 X30 Y30
G0 F3600 X75.33 Y33.934
G0 X80.467 Y30.658
G0 X80.561 Y30.691
M204 S500
M205 X20 Y20
G1 F1500 X80.879 Y31.602 E36.79626
G1 X103.581 Y28.895 E37.55668
G1 X103.677 Y28.09 E37.58364
G1 X103.692 Y27.959 E37.58803
G1 X100.788 Y26.866 E37.69123
G1 X100.662 Y26.819 E37.6957
G1 X97.572 Y25.654 E37.80554
G1 X88.759 Y25.654 E38.09866
G1 X80.561 Y30.691 E38.41868
M204 S5000
M205 X30 Y30
G0 F3600 X80.467 Y30.658
G0 X88.675 Y24.754
G0 X88.575 Y24.754
M204 S500
M205 X20 Y20
G1 F1500 X88.299 Y24.584 E38.42946
G1 X76.597 Y17.397 E38.88622
G1 X64.955 Y16.008 E39.27618
G1 X64.573 Y16.747 E39.30385
G1 X65.274 Y17.521 E39.33858
G1 X65.94 Y18.419 E39.37576
G1 X66.517 Y19.383 E39.41313
G1 X66.995 Y20.392 E39.45027
G1 X67.37 Y21.441 E39.48732
G1 X67.641 Y22.526 E39.52452
G1 X67.807 Y23.644 E39.56211
