;FLAVOR:Marlin
;TIME:519
;Filament used: 0.15514m
;Layer height: 0.1
;Generated with Cura_SteamEngine 3.2.1
M190 S60
M104 S180
M109 S180
M82 ;absolute extrusion mode
G28 ;Home
G1 Z15.0 F6000 ;Move the platform down 15mm
;Prime the extruder
G92 E0
G1 F200 E3
G92 E0
;LAYER_COUNT:20
;LAYER:0
M107
M204 S5000
M205 X30 Y30
G0 F3600 X71.389 Y9.637 Z0.2
M204 S500
M205 X20 Y20
;TYPE:SKIRT
G1 F1500 X71.493 Y9.003 E0.02137
G1 X71.627 Y8.381 E0.04253
G1 X71.816 Y7.691 E0.06633
G1 X72.081 Y7.027 E0.0901
G1 X72.419 Y6.397 E0.11388
G1 X72.719 Y5.949 E0.13182
G1 X73.074 Y5.464 E0.15181
G1 X73.528 Y4.911 E0.1756
G1 X74.041 Y4.413 E0.19938
G1 X74.606 Y3.974 E0.22318
G1 X75.28 Y3.569 E0.24934
G1 X75.938 Y3.226 E0.27402
G1 X76.589 Y2.931 E0.29779
G1 X77.27 Y2.711 E0.32159
G1 X77.971 Y2.568 E0.34539
G1 X78.862 Y2.501 E0.3751
G1 X84.388 Y2.472 E0.5589
G1 X85.103 Y2.508 E0.58271
G1 X85.809 Y2.624 E0.60651
G1 X86.468 Y2.808 E0.62927
G1 X87.046 Y3.003 E0.64956
G1 X87.71 Y3.269 E0.67335
G1 X88.34 Y3.608 E0.69714
G1 X88.928 Y4.014 E0.72091
G1 X89.563 Y4.579 E0.74918
G1 X90.097 Y5.122 E0.77451
G1 X90.569 Y5.66 E0.79831
G1 X90.979 Y6.246 E0.8221
G1 X91.32 Y6.875 E0.8459
G1 X91.614 Y7.612 E0.87229
G1 X91.798 Y8.172 E0.89189
G1 X91.983 Y8.863 E0.91568
G1 X92.09 Y9.57 E0.93947
G1 X92.118 Y10.141 E0.95848
G1 X92.13 Y12.785 E1.04642
G1 X92.104 Y13.386 E1.06643
G1 X91.672 Y18.196 E1.22706
G1 X91.475 Y23.52 E1.40425
G1 X91.577 Y28.794 E1.5797
G1 X92.108 Y35.317 E1.79737
G1 X92.128 Y35.947 E1.81834
G1 X92.078 Y38.84 E1.91457
G1 X92.026 Y39.553 E1.93835
G1 X91.894 Y40.256 E1.96214
G1 X91.685 Y40.94 E1.98593
G1 X91.427 Y41.542 E2.00771
G1 X91.173 Y42.061 E2.02693
G1 X90.824 Y42.685 E2.05071
G1 X90.406 Y43.266 E2.07452
G1 X89.927 Y43.797 E2.0983
G1 X89.343 Y44.308 E2.12411
G1 X88.736 Y44.778 E2.14965
G1 X88.147 Y45.184 E2.17344
G1 X87.516 Y45.521 E2.19723
G1 X86.852 Y45.786 E2.22101
G1 X86.162 Y45.975 E2.24481
G1 X85.66 Y46.062 E2.26175
G1 X84.696 Y46.19 E2.2941
G1 X83.84 Y46.246 E2.32263
G1 X79.235 Y46.236 E2.47579
G1 X78.521 Y46.194 E2.49958
G1 X77.612 Y46.023 E2.53034
G1 X76.856 Y45.823 E2.55635
G1 X76.176 Y45.602 E2.58013
G1 X75.525 Y45.306 E2.60392
G1 X74.911 Y44.939 E2.62771
G1 X74.267 Y44.442 E2.65477
G1 X73.828 Y44.056 E2.67421
G1 X73.318 Y43.555 E2.69799
G1 X72.867 Y42.999 E2.7218
G1 X72.481 Y42.397 E2.74559
G1 X72.308 Y42.068 E2.75795
G1 X72.054 Y41.55 E2.77714
G1 X71.775 Y40.891 E2.80094
G1 X71.572 Y40.205 E2.82473
G1 X71.449 Y39.526 E2.84768
G1 X71.397 Y39.11 E2.86163
G1 X71.348 Y38.316 E2.88809
G1 X71.349 Y10.351 E3.81821
G1 X71.389 Y9.637 E3.84199
M204 S5000
M205 X30 Y30
G0 F3600 X71.789 Y9.659
M204 S500
M205 X20 Y20
G1 F1500 X71.884 Y9.087 E3.86128
G1 X72.018 Y8.465 E3.88244
G1 X72.202 Y7.798 E3.90545
G1 X72.463 Y7.156 E3.9285
G1 X72.795 Y6.549 E3.95151
G1 X73.041 Y6.185 E3.96613
G1 X73.396 Y5.7 E3.98612
G1 X73.837 Y5.166 E4.00915
G1 X74.336 Y4.686 E4.03218
G1 X74.887 Y4.267 E4.0552
G1 X75.465 Y3.923 E4.07758
G1 X76.123 Y3.58 E4.10226
G1 X76.754 Y3.296 E4.12527
G1 X77.414 Y3.087 E4.1483
G1 X78.094 Y2.955 E4.17134
G1 X78.865 Y2.901 E4.19704
G1 X84.391 Y2.872 E4.38084
G1 X85.082 Y2.908 E4.40385
G1 X85.765 Y3.024 E4.4269
G1 X86.34 Y3.187 E4.44677
G1 X86.918 Y3.382 E4.46706
G1 X87.56 Y3.641 E4.49009
G1 X88.169 Y3.972 E4.51314
G1 X88.735 Y4.371 E4.53618
G1 X89.278 Y4.86 E4.56048
G1 X89.812 Y5.403 E4.58581
G1 X90.268 Y5.924 E4.60884
G1 X90.661 Y6.494 E4.63187
G1 X90.986 Y7.106 E4.65491
G1 X91.234 Y7.737 E4.67746
G1 X91.418 Y8.297 E4.69707
G1 X91.596 Y8.966 E4.72009
G1 X91.696 Y9.652 E4.74315
G1 X91.718 Y10.143 E4.7595
G1 X91.73 Y12.787 E4.84744
G1 X91.706 Y13.35 E4.86618
G1 X91.272 Y18.183 E5.02757
G1 X91.074 Y23.512 E5.20494
G1 X91.178 Y28.818 E5.38145
G1 X91.709 Y35.349 E5.59939
G1 X91.728 Y35.94 E5.61906
G1 X91.678 Y38.833 E5.71529
G1 X91.626 Y39.523 E5.73831
G1 X91.495 Y40.203 E5.76134
G1 X91.286 Y40.864 E5.7844
G1 X91.068 Y41.366 E5.8026
G1 X90.814 Y41.885 E5.82182
G1 X90.474 Y42.489 E5.84487
G1 X90.067 Y43.049 E5.8679
G1 X89.598 Y43.559 E5.89094
G1 X89.098 Y43.992 E5.91294
G1 X88.491 Y44.462 E5.93848
G1 X87.92 Y44.854 E5.96151
G1 X87.308 Y45.177 E5.98453
G1 X86.662 Y45.428 E6.00758
G1 X85.992 Y45.602 E6.0306
G1 X85.608 Y45.666 E6.04355
G1 X84.644 Y45.794 E6.0759
G1 X83.841 Y45.846 E6.10266
G1 X79.236 Y45.836 E6.25582
G1 X78.545 Y45.795 E6.27885
G1 X77.714 Y45.636 E6.30699
G1 X76.958 Y45.436 E6.333
G1 X76.3 Y45.221 E6.35602
G1 X75.671 Y44.931 E6.37906
G1 X75.08 Y44.571 E6.40207
G1 X74.531 Y44.142 E6.42525
G1 X74.092 Y43.756 E6.44469
G1 X73.599 Y43.269 E6.46774
G1 X73.166 Y42.729 E6.49076
G1 X72.667 Y41.892 E6.52317
G1 X72.413 Y41.374 E6.54236
G1 X72.144 Y40.735 E6.56542
G1 X71.951 Y40.07 E6.58845
G1 X71.846 Y39.476 E6.60851
G1 X71.794 Y39.06 E6.62246
G1 X71.748 Y38.316 E6.64725
G1 X71.749 Y10.351 E7.57737
G1 X71.789 Y9.659 E7.60042
M204 S5000
M205 X30 Y30
G0 F3600 X72.189 Y9.683
M204 S500
M205 X20 Y20
G1 F1500 X72.275 Y9.172 E7.61766
G1 X72.409 Y8.55 E7.63882
G1 X72.588 Y7.905 E7.66108
G1 X72.844 Y7.287 E7.68333
G1 X73.171 Y6.703 E7.70559
G1 X73.364 Y6.421 E7.71696
G1 X73.719 Y5.936 E7.73695
G1 X74.146 Y5.421 E7.7592
G1 X74.631 Y4.96 E7.78146
G1 X75.168 Y4.561 E7.80371
G1 X75.649 Y4.278 E7.82227
G1 X76.307 Y3.935 E7.84695
G1 X76.918 Y3.662 E7.86921
G1 X77.557 Y3.463 E7.89147
G1 X78.215 Y3.343 E7.91371
G1 X78.867 Y3.301 E7.93544
G1 X84.393 Y3.272 E8.11924
G1 X85.061 Y3.309 E8.14149
G1 X85.72 Y3.424 E8.16374
G1 X86.212 Y3.566 E8.18078
G1 X86.79 Y3.761 E8.20106
G1 X87.41 Y4.012 E8.22331
G1 X87.996 Y4.336 E8.24558
G1 X88.539 Y4.727 E8.26784
G1 X88.993 Y5.14 E8.28825
G1 X89.527 Y5.683 E8.31358
G1 X89.967 Y6.188 E8.33586
G1 X90.343 Y6.741 E8.3581
G1 X90.651 Y7.335 E8.38036
G1 X90.854 Y7.862 E8.39914
G1 X91.038 Y8.422 E8.41874
G1 X91.209 Y9.069 E8.441
G1 X91.301 Y9.732 E8.46327
G1 X91.318 Y10.145 E8.47701
G1 X91.33 Y12.789 E8.56495
G1 X91.308 Y13.315 E8.58246
G1 X90.872 Y18.172 E8.74466
G1 X90.674 Y23.505 E8.92216
G1 X90.778 Y28.826 E9.09917
G1 X91.311 Y35.382 E9.31794
G1 X91.328 Y35.933 E9.33628
G1 X91.278 Y38.826 E9.43251
G1 X91.227 Y39.493 E9.45476
G1 X91.096 Y40.149 E9.47701
G1 X90.888 Y40.785 E9.49927
G1 X90.709 Y41.191 E9.51402
G1 X90.455 Y41.71 E9.53324
G1 X90.125 Y42.292 E9.55549
G1 X89.729 Y42.831 E9.57774
G1 X89.271 Y43.318 E9.59998
G1 X88.853 Y43.676 E9.61828
G1 X88.246 Y44.146 E9.64381
G1 X87.694 Y44.523 E9.66605
G1 X87.1 Y44.832 E9.68832
G1 X86.474 Y45.067 E9.71056
G1 X85.555 Y45.269 E9.74185
G1 X84.591 Y45.397 E9.7742
G1 X83.842 Y45.446 E9.79916
G1 X79.237 Y45.436 E9.95232
G1 X78.569 Y45.395 E9.97458
G1 X77.817 Y45.25 E10.00006
G1 X77.061 Y45.05 E10.02607
G1 X76.425 Y44.84 E10.04834
G1 X75.819 Y44.557 E10.07059
G1 X75.252 Y44.203 E10.09282
G1 X74.795 Y43.842 E10.11219
G1 X74.356 Y43.456 E10.13163
G1 X73.881 Y42.985 E10.15388
G1 X73.465 Y42.46 E10.17616
G1 X73.026 Y41.715 E10.20492
G1 X72.772 Y41.197 E10.22411
G1 X72.514 Y40.58 E10.24635
G1 X72.331 Y39.937 E10.26859
G1 X72.243 Y39.427 E10.2858
G1 X72.191 Y39.011 E10.29975
G1 X72.148 Y38.316 E10.32291
G1 X72.149 Y10.351 E11.25303
G1 X72.189 Y9.683 E11.27528
M204 S5000
M205 X30 Y30
G0 F3600 X72.589 Y9.707
M204 S500
M205 X20 Y20
G1 F1500 X72.666 Y9.256 E11.2905
G1 X72.8 Y8.634 E11.31166
G1 X72.974 Y8.013 E11.33311
G1 X73.224 Y7.419 E11.35455
G1 X73.687 Y6.658 E11.38418
G1 X74.042 Y6.173 E11.40417
G1 X74.454 Y5.677 E11.42561
G1 X74.925 Y5.236 E11.44707
G1 X75.446 Y4.857 E11.4685
G1 X75.834 Y4.633 E11.4834
G1 X76.492 Y4.29 E11.50808
G1 X77.081 Y4.028 E11.52952
G1 X77.698 Y3.841 E11.55097
G1 X78.334 Y3.731 E11.57243
G1 X78.869 Y3.701 E11.59026
G1 X84.395 Y3.672 E11.77405
G1 X85.038 Y3.709 E11.79548
G1 X85.673 Y3.825 E11.81695
G1 X86.084 Y3.945 E11.83119
G1 X86.662 Y4.14 E11.85148
G1 X87.259 Y4.383 E11.87291
G1 X87.821 Y4.699 E11.89436
G1 X88.34 Y5.082 E11.91581
G1 X88.708 Y5.421 E11.93245
G1 X89.242 Y5.964 E11.95778
G1 X89.664 Y6.451 E11.97922
G1 X90.023 Y6.986 E12.00065
G1 X90.314 Y7.562 E12.02211
G1 X90.474 Y7.987 E12.03721
G1 X90.658 Y8.547 E12.05682
G1 X90.821 Y9.171 E12.07827
G1 X90.906 Y9.81 E12.09971
G1 X90.918 Y10.146 E12.11089
G1 X90.93 Y12.79 E12.19883
G1 X90.909 Y13.279 E12.21511
G1 X90.473 Y18.14 E12.37744
G1 X90.274 Y23.498 E12.55577
G1 X90.378 Y28.85 E12.73381
G1 X90.912 Y35.414 E12.95285
G1 X90.928 Y35.926 E12.96989
G1 X90.878 Y38.819 E13.06613
G1 X90.827 Y39.462 E13.08758
G1 X90.697 Y40.093 E13.10901
G1 X90.49 Y40.703 E13.13043
G1 X90.35 Y41.015 E13.14181
G1 X90.096 Y41.534 E13.16102
G1 X89.777 Y42.094 E13.18246
G1 X89.391 Y42.611 E13.20392
G1 X88.945 Y43.076 E13.22535
G1 X88.609 Y43.36 E13.23998
G1 X88.002 Y43.83 E13.26552
G1 X87.468 Y44.192 E13.28697
G1 X86.894 Y44.485 E13.30841
G1 X86.289 Y44.706 E13.32983
G1 X85.502 Y44.873 E13.35659
G1 X84.538 Y45.001 E13.38893
G1 X83.843 Y45.046 E13.4121
G1 X79.238 Y45.036 E13.56526
G1 X78.594 Y44.995 E13.58672
G1 X77.919 Y44.863 E13.6096
G1 X77.163 Y44.663 E13.63561
G1 X76.551 Y44.46 E13.65705
G1 X75.969 Y44.183 E13.67849
G1 X75.426 Y43.835 E13.69994
G1 X75.059 Y43.541 E13.71558
G1 X74.62 Y43.155 E13.73503
G1 X74.164 Y42.7 E13.75645
G1 X73.766 Y42.192 E13.77792
G1 X73.385 Y41.539 E13.80306
G1 X73.131 Y41.021 E13.82225
G1 X72.884 Y40.426 E13.84368
G1 X72.712 Y39.805 E13.86511
G1 X72.64 Y39.377 E13.87955
G1 X72.588 Y38.961 E13.89349
G1 X72.548 Y38.316 E13.91498
G1 X72.549 Y10.351 E14.8451
G1 X72.589 Y9.707 E14.86656
M204 S5000
M205 X30 Y30
G1 F2400 E9.86656
G0 F3600 X77.085 Y10.219
G0 X78.358 Y10.388
G0 X79.069 Y13.616
G0 X79.139 Y13.546
M204 S500
M205 X20 Y20
;TYPE:WALL-INNER
G1 F2400 E14.86656
G1 F1500 X82.439 Y13.546 E14.97632
G1 X82.439 Y12.198 E15.02116
G1 X82.439 Y12.084 E15.02495
G1 X82.439 Y11.97 E15.02874
G1 X82.439 Y11.777 E15.03516
G1 X82.597 Y11.97
G1 X82.724 Y12.084 E15.0367
G1 X82.816 Y12.152 E15.04002
G1 X82.862 Y12.186 E15.04192
G1 X83.112 Y12.319 E15.05134
G1 X83.273 Y12.378 E15.05705
G1 X83.425 Y12.416 E15.06226
G1 X83.595 Y12.442 E15.06798
G1 X83.897 Y12.442 E15.07802
G1 X84.206 Y12.379 E15.08851
G1 X84.48 Y12.265 E15.09838
G1 X84.639 Y12.17 E15.10454
G1 X84.759 Y12.072 E15.10969
G1 X84.86 Y11.99 E15.11402
G1 X84.983 Y11.855 E15.1201
G1 X85.133 Y11.63 E15.12909
G1 X85.133 Y11.854
G1 X85.134 Y11.988
G1 X85.134 Y12.119 E15.13283
G1 X85.138 Y12.599 E15.1488
G1 X83.139 Y14.597 E15.2428
G1 X83.139 Y34.095 E15.89131
G1 X85.139 Y36.094 E15.98536
G1 X85.139 Y36.597 E16.00209
G1 X85.139 Y36.598 E16.00212
G1 X85.139 Y36.714 E16.00598
G1 X85.139 Y36.843 E16.01027
G1 X85.139 Y37.069 E16.01779
G1 X84.987 Y36.843
G1 X84.871 Y36.714
G1 X84.741 Y36.598 E16.02245
G1 X84.495 Y36.434 E16.03228
G1 X84.206 Y36.313 E16.0427
G1 X83.911 Y36.254 E16.05271
G1 X83.739 Y36.246 E16.05844
G1 X83.567 Y36.254 E16.06416
G1 X83.272 Y36.312 E16.07416
G1 X82.982 Y36.434 E16.08463
G1 X82.811 Y36.547 E16.09144
G1 X82.721 Y36.607 E16.09504
G1 X82.51 Y36.82 E16.10501
G1 X82.439 Y36.916 E16.10899
G1 X82.439 Y36.82
G1 X82.439 Y36.607
G1 X82.439 Y36.498 E16.11214
G1 X82.439 Y35.146 E16.15711
G1 X79.139 Y35.146 E16.26687
G1 X79.139 Y39.08 E16.39771
G1 X79.139 Y39.121 E16.39908
G1 X79.139 Y39.178 E16.40097
G1 X79.139 Y39.207 E16.40194
G1 X79.139 Y39.227 E16.4026
G1 X78.984 Y39.207
G1 X78.899 Y39.178
G1 X78.783 Y39.121 E16.40552
G1 X78.749 Y39.098 E16.40682
G1 X78.695 Y39.062 E16.40898
G1 X78.606 Y38.985 E16.41289
G1 X78.528 Y38.895 E16.41685
G1 X78.458 Y38.791 E16.42102
G1 X78.408 Y38.69 E16.42477
G1 X78.378 Y38.6 E16.42792
G1 X78.339 Y38.306 E16.43779
G1 X78.339 Y10.387 E17.36638
G1 X78.379 Y10.09 E17.37635
G1 X78.408 Y10.003 E17.3794
G1 X78.464 Y9.89 E17.38359
G1 X78.52 Y9.806 E17.38695
G1 X78.604 Y9.712 E17.39114
G1 X78.702 Y9.625 E17.3955
G1 X78.749 Y9.594 E17.39737
G1 X78.779 Y9.574 E17.39857
G1 X78.905 Y9.512 E17.40324
G1 X78.984 Y9.485 E17.40602
G1 X79.139 Y9.465 E17.41122
G1 X79.139 Y9.485
G1 X79.139 Y9.512
G1 X79.139 Y9.574
G1 X79.139 Y9.611 E17.41239
G1 X79.139 Y13.546 E17.54327
M204 S5000
M205 X30 Y30
G1 F2400 E12.54327
G0 F3600 X79.069 Y13.616
G0 X79.119 Y9.53
G0 X80.404 Y9.53
G0 X81.174 Y9.53
G0 X82.459 Y9.53
G0 X82.658 Y9.53
G0 X82.721 Y9.607
M204 S500
M205 X20 Y20
G1 F2400 E17.54327
G1 F1500 X82.66 Y9.668 E17.54614
G1 X82.51 Y9.82 E17.55324
G1 X82.439 Y9.916 E17.55722
G1 X82.439 Y9.82
G1 X82.439 Y9.607
G1 X82.439 Y9.45 E17.55887
G1 X82.511 Y9.45
G1 X82.721 Y9.451
G1 X82.954 Y9.453 E17.56478
G1 X82.721 Y9.607
M204 S5000
M205 X30 Y30
G1 F2400 E12.56478
G0 F3600 X82.658 Y9.53
G0 X82.935 Y9.458
G0 X84.836 Y9.743
G0 X84.871 Y9.714
M204 S500
M205 X20 Y20
G1 F2400 E17.56478
G1 F1500 X84.771 Y9.625 E17.56923
G1 X84.871 Y9.708
G1 X84.969 Y9.823 E17.57417
G1 X84.871 Y9.714
M204 S5000
M205 X30 Y30
G1 F2400 E12.57417
G0 F3600 X83.984 Y10.618
G0 X83.983 Y11.119
G0 X83.983 Y11.163
G0 X83.986 Y37.526
G0 X83.986 Y37.57
G0 X83.987 Y38.071
G0 X84.86 Y38.99
M204 S500
M205 X20 Y20
G1 F2400 E17.57417
G1 F1500 X84.875 Y38.973 E17.57492
G1 X84.963 Y38.877 E17.57925
G1 X84.88 Y38.976
G1 X84.862 Y38.991
G1 X84.779 Y39.065 E17.58295
G1 X84.719 Y39.105 E17.58535
G1 X84.775 Y39.06
G1 X84.86 Y38.99
M204 S5000
M205 X30 Y30
G1 F2400 E12.58535
G0 F3600 X84.832 Y38.952
G0 X82.956 Y39.242
G0 X82.525 Y39.039
G0 X82.597 Y38.97
M204 S500
M205 X20 Y20
G1 F2400 E17.58535
G1 F1500 X82.647 Y39.014 E17.58757
G1 X82.724 Y39.084 E17.59103
G1 X82.862 Y39.186 E17.59673
G1 X82.975 Y39.246 E17.60099
G1 X82.862 Y39.246
G1 X82.724 Y39.246
G1 X82.597 Y39.246
G1 X82.439 Y39.246 E17.60313
G1 X82.439 Y39.084
G1 X82.439 Y38.97
G1 X82.439 Y38.777 E17.60785
G1 X82.597 Y38.97
M204 S5000
M205 X30 Y30
G1 F2400 E12.60785
G0 F3600 X82.525 Y39.039
G0 X82.445 Y38.795
G0 X82.445 Y36.897
G0 X82.622 Y36.566
G0 X82.976 Y36.918
M204 S500
M205 X20 Y20
;TYPE:WALL-OUTER
G1 F2400 E17.60785
G1 F1500 X82.814 Y37.081 E17.61549
G1 X82.738 Y37.184 E17.61975
G1 X82.632 Y37.383 E17.62725
G1 X82.59 Y37.498 E17.63132
G1 X82.562 Y37.612 E17.63522
G1 X82.545 Y37.729 E17.63916
G1 X82.539 Y37.851 E17.64322
G1 X82.561 Y38.081 E17.6509
G1 X82.628 Y38.301 E17.65855
G1 X82.68 Y38.412 E17.66263
G1 X82.743 Y38.517 E17.6667
G1 X82.887 Y38.693 E17.67427
G1 X82.977 Y38.774 E17.67829
G1 X83.076 Y38.847 E17.68238
G1 X83.275 Y38.953 E17.68988
G1 X83.39 Y38.995 E17.69396
G1 X83.504 Y39.023 E17.69786
G1 X83.626 Y39.042 E17.70197
G1 X83.857 Y39.042 E17.70965
G1 X84.088 Y38.995 E17.71749
G1 X84.3 Y38.907 E17.72512
G1 X84.409 Y38.842 E17.72935
G1 X84.584 Y38.699 E17.73686
G1 X84.667 Y38.608 E17.74096
G1 X84.797 Y38.413 E17.74875
G1 X84.848 Y38.306 E17.7527
G1 X84.889 Y38.19 E17.75679
G1 X84.933 Y37.969 E17.76428
G1 X84.939 Y37.846 E17.76838
G1 X84.933 Y37.723 E17.77247
G1 X84.888 Y37.498 E17.78011
G1 X84.798 Y37.28 E17.78795
G1 X84.67 Y37.089 E17.7956
G1 X84.588 Y36.997 E17.7997
G1 X84.496 Y36.915 E17.8038
G1 X84.305 Y36.788 E17.81142
G1 X84.088 Y36.697 E17.81925
G1 X83.862 Y36.652 E17.82692
G1 X83.739 Y36.646 E17.83101
G1 X83.616 Y36.652 E17.83511
G1 X83.389 Y36.697 E17.8428
G1 X83.172 Y36.788 E17.85063
G1 X82.976 Y36.918 E17.85845
M204 S5000
M205 X30 Y30
G0 F3600 X82.835 Y37.06
G0 X82.48 Y36.709
G0 X82.469 Y35.278
G0 X79.039 Y13.146
G0 X79.539 Y13.146
M204 S500
M205 X20 Y20
G1 F1500 X82.039 Y13.146 E17.9416
G1 X82.039 Y9.248 E18.07125
G1 X82.039 Y9.247 E18.07128
G1 X82.039 Y9.047 E18.07794
G1 X82.239 Y9.047 E18.08224
G1 X82.24 Y9.048 E18.08229
G1 X84.424 Y9.062 E18.15493
G1 X84.592 Y9.097 E18.16064
G1 X84.745 Y9.15 E18.16603
G1 X84.901 Y9.229 E18.17184
G1 X85.041 Y9.325 E18.17749
G1 X85.158 Y9.428 E18.18267
G1 X85.271 Y9.556 E18.18835
G1 X85.364 Y9.695 E18.19391
G1 X85.441 Y9.851 E18.1997
G1 X85.494 Y10.007 E18.20518
