;FLAVOR:Marlin
;TIME:1352
;Filament used: 0.584352m
;Layer height: 0.1
;Generated with Cura_SteamEngine 3.2.1
M190 S60
M104 S180
M109 S180
M82 ;absolute extrusion mode
G28 ;Home
G1 Z15.0 F6000 ;Move the platform down 15mm
;Prime the extruder
G92 E0
G1 F200 E3
G92 E0
;LAYER_COUNT:30
;LAYER:0
M107
M204 S5000
M205 X30 Y30
G0 F3600 X48.764 Y10.455 Z0.2
M204 S500
M205 X20 Y20
;TYPE:SKIRT
G1 F1500 X48.979 Y9.773 E0.02378
G1 X49.269 Y9.118 E0.04761
G1 X49.629 Y8.501 E0.07137
G1 X50.057 Y7.927 E0.09518
G1 X50.44 Y7.508 E0.11406
G1 X52.433 Y5.514 E0.20783
G1 X52.967 Y5.037 E0.23165
G1 X53.549 Y4.622 E0.25542
G1 X54.175 Y4.276 E0.27921
G1 X54.835 Y4.001 E0.30299
G1 X55.522 Y3.802 E0.32678
G1 X55.979 Y3.714 E0.34226
G1 X59.262 Y3.205 E0.45276
G1 X66.138 Y1.774 E0.68635
G1 X66.845 Y1.668 E0.71013
G1 X67.44 Y1.64 E0.72994
G1 X75.928 Y1.637 E1.01226
G1 X76.642 Y1.677 E1.03604
G1 X77.347 Y1.796 E1.05982
G1 X77.764 Y1.905 E1.07416
G1 X87.779 Y4.901 E1.42184
G1 X88.452 Y5.144 E1.44564
G1 X89.093 Y5.461 E1.46942
G1 X89.793 Y5.919 E1.49725
G1 X97.743 Y11.9 E1.82814
G1 X98.289 Y12.361 E1.85191
G1 X98.686 Y12.77 E1.87086
G1 X99.71 Y13.926 E1.92223
G1 X100.153 Y14.487 E1.946
G1 X100.479 Y15.001 E1.96625
G1 X100.939 Y15.808 E1.99714
G1 X101.258 Y16.448 E2.02093
G1 X101.446 Y16.939 E2.03841
G1 X101.886 Y18.249 E2.08438
G1 X102.075 Y18.939 E2.10817
G1 X102.154 Y19.376 E2.12294
G1 X102.262 Y20.127 E2.14818
G1 X102.327 Y21.035 E2.17846
G1 X102.329 Y25.981 E2.34296
G1 X102.289 Y26.696 E2.36678
G1 X102.199 Y27.266 E2.38597
G1 X101.896 Y28.748 E2.43628
G1 X101.714 Y29.44 E2.46008
G1 X101.504 Y29.999 E2.47994
G1 X101.136 Y30.853 E2.51087
G1 X100.665 Y31.744 E2.54439
G1 X100.164 Y32.535 E2.57553
G1 X99.573 Y33.326 E2.60838
G1 X98.963 Y34.023 E2.63918
G1 X98.463 Y34.534 E2.66296
G1 X98.012 Y34.909 E2.68247
G1 X89.828 Y41.111 E3.024
G1 X89.235 Y41.51 E3.04777
G1 X88.601 Y41.841 E3.07156
G1 X87.806 Y42.139 E3.0998
G1 X77.827 Y45.139 E3.44638
G1 X77.131 Y45.306 E3.47018
G1 X76.421 Y45.395 E3.49398
G1 X75.989 Y45.41 E3.50836
G1 X67.471 Y45.417 E3.79167
G1 X66.757 Y45.378 E3.81545
G1 X66.112 Y45.272 E3.83719
G1 X60.642 Y44.088 E4.02334
G1 X55.954 Y43.337 E4.18125
G1 X55.256 Y43.185 E4.20501
G1 X54.578 Y42.955 E4.22882
G1 X53.931 Y42.652 E4.25259
G1 X53.321 Y42.278 E4.27638
G1 X52.757 Y41.838 E4.30018
G1 X52.457 Y41.559 E4.3138
G1 X51.454 Y40.563 E4.36082
G1 X51.432 Y40.541 E4.36185
G1 X50.436 Y39.542 E4.40877
G1 X49.96 Y39.008 E4.43256
G1 X49.546 Y38.424 E4.45637
G1 X49.201 Y37.798 E4.48015
G1 X48.927 Y37.137 E4.50394
G1 X48.729 Y36.45 E4.52772
G1 X48.609 Y35.745 E4.55151
G1 X48.568 Y35.03 E4.57533
G1 X48.591 Y34.48 E4.59364
G1 X49.084 Y28.687 E4.78701
G1 X49.226 Y23.385 E4.96342
G1 X49.069 Y18.106 E5.13908
G1 X48.591 Y12.585 E5.32339
G1 X48.569 Y11.87 E5.34719
G1 X48.627 Y11.157 E5.37098
G1 X48.764 Y10.455 E5.39477
M204 S5000
M205 X30 Y30
G0 F3600 X49.169 Y10.489
M204 S500
M205 X20 Y20
G1 F1500 X49.385 Y9.832 E5.41777
G1 X49.676 Y9.203 E5.44082
G1 X50.037 Y8.612 E5.46386
G1 X50.464 Y8.067 E5.48688
G1 X50.723 Y7.79 E5.4995
G1 X52.716 Y5.796 E5.59326
G1 X53.233 Y5.336 E5.61628
G1 X53.8 Y4.938 E5.63932
G1 X54.409 Y4.607 E5.66238
G1 X55.052 Y4.35 E5.68541
G1 X56.041 Y4.109 E5.71926
G1 X59.346 Y3.597 E5.8305
G1 X66.22 Y2.166 E6.06403
G1 X66.905 Y2.064 E6.08707
G1 X67.44 Y2.04 E6.10488
G1 X75.928 Y2.037 E6.38719
G1 X76.619 Y2.077 E6.41021
G1 X77.301 Y2.196 E6.43324
G1 X77.65 Y2.289 E6.44525
G1 X87.665 Y5.285 E6.79294
G1 X88.316 Y5.521 E6.81597
G1 X88.935 Y5.831 E6.83899
G1 X89.552 Y6.238 E6.86358
G1 X97.502 Y12.219 E7.19447
G1 X98.031 Y12.667 E7.21753
G1 X98.386 Y13.036 E7.23456
G1 X99.41 Y14.192 E7.28592
G1 X99.839 Y14.736 E7.30896
G1 X100.132 Y15.199 E7.32719
G1 X100.592 Y16.006 E7.35808
G1 X100.899 Y16.626 E7.38109
G1 X101.067 Y17.067 E7.39679
G1 X101.507 Y18.377 E7.44275
G1 X101.689 Y19.045 E7.46578
G1 X101.758 Y19.433 E7.47889
G1 X101.866 Y20.184 E7.50412
G1 X101.927 Y21.036 E7.53253
G1 X101.929 Y25.982 E7.69704
G1 X101.889 Y26.673 E7.72006
G1 X101.807 Y27.186 E7.73734
G1 X101.504 Y28.668 E7.78765
G1 X101.327 Y29.337 E7.81066
G1 X101.136 Y29.84 E7.82856
G1 X100.768 Y30.694 E7.85949
G1 X100.327 Y31.53 E7.89093
G1 X99.826 Y32.321 E7.92207
G1 X99.272 Y33.062 E7.95284
G1 X98.662 Y33.759 E7.98365
G1 X98.177 Y34.253 E8.00667
G1 X97.771 Y34.59 E8.02422
G1 X89.587 Y40.792 E8.36575
G1 X89.012 Y41.178 E8.38879
G1 X88.396 Y41.495 E8.41183
G1 X87.69 Y41.756 E8.43687
G1 X77.711 Y44.756 E8.78344
G1 X77.038 Y44.917 E8.80646
G1 X76.35 Y44.999 E8.8295
G1 X75.989 Y45.01 E8.84152
G1 X67.471 Y45.017 E9.12483
G1 X66.78 Y44.978 E9.14785
G1 X66.197 Y44.881 E9.1675
G1 X60.715 Y43.695 E9.35405
G1 X56.018 Y42.942 E9.51227
G1 X55.341 Y42.794 E9.53532
G1 X54.687 Y42.568 E9.55833
G1 X54.062 Y42.268 E9.58139
G1 X53.477 Y41.898 E9.60441
G1 X52.739 Y41.275 E9.63654
G1 X51.736 Y40.279 E9.68355
G1 X51.715 Y40.258 E9.68454
G1 X50.719 Y39.259 E9.73146
G1 X50.259 Y38.741 E9.7545
G1 X49.862 Y38.174 E9.77752
G1 X49.533 Y37.565 E9.80054
G1 X49.276 Y36.922 E9.82357
G1 X49.095 Y36.253 E9.84663
G1 X48.993 Y35.568 E9.86966
G1 X48.97 Y34.876 E9.89269
G1 X48.99 Y34.514 E9.90475
G1 X49.483 Y28.715 E10.09832
G1 X49.627 Y23.384 E10.27569
G1 X49.469 Y18.094 E10.45172
G1 X48.989 Y12.55 E10.6368
G1 X48.97 Y11.858 E10.65983
G1 X49.03 Y11.168 E10.68286
G1 X49.169 Y10.489 E10.70591
M204 S5000
M205 X30 Y30
G0 F3600 X49.573 Y10.527
M204 S500
M205 X20 Y20
G1 F1500 X49.791 Y9.894 E10.72818
G1 X50.083 Y9.292 E10.75043
G1 X50.445 Y8.729 E10.7727
G1 X51.006 Y8.073 E10.80141
G1 X52.999 Y6.079 E10.89517
G1 X53.5 Y5.635 E10.91744
G1 X54.049 Y5.254 E10.93967
G1 X54.641 Y4.941 E10.96194
G1 X55.265 Y4.701 E10.98417
G1 X56.102 Y4.504 E11.01277
G1 X59.41 Y3.991 E11.12411
G1 X66.301 Y2.557 E11.35822
G1 X66.963 Y2.461 E11.38047
G1 X67.44 Y2.44 E11.39635
G1 X75.928 Y2.437 E11.67866
G1 X76.596 Y2.477 E11.70092
G1 X77.535 Y2.672 E11.73282
G1 X87.55 Y5.668 E12.0805
G1 X88.178 Y5.898 E12.10275
G1 X88.775 Y6.201 E12.12501
G1 X89.312 Y6.558 E12.14646
G1 X97.262 Y12.539 E12.47735
G1 X97.771 Y12.972 E12.49958
G1 X98.087 Y13.301 E12.51475
G1 X99.111 Y14.457 E12.56612
G1 X99.524 Y14.983 E12.58836
G1 X99.784 Y15.397 E12.60462
G1 X100.244 Y16.204 E12.63551
G1 X100.54 Y16.804 E12.65777
G1 X100.688 Y17.194 E12.67164
G1 X101.128 Y18.504 E12.7176
G1 X101.302 Y19.15 E12.73986
G1 X101.362 Y19.49 E12.75134
G1 X101.47 Y20.241 E12.77657
G1 X101.527 Y21.036 E12.80308
G1 X101.529 Y25.982 E12.96759
G1 X101.489 Y26.65 E12.98985
G1 X101.416 Y27.106 E13.00521
G1 X101.113 Y28.588 E13.05552
G1 X100.94 Y29.234 E13.07776
G1 X100.769 Y29.682 E13.09371
G1 X100.401 Y30.536 E13.12464
G1 X99.989 Y31.316 E13.15398
G1 X99.488 Y32.107 E13.18512
G1 X98.971 Y32.799 E13.21385
G1 X98.361 Y33.496 E13.24466
G1 X97.891 Y33.972 E13.26691
G1 X97.529 Y34.271 E13.28252
G1 X89.345 Y40.473 E13.62405
G1 X88.789 Y40.845 E13.6463
G1 X88.192 Y41.147 E13.66856
G1 X87.575 Y41.373 E13.69041
G1 X77.596 Y44.373 E14.03699
G1 X76.945 Y44.527 E14.05924
G1 X75.989 Y44.61 E14.09115
G1 X67.471 Y44.617 E14.37446
G1 X66.803 Y44.578 E14.39672
G1 X66.281 Y44.49 E14.41433
G1 X60.788 Y43.301 E14.60126
G1 X56.081 Y42.547 E14.75981
G1 X55.428 Y42.402 E14.78205
G1 X54.797 Y42.18 E14.8043
G1 X54.197 Y41.885 E14.82654
G1 X53.636 Y41.52 E14.8488
G1 X53.021 Y40.992 E14.87576
G1 X52.018 Y39.996 E14.92277
G1 X51.998 Y39.976 E14.92372
G1 X51.002 Y38.977 E14.97063
G1 X50.559 Y38.476 E14.99288
G1 X50.179 Y37.925 E15.01514
G1 X49.867 Y37.333 E15.0374
G1 X49.628 Y36.709 E15.05962
G1 X49.465 Y36.06 E15.08188
G1 X49.38 Y35.396 E15.10414
G1 X49.388 Y34.548 E15.13235
G1 X49.883 Y28.725 E15.32672
G1 X50.027 Y23.401 E15.50386
G1 X49.867 Y18.048 E15.68198
G1 X49.388 Y12.516 E15.86667
G1 X49.37 Y11.847 E15.88893
G1 X49.432 Y11.181 E15.91117
G1 X49.573 Y10.527 E15.93342
M204 S5000
M205 X30 Y30
G0 F3600 X49.978 Y10.566
M204 S500
M205 X20 Y20
G1 F1500 X50.197 Y9.96 E15.95486
G1 X50.49 Y9.386 E15.97629
G1 X50.852 Y8.853 E15.99772
G1 X51.289 Y8.356 E16.01973
G1 X53.282 Y6.362 E16.1135
G1 X53.765 Y5.935 E16.13494
G1 X54.297 Y5.571 E16.15638
G1 X54.871 Y5.276 E16.17785
G1 X55.476 Y5.054 E16.19928
G1 X56.163 Y4.899 E16.22271
G1 X59.497 Y4.382 E16.33492
G1 X66.383 Y2.949 E16.56886
G1 X67.021 Y2.857 E16.5903
G1 X67.44 Y2.84 E16.60424
G1 X75.928 Y2.837 E16.88656
G1 X76.572 Y2.877 E16.90802
G1 X77.42 Y3.055 E16.93684
G1 X87.435 Y6.051 E17.28452
G1 X88.04 Y6.274 E17.30597
G1 X88.613 Y6.57 E17.32742
G1 X89.071 Y6.878 E17.34578
G1 X97.021 Y12.859 E17.67667
G1 X97.511 Y13.277 E17.69809
G1 X97.787 Y13.566 E17.71138
G1 X98.811 Y14.722 E17.76274
G1 X99.208 Y15.23 E17.78419
G1 X99.437 Y15.595 E17.79852
G1 X99.897 Y16.402 E17.82942
G1 X100.181 Y16.981 E17.85086
G1 X100.308 Y17.321 E17.86294
G1 X100.748 Y18.631 E17.9089
G1 X100.966 Y19.547 E17.94022
G1 X101.074 Y20.298 E17.96545
G1 X101.127 Y21.036 E17.99006
G1 X101.129 Y25.982 E18.15457
G1 X101.089 Y26.625 E18.17599
G1 X101.024 Y27.026 E18.1895
G1 X100.721 Y28.508 E18.23982
G1 X100.553 Y29.13 E18.26124
G1 X100.401 Y29.524 E18.27529
G1 X100.033 Y30.378 E18.30622
G1 X99.651 Y31.102 E18.33345
G1 X99.15 Y31.893 E18.36459
G1 X98.67 Y32.536 E18.39128
G1 X98.06 Y33.233 E18.42208
G1 X97.606 Y33.69 E18.44351
G1 X97.288 Y33.952 E18.45721
G1 X89.104 Y40.154 E18.79875
G1 X88.567 Y40.511 E18.82019
G1 X87.99 Y40.799 E18.84164
G1 X87.46 Y40.99 E18.86038
G1 X77.481 Y43.99 E19.20696
G1 X76.853 Y44.137 E19.22841
G1 X75.988 Y44.21 E19.25728
G1 X67.47 Y44.217 E19.54059
G1 X66.827 Y44.178 E19.56202
G1 X66.366 Y44.099 E19.57757
G1 X60.882 Y42.912 E19.76419
G1 X56.144 Y42.153 E19.92379
G1 X55.515 Y42.011 E19.94524
G1 X54.909 Y41.793 E19.96666
G1 X54.334 Y41.502 E19.98809
G1 X53.799 Y41.142 E20.00954
G1 X53.303 Y40.708 E20.03146
G1 X52.3 Y39.712 E20.07847
G1 X52.282 Y39.693 E20.07934
G1 X51.286 Y38.694 E20.12626
G1 X50.86 Y38.211 E20.14768
G1 X50.497 Y37.678 E20.16913
G1 X50.203 Y37.104 E20.19058
G1 X49.982 Y36.498 E20.21204
G1 X49.837 Y35.87 E20.23347
G1 X49.772 Y35.229 E20.2549
G1 X49.787 Y34.582 E20.27643
G1 X50.283 Y28.753 E20.471
G1 X50.427 Y23.399 E20.64914
G1 X50.267 Y18.036 E20.82759
G1 X49.786 Y12.481 E21.01305
G1 X49.771 Y11.837 E21.03447
G1 X49.835 Y11.195 E21.05593
G1 X49.978 Y10.566 E21.07738
M204 S5000
M205 X30 Y30
G1 F2400 E16.07738
G0 F3600 X55.523 Y13.534
G0 X56.423 Y12.634
G0 X67.448 Y23.483
G0 X67.349 Y23.484
M204 S500
M205 X20 Y20
;TYPE:WALL-INNER
G1 F2400 E21.07738
G1 F1500 X67.199 Y23.343 E21.08423
G1 X65.877 Y22.098 E21.14463
G1 X56.745 Y12.967 E21.57415
G1 X56.405 Y12.627 E21.59014
G1 X56.885 Y12.627 E21.59873
G1 X56.887 Y12.627 E21.5988
G1 X57.557 Y12.627 E21.62108
G1 X57.557 Y11.957 E21.64337
G1 X57.557 Y11.955 E21.64343
G1 X57.557 Y11.475 E21.6594
G1 X57.897 Y11.815 E21.668
G1 X67.316 Y21.235 E22.11107
G1 X68.057 Y20.929 E22.13773
G1 X68.057 Y8.627 E22.5469
G1 X68.857 Y8.627 E22.5735
G1 X68.857 Y12.627 E22.70654
G1 X72.557 Y12.627 E22.82961
G1 X72.557 Y8.627 E22.96265
G1 X75.869 Y8.627 E23.07281
G1 X85.681 Y11.571 E23.41353
G1 X93.529 Y17.479 E23.74025
G1 X93.823 Y17.758 E23.75373
G1 X94.103 Y18.068 E23.76762
G1 X94.357 Y18.397 E23.78145
G1 X94.592 Y18.756 E23.79572
G1 X94.79 Y19.117 E23.80941
G1 X94.954 Y19.479 E23.82263
G1 X95.101 Y19.884 E23.83696
G1 X95.211 Y20.279 E23.8506
G1 X95.294 Y20.703 E23.86497
G1 X95.339 Y21.102 E23.87832
G1 X95.357 Y22.474 E23.92396
G1 X95.339 Y25.954 E24.03971
G1 X95.294 Y26.351 E24.053
G1 X95.212 Y26.771 E24.06723
G1 X95.1 Y27.172 E24.08108
G1 X94.963 Y27.551 E24.09448
G1 X94.784 Y27.948 E24.10897
G1 X94.587 Y28.308 E24.12261
G1 X94.367 Y28.643 E24.13594
G1 X94.098 Y28.993 E24.15063
G1 X93.825 Y29.295 E24.16417
G1 X93.534 Y29.571 E24.17751
G1 X85.681 Y35.483 E24.50444
G1 X75.869 Y38.427 E24.84516
G1 X72.557 Y38.427 E24.95532
G1 X72.557 Y34.427 E25.08836
G1 X68.857 Y34.427 E25.21142
G1 X68.857 Y38.427 E25.34446
G1 X68.057 Y38.427 E25.37107
G1 X68.057 Y26.125 E25.78024
G1 X67.316 Y25.819 E25.8069
G1 X57.897 Y35.239 E26.24997
G1 X57.557 Y35.579 E26.26596
G1 X57.557 Y35.099 E26.27455
G1 X57.557 Y35.097 E26.27462
G1 X57.557 Y34.427 E26.2969
G1 X56.887 Y34.427 E26.31918
G1 X56.885 Y34.427 E26.31925
G1 X56.405 Y34.427 E26.33522
G1 X56.745 Y34.087 E26.34382
G1 X67.204 Y23.629 E26.83576
G1 X67.349 Y23.484 E26.84012
M204 S5000
M205 X30 Y30
G0 F3600 X67.448 Y23.483
G0 X68.829 Y18.226
G0 X68.829 Y13.399
G0 X76.378 Y13.364
G0 X76.301 Y13.427
M204 S500
M205 X20 Y20
G1 F1500 X76.061 Y13.427 E26.8481
G1 X76.06 Y13.427 E26.84814
G1 X68.857 Y13.427 E27.08771
G1 X68.857 Y23.127 E27.41033
G1 X74.454 Y23.127 E27.59649
G1 X76.256 Y13.663 E27.91692
G1 X76.301 Y13.427 E27.92183
M204 S5000
M205 X30 Y30
G0 F3600 X76.378 Y13.364
G0 X77.397 Y11.805
G0 X87.059 Y14.673
G0 X86.964 Y14.703
M204 S500
M205 X20 Y20
G1 F1500 X86.688 Y14.621 E27.93141
G1 X86.687 Y14.62 E27.93145
G1 X77.625 Y11.901 E28.24613
G1 X77.417 Y11.839 E28.25335
G1 X77.374 Y12.052 E28.25791
G1 X75.145 Y22.888 E28.62587
G1 X75.096 Y23.127 E28.63398
G1 X75.339 Y23.127 E28.63893
G1 X75.341 Y23.127 E28.639
G1 X80.483 Y23.127 E28.81002
G1 X86.788 Y14.932 E29.15392
G1 X86.964 Y14.703 E29.15957
M204 S5000
M205 X30 Y30
G0 F3600 X87.059 Y14.673
G0 X87.45 Y15.417
G0 X87.459 Y15.516
M204 S500
M205 X20 Y20
G1 F1500 X87.331 Y15.677 E29.16641
G1 X81.134 Y23.491 E29.49811
G1 X87.429 Y31.674 E29.8415
G1 X92.557 Y27.827 E30.05471
G1 X92.557 Y19.85 E30.32003
G1 X87.615 Y15.649 E30.53576
G1 X87.459 Y15.516 E30.54013
M204 S5000
M205 X30 Y30
G0 F3600 X87.45 Y15.417
G0 X81.094 Y23.491
G0 X87.059 Y32.381
G0 X86.964 Y32.351
M204 S500
M205 X20 Y20
G1 F1500 X86.788 Y32.122 E30.54974
G1 X80.483 Y23.927 E30.89364
G1 X75.472 Y23.927 E31.0603
G1 X75.471 Y23.927 E31.06034
G1 X75.23 Y23.927 E31.06835
G1 X75.275 Y24.164 E31.07329
G1 X77.369 Y35 E31.44036
G1 X77.41 Y35.217 E31.44771
G1 X77.621 Y35.154 E31.45231
G1 X86.687 Y32.434 E31.76713
G1 X86.688 Y32.433 E31.76717
G1 X86.964 Y32.351 E31.77279
M204 S5000
M205 X30 Y30
G0 F3600 X87.059 Y32.381
G0 X77.39 Y35.251
G0 X76.378 Y33.69
G0 X76.301 Y33.627
M204 S500
M205 X20 Y20
G1 F1500 X76.256 Y33.391 E31.78078
G1 X74.454 Y23.927 E32.10121
G1 X68.857 Y23.927 E32.28736
G1 X68.857 Y33.627 E32.60999
G1 X76.06 Y33.627 E32.84956
G1 X76.061 Y33.627 E32.84959
G1 X76.301 Y33.627 E32.8545
M204 S5000
M205 X30 Y30
G0 F3600 X75.818 Y33.227
M204 S500
M205 X20 Y20
;TYPE:WALL-OUTER
G1 F1500 X75.773 Y32.991 E32.86249
G1 X74.123 Y24.327 E33.15583
G1 X69.257 Y24.327 E33.31768
G1 X69.257 Y33.227 E33.61369
G1 X75.577 Y33.227 E33.8239
G1 X75.578 Y33.227 E33.82393
G1 X75.818 Y33.227 E33.82884
M204 S5000
M205 X30 Y30
G0 F3600 X75.781 Y33.031
G0 X76.272 Y32.94
G0 X77.39 Y35.251
G0 X86.436 Y32.613
G0 X86.293 Y32.135
M204 S500
M205 X20 Y20
G1 F1500 X86.117 Y31.906 E33.83844
G1 X80.286 Y24.327 E34.15649
G1 X75.957 Y24.327 E34.30048
G1 X75.956 Y24.327 E34.30051
G1 X75.715 Y24.327 E34.30853
G1 X75.76 Y24.564 E34.31346
G1 X77.678 Y34.49 E34.64971
G1 X77.719 Y34.707 E34.65705
G1 X77.93 Y34.644 E34.66166
G1 X86.016 Y32.218 E34.94244
G1 X86.017 Y32.217 E34.94249
G1 X86.293 Y32.135 E34.9481
M204 S5000
M205 X30 Y30
G0 F3600 X86.171 Y31.976
G0 X86.568 Y31.673
G0 X81.094 Y23.491
G0 X87.124 Y15.778
G0 X87.515 Y16.089
M204 S500
M205 X20 Y20
G1 F1500 X87.388 Y16.25 E34.95492
G1 X81.642 Y23.495 E35.26248
G1 X87.505 Y31.117 E35.58231
G1 X92.157 Y27.627 E35.77574
G1 X92.157 Y20.035 E36.02825
G1 X87.671 Y16.222 E36.22407
G1 X87.515 Y16.089 E36.22844
M204 S5000
M205 X30 Y30
G0 F3600 X87.392 Y16.246
G0 X87.001 Y15.934
G0 X87.002 Y14.691
G0 X86.437 Y14.442
G0 X86.293 Y14.919
M204 S500
M205 X20 Y20
G1 F1500 X86.017 Y14.837 E36.23801
