;FLAVOR:Marlin
;TIME:2182
;Filament used: 0.958356m
;Layer height: 0.1
;Generated with Cura_SteamEngine 3.2.1
M190 S60
M104 S180
M109 S180
M82 ;absolute extrusion mode
G28 ;Home
G1 Z15.0 F6000 ;Move the platform down 15mm
;Prime the extruder
G92 E0
G1 F200 E3
G92 E0
;LAYER_COUNT:40
;LAYER:0
M107
M204 S5000
M205 X30 Y30
G0 F3600 X29.304 Y16.4 Z0.2
M204 S500
M205 X20 Y20
;TYPE:SKIRT
G1 F1500 X29.77 Y15.736 E0.02698
G1 X30.507 Y14.817 E0.06616
G1 X30.985 Y14.285 E0.08995
G1 X31.532 Y13.799 E0.11429
G1 X32.123 Y13.332 E0.13934
G1 X32.708 Y12.921 E0.16312
G1 X33.14 Y12.675 E0.17965
G1 X43.732 Y7.17 E0.57668
G1 X44.384 Y6.876 E0.60047
G1 X45.339 Y6.592 E0.63361
G1 X47.303 Y6.17 E0.70042
G1 X48.134 Y6.048 E0.72836
G1 X49.303 Y5.954 E0.76737
G1 X50.179 Y5.943 E0.7965
G1 X57.369 Y6.351 E1.03603
G1 X62.696 Y6.388 E1.21321
G1 X68.728 Y6.122 E1.41403
G1 X69.799 Y6.165 E1.44968
G1 X71.473 Y6.373 E1.50579
G1 X72.51 Y6.59 E1.54102
G1 X76.999 Y7.927 E1.69681
G1 X82.192 Y9.193 E1.87459
G1 X87.39 Y10.15 E2.05038
G1 X91.032 Y10.645 E2.17263
G1 X110.914 Y12.961 E2.83838
G1 X111.618 Y13.083 E2.86214
G1 X112.305 Y13.284 E2.88595
G1 X112.965 Y13.559 E2.90973
G1 X113.59 Y13.907 E2.93352
G1 X114.368 Y14.484 E2.96574
G1 X118.371 Y17.958 E3.14203
G1 X118.884 Y18.457 E3.16583
G1 X119.338 Y19.009 E3.1896
G1 X119.728 Y19.609 E3.2134
G1 X120.049 Y20.248 E3.23719
G1 X120.296 Y20.919 E3.26097
G1 X120.467 Y21.614 E3.28477
G1 X120.559 Y22.323 E3.30855
G1 X120.576 Y22.79 E3.3241
G1 X120.577 Y25.825 E3.42504
G1 X120.537 Y26.539 E3.44882
G1 X120.418 Y27.244 E3.4726
G1 X120.221 Y27.932 E3.49641
G1 X119.948 Y28.593 E3.52019
G1 X119.604 Y29.22 E3.54398
G1 X119.191 Y29.804 E3.56777
G1 X118.716 Y30.339 E3.59157
G1 X118.377 Y30.656 E3.607
G1 X114.388 Y34.125 E3.78283
G1 X113.823 Y34.564 E3.80663
G1 X113.212 Y34.936 E3.83042
G1 X112.564 Y35.239 E3.85421
G1 X111.886 Y35.467 E3.878
G1 X110.94 Y35.652 E3.91006
G1 X52.832 Y42.523 E5.85621
G1 X52.587 Y42.547 E5.8644
G1 X51.091 Y42.666 E5.91431
G1 X50.478 Y42.685 E5.93471
G1 X49.271 Y42.665 E5.97486
G1 X48.628 Y42.622 E5.99629
G1 X47.474 Y42.486 E6.03494
G1 X46.801 Y42.37 E6.05765
G1 X45.313 Y42.031 E6.10841
G1 X44.626 Y41.834 E6.13218
G1 X43.786 Y41.471 E6.16262
G1 X33.125 Y35.935 E6.56216
G1 X32.509 Y35.57 E6.58598
G1 X31.957 Y35.155 E6.60895
G1 X31.174 Y34.497 E6.64296
G1 X30.653 Y34.007 E6.66675
G1 X30.051 Y33.271 E6.69838
G1 X29.415 Y32.364 E6.73522
G1 X29.038 Y31.757 E6.75899
G1 X28.711 Y31.061 E6.78457
G1 X28.419 Y30.329 E6.81078
G1 X28.191 Y29.651 E6.83457
G1 X28.052 Y29.021 E6.85603
G1 X27.899 Y28.113 E6.88665
G1 X27.81 Y27.047 E6.92223
G1 X27.813 Y21.441 E7.10869
G1 X27.853 Y20.726 E7.13251
G1 X27.963 Y20.066 E7.15476
G1 X28.183 Y19.068 E7.18875
G1 X28.376 Y18.379 E7.21255
G1 X28.635 Y17.736 E7.2356
G1 X28.965 Y17.03 E7.26152
G1 X29.304 Y16.4 E7.28532
M204 S5000
M205 X30 Y30
G0 F3600 X29.656 Y16.59
M204 S500
M205 X20 Y20
G1 F1500 X30.082 Y15.986 E7.3099
G1 X30.819 Y15.067 E7.34908
G1 X31.283 Y14.553 E7.37212
G1 X31.78 Y14.113 E7.39419
G1 X32.371 Y13.646 E7.41925
G1 X32.938 Y13.249 E7.44227
G1 X33.324 Y13.03 E7.45703
G1 X43.916 Y7.525 E7.85406
G1 X44.548 Y7.242 E7.87709
G1 X45.423 Y6.983 E7.90744
G1 X47.387 Y6.561 E7.97426
G1 X48.166 Y6.446 E8.00045
G1 X49.335 Y6.352 E8.03945
G1 X50.156 Y6.343 E8.06676
G1 X57.343 Y6.751 E8.30619
G1 X62.711 Y6.788 E8.48473
G1 X68.746 Y6.522 E8.68565
G1 X69.75 Y6.562 E8.71907
G1 X71.424 Y6.77 E8.77518
G1 X72.396 Y6.973 E8.8082
G1 X76.906 Y8.316 E8.96471
G1 X82.097 Y9.582 E9.14243
G1 X87.35 Y10.549 E9.32008
G1 X90.936 Y11.036 E9.44045
G1 X110.867 Y13.358 E10.10784
G1 X111.549 Y13.478 E10.13087
G1 X112.213 Y13.676 E10.15391
G1 X112.85 Y13.948 E10.17695
G1 X113.451 Y14.292 E10.19998
G1 X114.106 Y14.787 E10.22729
G1 X118.109 Y18.261 E10.40358
G1 X118.605 Y18.744 E10.4266
G1 X119.042 Y19.281 E10.44963
G1 X119.414 Y19.865 E10.47266
G1 X119.716 Y20.488 E10.49569
G1 X119.945 Y21.142 E10.51874
G1 X120.096 Y21.818 E10.54177
G1 X120.176 Y22.79 E10.57421
G1 X120.177 Y25.825 E10.67516
G1 X120.137 Y26.516 E10.69818
G1 X120.018 Y27.199 E10.72124
G1 X119.821 Y27.863 E10.74427
G1 X119.549 Y28.499 E10.76728
G1 X119.205 Y29.101 E10.79034
G1 X118.795 Y29.658 E10.81334
G1 X118.114 Y30.354 E10.84573
G1 X114.125 Y33.823 E11.02156
G1 X113.577 Y34.247 E11.0446
G1 X112.984 Y34.605 E11.06764
G1 X112.354 Y34.891 E11.09065
G1 X111.695 Y35.104 E11.11369
G1 X110.893 Y35.254 E11.14083
G1 X52.785 Y42.125 E13.08697
G1 X52.556 Y42.148 E13.09463
G1 X51.06 Y42.267 E13.14454
G1 X50.485 Y42.285 E13.16367
G1 X49.278 Y42.265 E13.20382
G1 X48.675 Y42.225 E13.22392
G1 X47.521 Y42.089 E13.26257
G1 X46.89 Y41.98 E13.28387
G1 X45.402 Y41.641 E13.33463
G1 X44.737 Y41.449 E13.35765
G1 X43.97 Y41.116 E13.38546
G1 X33.309 Y35.58 E13.785
G1 X32.714 Y35.226 E13.80803
G1 X32.214 Y34.848 E13.82888
G1 X31.431 Y34.19 E13.8629
G1 X30.927 Y33.715 E13.88593
G1 X30.378 Y33.042 E13.91482
G1 X29.742 Y32.135 E13.95166
G1 X29.378 Y31.546 E13.97469
G1 X29.082 Y30.913 E13.99793
G1 X28.79 Y30.181 E14.02415
G1 X28.571 Y29.524 E14.04718
G1 X28.446 Y28.955 E14.06656
G1 X28.293 Y28.047 E14.09718
G1 X28.21 Y27.047 E14.13056
G1 X28.213 Y21.441 E14.31701
G1 X28.253 Y20.749 E14.34007
G1 X28.354 Y20.152 E14.36021
G1 X28.574 Y19.154 E14.3942
G1 X28.762 Y18.488 E14.41721
G1 X28.997 Y17.905 E14.43812
G1 X29.327 Y17.199 E14.46404
G1 X29.656 Y16.59 E14.48706
M204 S5000
M205 X30 Y30
G0 F3600 X30.009 Y16.781
M204 S500
M205 X20 Y20
G1 F1500 X30.394 Y16.236 E14.50926
G1 X31.131 Y15.317 E14.54844
G1 X31.58 Y14.822 E14.57066
G1 X32.028 Y14.427 E14.59053
G1 X32.619 Y13.96 E14.61558
G1 X33.168 Y13.577 E14.63785
G1 X33.508 Y13.385 E14.65083
G1 X44.1 Y7.88 E15.04787
G1 X44.711 Y7.608 E15.07011
G1 X45.507 Y7.374 E15.09771
G1 X47.471 Y6.952 E15.16452
G1 X48.198 Y6.845 E15.18896
G1 X49.367 Y6.751 E15.22797
G1 X50.133 Y6.742 E15.25345
G1 X57.337 Y7.151 E15.49344
G1 X62.706 Y7.188 E15.67202
G1 X68.763 Y6.921 E15.87367
G1 X69.701 Y6.959 E15.90489
G1 X71.375 Y7.167 E15.961
G1 X72.282 Y7.357 E15.99182
G1 X76.78 Y8.696 E16.14791
G1 X82.035 Y9.978 E16.32782
G1 X87.265 Y10.941 E16.50469
G1 X90.937 Y11.44 E16.62795
G1 X110.821 Y13.756 E17.29376
G1 X111.48 Y13.873 E17.31602
G1 X112.12 Y14.067 E17.33827
G1 X112.732 Y14.337 E17.36051
G1 X113.308 Y14.678 E17.38278
G1 X113.843 Y15.089 E17.40522
G1 X117.846 Y18.563 E17.5815
G1 X118.325 Y19.031 E17.60378
G1 X118.744 Y19.552 E17.62601
G1 X119.097 Y20.12 E17.64826
G1 X119.381 Y20.726 E17.67052
G1 X119.59 Y21.361 E17.69275
G1 X119.722 Y22.017 E17.71501
G1 X119.776 Y22.79 E17.74078
G1 X119.777 Y25.825 E17.84172
G1 X119.737 Y26.493 E17.86398
G1 X119.618 Y27.151 E17.88622
G1 X119.421 Y27.791 E17.90849
G1 X119.15 Y28.402 E17.93073
G1 X118.807 Y28.977 E17.95299
G1 X118.398 Y29.507 E17.97526
G1 X117.852 Y30.053 E18.00094
G1 X113.863 Y33.522 E18.17677
G1 X113.333 Y33.93 E18.19902
G1 X112.758 Y34.272 E18.22127
G1 X112.146 Y34.543 E18.24353
G1 X111.506 Y34.739 E18.26579
G1 X110.846 Y34.857 E18.28809
G1 X52.738 Y41.728 E20.23424
G1 X52.524 Y41.749 E20.24139
G1 X51.028 Y41.868 E20.2913
G1 X50.491 Y41.885 E20.30917
G1 X49.284 Y41.865 E20.34932
G1 X48.722 Y41.828 E20.36805
G1 X47.568 Y41.692 E20.4067
G1 X46.979 Y41.59 E20.42658
G1 X45.491 Y41.251 E20.47734
G1 X44.849 Y41.064 E20.49958
G1 X44.154 Y40.761 E20.5248
G1 X33.493 Y35.225 E20.92434
G1 X32.919 Y34.882 E20.94658
G1 X32.471 Y34.542 E20.96529
G1 X31.688 Y33.884 E20.99931
G1 X31.203 Y33.424 E21.02154
G1 X30.706 Y32.812 E21.04776
G1 X30.07 Y31.905 E21.08461
G1 X29.719 Y31.335 E21.10687
G1 X29.454 Y30.765 E21.12778
G1 X29.162 Y30.033 E21.15399
G1 X28.951 Y29.398 E21.17625
G1 X28.841 Y28.888 E21.1936
G1 X28.688 Y27.98 E21.22422
G1 X28.61 Y27.047 E21.25536
G1 X28.613 Y21.441 E21.44182
G1 X28.653 Y20.773 E21.46408
G1 X28.744 Y20.238 E21.48213
G1 X28.964 Y19.24 E21.51612
G1 X29.147 Y18.597 E21.53835
G1 X29.36 Y18.075 E21.55711
G1 X29.69 Y17.369 E21.58303
G1 X30.009 Y16.781 E21.60528
M204 S5000
M205 X30 Y30
G0 F3600 X30.361 Y16.972
M204 S500
M205 X20 Y20
G1 F1500 X30.706 Y16.487 E21.62507
G1 X31.443 Y15.568 E21.66425
G1 X31.877 Y15.091 E21.6857
G1 X32.276 Y14.741 E21.70335
G1 X32.867 Y14.274 E21.72841
G1 X33.397 Y13.906 E21.74987
G1 X33.693 Y13.74 E21.76116
G1 X44.285 Y8.235 E22.15819
G1 X44.874 Y7.974 E22.17961
G1 X45.591 Y7.765 E22.20445
G1 X47.555 Y7.343 E22.27127
G1 X48.23 Y7.244 E22.29396
G1 X49.399 Y7.15 E22.33297
G1 X50.111 Y7.141 E22.35665
G1 X57.332 Y7.551 E22.59721
G1 X62.721 Y7.588 E22.77645
G1 X68.781 Y7.321 E22.9782
G1 X69.651 Y7.356 E23.00716
G1 X71.325 Y7.564 E23.06327
G1 X72.168 Y7.74 E23.09191
G1 X76.692 Y9.087 E23.24891
G1 X81.936 Y10.366 E23.42844
G1 X87.202 Y11.336 E23.60653
G1 X90.894 Y11.837 E23.73045
G1 X110.775 Y14.153 E24.39617
G1 X111.409 Y14.267 E24.41759
G1 X112.025 Y14.459 E24.43905
G1 X112.612 Y14.725 E24.46049
G1 X113.161 Y15.062 E24.48191
G1 X113.581 Y15.391 E24.49966
G1 X117.584 Y18.865 E24.67595
G1 X118.044 Y19.317 E24.6974
G1 X118.444 Y19.822 E24.71882
G1 X118.779 Y20.373 E24.74027
G1 X119.043 Y20.961 E24.76171
G1 X119.232 Y21.577 E24.78314
G1 X119.344 Y22.212 E24.80459
G1 X119.376 Y22.79 E24.82384
G1 X119.377 Y25.825 E24.92478
G1 X119.337 Y26.469 E24.94624
G1 X119.218 Y27.102 E24.96767
G1 X119.022 Y27.716 E24.9891
G1 X118.751 Y28.301 E25.01055
G1 X118.409 Y28.848 E25.032
G1 X118.003 Y29.349 E25.05345
G1 X117.589 Y29.751 E25.07264
G1 X113.6 Y33.22 E25.24847
G1 X113.089 Y33.612 E25.26989
G1 X112.532 Y33.938 E25.29136
G1 X111.94 Y34.192 E25.31278
G1 X111.321 Y34.371 E25.33422
G1 X110.799 Y34.46 E25.35183
G1 X52.691 Y41.331 E27.29797
G1 X52.492 Y41.351 E27.30462
G1 X50.996 Y41.47 E27.35454
G1 X50.498 Y41.485 E27.37111
G1 X49.291 Y41.465 E27.41126
G1 X48.768 Y41.43 E27.42869
G1 X47.614 Y41.294 E27.46734
G1 X47.068 Y41.2 E27.48577
G1 X45.58 Y40.861 E27.53653
G1 X44.961 Y40.679 E27.55799
G1 X44.339 Y40.406 E27.58058
G1 X33.678 Y34.87 E27.98012
G1 X33.125 Y34.538 E28.00158
G1 X32.729 Y34.236 E28.01814
G1 X31.946 Y33.578 E28.05216
G1 X31.479 Y33.133 E28.07361
G1 X31.033 Y32.582 E28.09719
G1 X30.397 Y31.675 E28.13403
G1 X30.061 Y31.126 E28.15544
G1 X29.825 Y30.617 E28.1741
G1 X29.533 Y29.885 E28.20032
G1 X29.332 Y29.272 E28.22177
G1 X29.235 Y28.822 E28.23708
G1 X29.082 Y27.914 E28.26771
G1 X29.01 Y27.047 E28.29664
G1 X29.013 Y21.441 E28.4831
G1 X29.053 Y20.798 E28.50453
G1 X29.135 Y20.325 E28.5205
G1 X29.355 Y19.327 E28.55449
G1 X29.532 Y18.707 E28.57593
G1 X29.722 Y18.244 E28.59258
G1 X30.052 Y17.538 E28.6185
G1 X30.361 Y16.972 E28.63994
M204 S5000
M205 X30 Y30
G1 F2400 E23.63994
G0 F3600 X34.03 Y19.671
G0 X35.159 Y20.284
G0 X42.658 Y30.489
G0 X43.3 Y31.198
G0 X44.008 Y31.839
G0 X44.776 Y32.408
G0 X45.597 Y32.901
G0 X46.46 Y33.308
G0 X47.361 Y33.631
G0 X48.288 Y33.863
G0 X49.053 Y33.976
G0 X51.148 Y34.063
G0 X51.139 Y33.964
M204 S500
M205 X20 Y20
;TYPE:WALL-INNER
G1 F2400 E28.63994
G1 F1500 X52.114 Y33.816 E28.67275
G1 X53.038 Y33.581 E28.70446
G1 X53.931 Y33.257 E28.73605
G1 X54.791 Y32.847 E28.76774
G1 X55.606 Y32.354 E28.79942
G1 X56.366 Y31.786 E28.83098
G1 X57.047 Y31.17 E28.86152
G1 X57.687 Y30.464 E28.89321
G1 X58.253 Y29.7 E28.92484
G1 X58.743 Y28.883 E28.95652
G1 X59.15 Y28.022 E28.9882
G1 X59.47 Y27.126 E29.01984
G1 X59.701 Y26.202 E29.05152
G1 X59.841 Y25.261 E29.08316
G1 X59.887 Y24.31 E29.11483
G1 X59.841 Y23.359 E29.1465
G1 X59.701 Y22.418 E29.17814
G1 X59.47 Y21.494 E29.20982
G1 X59.15 Y20.598 E29.24146
G1 X58.743 Y19.737 E29.27314
G1 X58.253 Y18.92 E29.30483
G1 X57.687 Y18.156 E29.33645
G1 X57.047 Y17.45 E29.36814
G1 X56.341 Y16.811 E29.39981
G1 X55.577 Y16.245 E29.43144
G1 X54.76 Y15.755 E29.46313
G1 X53.9 Y15.348 E29.49477
G1 X53.003 Y15.027 E29.52646
G1 X52.079 Y14.796 E29.55814
G1 X51.103 Y14.654 E29.59094
G1 X50.151 Y14.612 E29.62263
G1 X49.201 Y14.662 E29.65427
G1 X48.26 Y14.804 E29.68593
G1 X47.337 Y15.039 E29.71761
G1 X46.443 Y15.363 E29.74923
G1 X45.584 Y15.774 E29.7809
G1 X44.769 Y16.266 E29.81257
G1 X44.008 Y16.834 E29.84415
G1 X43.328 Y17.45 E29.87467
G1 X42.688 Y18.156 E29.90636
G1 X42.122 Y18.92 E29.93799
G1 X41.632 Y19.737 E29.96967
G1 X41.225 Y20.598 E30.00135
G1 X40.904 Y21.494 E30.033
G1 X40.673 Y22.418 E30.06468
G1 X40.533 Y23.359 E30.09633
G1 X40.487 Y24.31 E30.12799
G1 X40.533 Y25.261 E30.15966
G1 X40.673 Y26.202 E30.1913
G1 X40.904 Y27.126 E30.22298
G1 X41.225 Y28.022 E30.25464
G1 X41.632 Y28.883 E30.28631
G1 X42.122 Y29.7 E30.318
G1 X42.688 Y30.464 E30.34962
G1 X43.328 Y31.17 E30.38132
G1 X44.033 Y31.809 E30.41296
G1 X44.798 Y32.375 E30.44461
G1 X45.615 Y32.866 E30.47632
G1 X46.475 Y33.272 E30.50795
G1 X47.372 Y33.593 E30.53963
G1 X48.295 Y33.824 E30.57128
G1 X49.236 Y33.964 E30.60292
G1 X50.187 Y34.01 E30.63459
G1 X51.139 Y33.964 E30.66629
M204 S5000
M205 X30 Y30
G0 F3600 X51.148 Y34.063
G0 X70.335 Y31.705
G0 X74.191 Y30.213
G0 X74.285 Y30.246
M204 S500
M205 X20 Y20
G1 F1500 X74.603 Y31.157 E30.69838
G1 X97.306 Y28.45 E31.45884
G1 X97.402 Y27.645 E31.4858
G1 X97.417 Y27.514 E31.49019
G1 X94.513 Y26.421 E31.59339
G1 X94.386 Y26.374 E31.59789
G1 X91.296 Y25.21 E31.70772
G1 X82.483 Y25.21 E32.00084
G1 X74.285 Y30.246 E32.32084
M204 S5000
M205 X30 Y30
G0 F3600 X74.191 Y30.213
G0 X82.399 Y24.31
G0 X82.299 Y24.31
M204 S500
M205 X20 Y20
G1 F1500 X82.023 Y24.14 E32.33162
G1 X70.322 Y16.952 E32.78837
G1 X58.679 Y15.564 E33.17836
G1 X58.297 Y16.303 E33.20603
G1 X58.998 Y17.077 E33.24076
G1 X59.664 Y17.974 E33.27792
G1 X60.236 Y18.93 E33.31497
G1 X60.722 Y19.957 E33.35276
G1 X61.095 Y20.997 E33.38951
G1 X61.367 Y22.083 E33.42675
G1 X61.531 Y23.199 E33.46426
G1 X61.587 Y24.31 E33.50126
G1 X61.531 Y25.421 E33.53826
G1 X61.367 Y26.537 E33.57578
G1 X61.096 Y27.619 E33.61288
G1 X60.722 Y28.663 E33.64976
G1 X60.236 Y29.69 E33.68755
G1 X59.664 Y30.646 E33.7246
G1 X58.998 Y31.543 E33.76176
G1 X58.297 Y32.317 E33.7965
G1 X58.679 Y33.056 E33.82416
G1 X70.322 Y31.668 E34.21415
G1 X82.023 Y24.48 E34.6709
G1 X82.299 Y24.31 E34.67709
M204 S5000
M205 X30 Y30
G0 F3600 X82.399 Y24.31
G0 X74.191 Y18.407
G0 X74.285 Y18.374
M204 S500
M205 X20 Y20
G1 F1500 X82.483 Y23.41 E34.99709
G1 X91.296 Y23.41 E35.29021
G1 X94.385 Y22.246 E35.40001
G1 X94.512 Y22.199 E35.40451
G1 X97.417 Y21.104 E35.50777
G1 X97.402 Y20.973 E35.51215
G1 X97.306 Y20.168 E35.53912
G1 X74.603 Y17.463 E36.29956
G1 X74.285 Y18.374 E36.33165
M204 S5000
M205 X30 Y30
G0 F3600 X74.191 Y18.407
G0 X69.054 Y15.212
G0 X68.993 Y15.134
M204 S500
M205 X20 Y20
G1 F1500 X69.016 Y14.936 E36.33828
G1 X69.204 Y13.344 E36.3916
G1 X69.227 Y13.146 E36.39823
G1 X69.425 Y13.169 E36.40252
G1 X70.022 Y13.24 E36.42252
G1 X69.811 Y15.029 E36.48243
G1 X69.788 Y15.227 E36.48906
G1 X69.986 Y15.25 E36.49335
G1 X109.934 Y19.885 E37.83094
G1 X112.193 Y21.85 E37.93052
G1 X112.593 Y22.197 E37.94814
G1 X112.064 Y22.198 E37.95749
G1 X112.063 Y22.199 E37.95754
G1 X109.587 Y22.213 E38.03989
G1 X109.587 Y26.407 E38.17938
G1 X112.063 Y26.421 E38.26174
G1 X112.064 Y26.422 E38.26178
G1 X112.593 Y26.423 E38.27938
G1 X112.193 Y26.77 E38.28874
G1 X109.934 Y28.735 E38.38833
G1 X51.308 Y35.654 E40.35177
G1 X50.187 Y35.71 E40.3891
G1 X49.077 Y35.654 E40.42606
G1 X47.959 Y35.488 E40.46366
G1 X46.915 Y35.227 E40.49945
G1 X36.395 Y29.759 E40.89379
G1 X36.151 Y29.588 E40.9037
G1 X35.9 Y29.373 E40.91469
G1 X35.681 Y29.149 E40.92511
G1 X35.48 Y28.902 E40.9357
G1 X35.295 Y28.627 E40.94672
G1 X35.147 Y28.357 E40.95696
G1 X35.016 Y28.056 E40.96788
G1 X34.919 Y27.76 E40.97824
G1 X34.844 Y27.441 E40.98914
G1 X34.804 Y27.147 E40.99901
G1 X34.802 Y21.486 E41.1873
G1 X34.84 Y21.201 E41.19686
G1 X34.917 Y20.873 E41.20807
G1 X35.012 Y20.577 E41.21841
