;FLAVOR:Marlin
;TIME:965
;Filament used: 1.10452m
;Layer height: 0.3
;Generated with Cura_SteamEngine 3.2.1
M190 S60
M104 S180
M109 S180
M82 ;absolute extrusion mode
G28 ;Home
G1 Z15.0 F6000 ;Move the platform down 15mm
;Prime the extruder
G92 E0
G1 F200 E3
G92 E0
;LAYER_COUNT:28
;LAYER:0
M107
M204 S5000
M205 X30 Y30
G0 F3600 X19.058 Y14.5 Z0.2
M204 S500
M205 X20 Y20
;TYPE:SKIRT
G1 F1500 X19.544 Y13.976 E0.02377
G1 X20.07 Y13.521 E0.0469
G1 X20.76 Y12.987 E0.07592
G1 X21.349 Y12.581 E0.09972
G1 X21.951 Y12.258 E0.12244
G1 X22.739 Y11.887 E0.15141
G1 X23.402 Y11.619 E0.17519
G1 X23.859 Y11.482 E0.19106
G1 X24.48 Y11.321 E0.2124
G1 X25.181 Y11.18 E0.23618
G1 X26.081 Y11.116 E0.26619
G1 X86.458 Y11.069 E2.27434
G1 X87.424 Y11.142 E2.30656
G1 X88.194 Y11.259 E2.33246
G1 X88.894 Y11.405 E2.35624
G1 X89.416 Y11.57 E2.37445
G1 X90.138 Y11.832 E2.4
G1 X90.796 Y12.113 E2.4238
G1 X91.446 Y12.484 E2.44869
G1 X92.328 Y13.058 E2.48369
G1 X92.905 Y13.481 E2.50749
G1 X93.266 Y13.802 E2.52355
G1 X93.606 Y14.128 E2.53922
G1 X94.094 Y14.652 E2.56304
G1 X94.705 Y15.522 E2.5984
G1 X95.505 Y16.893 E2.65119
G1 X95.913 Y17.726 E2.68204
G1 X96.819 Y19.973 E2.76262
G1 X97.088 Y20.8 E2.79155
G1 X97.411 Y22.08 E2.83545
G1 X97.541 Y22.733 E2.8576
G1 X97.774 Y24.35 E2.91194
G1 X97.837 Y25.093 E2.93674
G1 X97.88 Y26.716 E2.99074
G1 X97.856 Y27.46 E3.0155
G1 X97.709 Y29.093 E3.07003
G1 X97.623 Y29.712 E3.09082
G1 X97.42 Y30.782 E3.12704
G1 X97.294 Y31.319 E3.14538
G1 X96.935 Y32.598 E3.18957
G1 X96.718 Y33.237 E3.21201
G1 X96.121 Y34.735 E3.26565
G1 X95.727 Y35.551 E3.29579
G1 X94.567 Y37.573 E3.37332
G1 X94.177 Y38.172 E3.39709
G1 X93.723 Y38.725 E3.42089
G1 X92.988 Y39.406 E3.45422
G1 X92.149 Y40.07 E3.4898
G1 X91.564 Y40.482 E3.5136
G1 X90.739 Y40.917 E3.54462
G1 X90.208 Y41.149 E3.5639
G1 X89.538 Y41.398 E3.58767
G1 X89.013 Y41.536 E3.60572
G1 X88.368 Y41.677 E3.62768
G1 X87.662 Y41.791 E3.65147
G1 X87.002 Y41.825 E3.67345
G1 X27.126 Y41.834 E5.66493
G1 X26.308 Y41.782 E5.6922
G1 X24.661 Y41.57 E5.74743
G1 X23.958 Y41.439 E5.77121
G1 X23.274 Y41.23 E5.795
G1 X22.667 Y40.972 E5.81694
G1 X21.763 Y40.53 E5.8504
G1 X21.139 Y40.18 E5.8742
G1 X20.703 Y39.876 E5.89188
G1 X20.262 Y39.541 E5.9103
G1 X19.717 Y39.078 E5.93408
G1 X19.125 Y38.43 E5.96328
G1 X18.525 Y37.676 E5.99533
G1 X18.112 Y37.092 E6.01912
G1 X17.892 Y36.714 E6.03366
G1 X17.192 Y35.408 E6.08295
G1 X16.918 Y34.83 E6.10422
G1 X16.431 Y33.652 E6.14662
G1 X16.165 Y32.865 E6.17425
G1 X15.551 Y30.576 E6.25307
G1 X15.377 Y29.672 E6.28369
G1 X15.179 Y28.003 E6.33959
G1 X15.134 Y27.261 E6.36432
G1 X15.131 Y25.72 E6.41557
G1 X15.172 Y24.988 E6.43996
G1 X15.361 Y23.319 E6.49582
G1 X15.47 Y22.662 E6.51797
G1 X15.737 Y21.45 E6.55925
G1 X15.912 Y20.815 E6.58116
G1 X16.424 Y19.269 E6.63532
G1 X16.699 Y18.575 E6.66015
G1 X17.392 Y17.09 E6.71466
G1 X17.838 Y16.29 E6.74512
G1 X18.633 Y15.076 E6.79339
G1 X19.058 Y14.5 E6.81719
M204 S5000
M205 X30 Y30
G0 F3600 X19.38 Y14.738
M204 S500
M205 X20 Y20
G1 F1500 X19.853 Y14.233 E6.84021
G1 X20.315 Y13.837 E6.86045
G1 X21.005 Y13.303 E6.88947
G1 X21.576 Y12.911 E6.9125
G1 X22.121 Y12.62 E6.93305
G1 X22.909 Y12.249 E6.96202
G1 X23.552 Y11.99 E6.98508
G1 X23.959 Y11.869 E6.9992
G1 X24.58 Y11.708 E7.02054
G1 X25.26 Y11.573 E7.04359
G1 X26.081 Y11.516 E7.07097
G1 X86.458 Y11.469 E9.07911
G1 X87.364 Y11.537 E9.10933
G1 X88.134 Y11.654 E9.13524
G1 X88.812 Y11.797 E9.15828
G1 X89.28 Y11.946 E9.17462
G1 X90.002 Y12.208 E9.20016
G1 X90.638 Y12.481 E9.22318
G1 X91.228 Y12.819 E9.2458
G1 X92.11 Y13.393 E9.2808
G1 X92.667 Y13.804 E9.30382
G1 X92.99 Y14.091 E9.3182
G1 X93.33 Y14.417 E9.33386
G1 X93.801 Y14.924 E9.35688
G1 X94.359 Y15.724 E9.38932
G1 X95.159 Y17.095 E9.44211
G1 X95.542 Y17.875 E9.47102
G1 X96.448 Y20.122 E9.5516
G1 X96.701 Y20.898 E9.57875
G1 X97.024 Y22.178 E9.62265
G1 X97.145 Y22.79 E9.6434
G1 X97.378 Y24.407 E9.69774
G1 X97.437 Y25.104 E9.721
G1 X97.48 Y26.727 E9.775
G1 X97.458 Y27.424 E9.7982
G1 X97.311 Y29.057 E9.85273
G1 X97.23 Y29.637 E9.87221
G1 X97.027 Y30.707 E9.90843
G1 X96.909 Y31.21 E9.92562
G1 X96.55 Y32.489 E9.9698
G1 X96.347 Y33.089 E9.99087
G1 X95.75 Y34.587 E10.0445
G1 X95.38 Y35.352 E10.07277
G1 X94.22 Y37.374 E10.1503
G1 X93.842 Y37.954 E10.17333
G1 X93.399 Y38.486 E10.19635
G1 X92.739 Y39.093 E10.22618
G1 X91.9 Y39.757 E10.26176
G1 X91.334 Y40.155 E10.28478
G1 X90.579 Y40.55 E10.31312
G1 X90.048 Y40.782 E10.33239
G1 X89.399 Y41.022 E10.3554
G1 X88.927 Y41.146 E10.37164
G1 X88.282 Y41.287 E10.3936
G1 X87.598 Y41.395 E10.41663
G1 X87.002 Y41.425 E10.43648
G1 X27.126 Y41.434 E12.42796
G1 X26.359 Y41.385 E12.45352
G1 X24.712 Y41.173 E12.50875
G1 X24.031 Y41.045 E12.5318
G1 X23.37 Y40.84 E12.55482
G1 X22.843 Y40.612 E12.57392
G1 X21.939 Y40.17 E12.60738
G1 X21.335 Y39.831 E12.63042
G1 X20.945 Y39.558 E12.64626
G1 X20.504 Y39.223 E12.66468
G1 X19.977 Y38.773 E12.68772
G1 X19.438 Y38.181 E12.71435
G1 X18.838 Y37.427 E12.7464
G1 X18.439 Y36.861 E12.76943
G1 X18.245 Y36.525 E12.78234
G1 X17.545 Y35.219 E12.83162
G1 X17.288 Y34.677 E12.85157
G1 X16.801 Y33.499 E12.89397
G1 X16.551 Y32.761 E12.91989
G1 X15.937 Y30.472 E12.99871
G1 X15.774 Y29.625 E13.0274
G1 X15.576 Y27.956 E13.0833
G1 X15.534 Y27.261 E13.10646
G1 X15.531 Y25.72 E13.15771
G1 X15.569 Y25.033 E13.1806
G1 X15.758 Y23.364 E13.23646
G1 X15.86 Y22.748 E13.25723
G1 X16.127 Y21.536 E13.29851
G1 X16.291 Y20.941 E13.31903
G1 X16.803 Y19.395 E13.3732
G1 X17.062 Y18.744 E13.3965
G1 X17.755 Y17.259 E13.45101
G1 X18.173 Y16.509 E13.47957
G1 X18.968 Y15.295 E13.52783
G1 X19.38 Y14.738 E13.55087
M204 S5000
M205 X30 Y30
G0 F3600 X19.701 Y14.977
M204 S500
M205 X20 Y20
G1 F1500 X20.162 Y14.492 E13.57313
G1 X20.56 Y14.153 E13.59052
G1 X21.25 Y13.619 E13.61954
G1 X21.802 Y13.242 E13.64177
G1 X22.292 Y12.981 E13.66024
G1 X23.08 Y12.61 E13.68921
G1 X23.701 Y12.362 E13.71145
G1 X24.06 Y12.256 E13.7239
G1 X24.681 Y12.095 E13.74523
G1 X25.337 Y11.966 E13.76747
G1 X26.082 Y11.916 E13.7923
G1 X86.459 Y11.869 E15.80045
G1 X87.304 Y11.933 E15.82864
G1 X88.074 Y12.05 E15.85454
G1 X88.729 Y12.189 E15.87681
G1 X89.143 Y12.322 E15.89127
G1 X89.865 Y12.584 E15.91682
G1 X90.479 Y12.849 E15.93906
G1 X91.01 Y13.154 E15.95943
G1 X91.892 Y13.728 E15.99443
G1 X92.429 Y14.126 E16.01666
G1 X92.713 Y14.38 E16.02934
G1 X93.053 Y14.706 E16.045
G1 X93.507 Y15.197 E16.06724
G1 X94.014 Y15.926 E16.09678
G1 X94.814 Y17.297 E16.14957
G1 X95.171 Y18.025 E16.17654
G1 X96.077 Y20.272 E16.25712
G1 X96.313 Y20.996 E16.28245
G1 X96.636 Y22.276 E16.32636
G1 X96.749 Y22.847 E16.34572
G1 X96.982 Y24.464 E16.40006
G1 X97.037 Y25.115 E16.42178
G1 X97.08 Y26.738 E16.47578
G1 X97.059 Y27.388 E16.49742
G1 X96.912 Y29.021 E16.55195
G1 X96.837 Y29.563 E16.57015
G1 X96.634 Y30.633 E16.60637
G1 X96.524 Y31.102 E16.62239
G1 X96.165 Y32.381 E16.66658
G1 X95.975 Y32.941 E16.68624
G1 X95.378 Y34.439 E16.73988
G1 X95.033 Y35.153 E16.76625
G1 X93.873 Y37.175 E16.84379
G1 X93.506 Y37.734 E16.86603
G1 X93.075 Y38.246 E16.88829
G1 X92.491 Y38.779 E16.91459
G1 X91.652 Y39.443 E16.95017
G1 X91.104 Y39.826 E16.97241
G1 X90.419 Y40.184 E16.99812
G1 X89.888 Y40.416 E17.01739
G1 X89.26 Y40.646 E17.03963
G1 X88.842 Y40.755 E17.054
G1 X88.197 Y40.896 E17.07596
G1 X87.536 Y40.999 E17.09821
G1 X87.002 Y41.025 E17.11599
G1 X27.126 Y41.034 E19.10748
G1 X26.41 Y40.988 E19.13134
G1 X24.763 Y40.776 E19.18657
G1 X24.106 Y40.651 E19.20882
G1 X23.468 Y40.449 E19.23107
G1 X23.018 Y40.253 E19.2474
G1 X22.114 Y39.811 E19.28087
G1 X21.532 Y39.482 E19.3031
G1 X21.187 Y39.239 E19.31714
G1 X20.746 Y38.904 E19.33556
G1 X20.238 Y38.468 E19.35783
G1 X19.751 Y37.932 E19.38191
G1 X19.151 Y37.178 E19.41396
G1 X18.767 Y36.63 E19.43622
G1 X18.597 Y36.336 E19.44751
G1 X17.897 Y35.03 E19.4968
G1 X17.658 Y34.524 E19.51541
G1 X17.171 Y33.346 E19.55781
G1 X16.937 Y32.658 E19.58198
G1 X16.323 Y30.369 E19.6608
G1 X16.171 Y29.578 E19.68759
G1 X15.973 Y27.909 E19.74349
G1 X15.934 Y27.26 E19.76512
G1 X15.931 Y25.719 E19.81637
G1 X15.967 Y25.078 E19.83772
G1 X16.156 Y23.409 E19.89359
G1 X16.251 Y22.834 E19.91297
G1 X16.518 Y21.622 E19.95425
G1 X16.671 Y21.066 E19.97343
G1 X17.183 Y19.52 E20.0276
G1 X17.424 Y18.913 E20.04932
G1 X18.117 Y17.428 E20.10382
G1 X18.507 Y16.728 E20.13048
G1 X19.302 Y15.514 E20.17874
G1 X19.701 Y14.977 E20.20099
M204 S5000
M205 X30 Y30
G0 F3600 X20.023 Y15.217
M204 S500
M205 X20 Y20
G1 F1500 X20.47 Y14.752 E20.22245
G1 X20.804 Y14.47 E20.23698
G1 X21.494 Y13.936 E20.266
G1 X22.028 Y13.573 E20.28748
G1 X22.462 Y13.343 E20.30382
G1 X23.25 Y12.972 E20.33278
G1 X23.849 Y12.734 E20.35422
G1 X24.16 Y12.643 E20.365
G1 X24.781 Y12.482 E20.38634
G1 X25.414 Y12.36 E20.40778
G1 X26.082 Y12.316 E20.43004
G1 X86.459 Y12.269 E22.43819
G1 X87.244 Y12.328 E22.46438
G1 X88.014 Y12.445 E22.49028
G1 X88.644 Y12.581 E22.51172
G1 X89.007 Y12.698 E22.5244
G1 X89.729 Y12.96 E22.54995
G1 X90.32 Y13.217 E22.57138
G1 X90.791 Y13.49 E22.58949
G1 X91.673 Y14.064 E22.62449
G1 X92.191 Y14.448 E22.64594
G1 X92.436 Y14.669 E22.65691
G1 X92.776 Y14.995 E22.67258
G1 X93.213 Y15.469 E22.69402
G1 X93.668 Y16.127 E22.72063
G1 X94.468 Y17.498 E22.77342
G1 X94.8 Y18.174 E22.79847
G1 X95.706 Y20.421 E22.87905
G1 X95.925 Y21.094 E22.90259
G1 X96.248 Y22.374 E22.9465
G1 X96.353 Y22.904 E22.96447
G1 X96.586 Y24.521 E23.01881
G1 X96.637 Y25.125 E23.03897
G1 X96.68 Y26.748 E23.09297
G1 X96.661 Y27.352 E23.11307
G1 X96.514 Y28.985 E23.1676
G1 X96.444 Y29.488 E23.18449
G1 X96.241 Y30.558 E23.22072
G1 X96.139 Y30.994 E23.23561
G1 X95.78 Y32.273 E23.27979
G1 X95.604 Y32.793 E23.29805
G1 X95.007 Y34.291 E23.35169
G1 X94.686 Y34.954 E23.37619
G1 X93.526 Y36.976 E23.45372
G1 X93.172 Y37.514 E23.47514
G1 X92.753 Y38.004 E23.49658
G1 X92.243 Y38.466 E23.51947
G1 X91.404 Y39.13 E23.55506
G1 X90.875 Y39.497 E23.57647
G1 X90.259 Y39.817 E23.59956
G1 X89.728 Y40.049 E23.61883
G1 X89.122 Y40.27 E23.64029
G1 X88.757 Y40.364 E23.65282
G1 X88.112 Y40.505 E23.67478
G1 X87.474 Y40.603 E23.69625
G1 X87.002 Y40.625 E23.71197
G1 X27.126 Y40.634 E25.70345
G1 X26.461 Y40.591 E25.72562
G1 X24.814 Y40.379 E25.78085
G1 X24.181 Y40.258 E25.80228
G1 X23.568 Y40.058 E25.82373
G1 X23.194 Y39.894 E25.83731
G1 X22.29 Y39.452 E25.87078
G1 X21.729 Y39.133 E25.89224
G1 X21.429 Y38.921 E25.90446
G1 X20.988 Y38.586 E25.92288
G1 X20.499 Y38.165 E25.94434
G1 X20.064 Y37.683 E25.96594
G1 X19.464 Y36.929 E25.99799
G1 X18.95 Y36.148 E26.02908
G1 X18.25 Y34.842 E26.07837
G1 X18.027 Y34.372 E26.09567
G1 X17.54 Y33.194 E26.13807
G1 X17.324 Y32.554 E26.16053
G1 X16.71 Y30.265 E26.23936
G1 X16.568 Y29.531 E26.26422
G1 X16.37 Y27.862 E26.32012
G1 X16.334 Y27.259 E26.34021
G1 X16.331 Y25.718 E26.39147
G1 X16.364 Y25.123 E26.41129
G1 X16.553 Y23.454 E26.46715
G1 X16.642 Y22.92 E26.48516
G1 X16.909 Y21.708 E26.52644
G1 X17.051 Y21.192 E26.54424
G1 X17.563 Y19.646 E26.59841
G1 X17.787 Y19.082 E26.61859
G1 X18.48 Y17.597 E26.67309
G1 X18.842 Y16.947 E26.69784
G1 X19.637 Y15.733 E26.7461
G1 X20.023 Y15.217 E26.76754
M204 S5000
M205 X30 Y30
G1 F2400 E21.76754
G0 F3600 X24.162 Y17.619
G0 X24.2 Y17.641
G0 X29.839 Y20.916
G0 X29.878 Y20.938
G0 X30.15 Y21.097
M204 S500
M205 X20 Y20
;TYPE:SUPPORT
G1 F2400 E26.76754
G1 F1500 X32.797 Y21.097 E26.85558
G1 X32.691 Y21.146 E26.85946
G1 X32.192 Y21.44 E26.87872
G1 X31.671 Y21.827 E26.90031
G1 X31.263 Y22.203 E26.91876
G1 X30.872 Y22.624 E26.93787
G1 X30.512 Y23.109 E26.95796
G1 X30.209 Y23.622 E26.97778
G1 X30.15 Y23.744 E26.98229
G1 X30.15 Y21.097 E27.07033
M204 S5000
M205 X30 Y30
G0 F3600 X30.31 Y21.328
M204 S500
M205 X20 Y20
G1 F1500 X32.073 Y21.328 E27.12896
M204 S5000
M205 X30 Y30
G0 F3600 X31.992 Y21.39
M204 S500
M205 X20 Y20
G1 F1500 X31.992 Y21.257 E27.13339
M204 S5000
M205 X30 Y30
G0 F3600 X37.878 Y21.097
M204 S500
M205 X20 Y20
G1 F1500 X42.82 Y21.097 E27.29776
G1 X42.927 Y21.56 E27.31357
G1 X42.93 Y21.623 E27.31566
G1 X42.894 Y22.056 E27.33011
G1 X42.686 Y22.552 E27.348
G1 X42.663 Y22.59 E27.34948
G1 X42.353 Y22.94 E27.36503
G1 X42.319 Y22.967 E27.36648
G1 X41.915 Y23.204 E27.38205
G1 X41.844 Y23.229 E27.38456
G1 X41.381 Y23.323 E27.40027
G1 X40.896 Y23.271 E27.41649
G1 X40.838 Y23.257 E27.41848
G1 X40.436 Y23.083 E27.43305
G1 X40.389 Y23.05 E27.43496
G1 X40.061 Y22.76 E27.44952
G1 X39.635 Y22.294 E27.47052
G1 X39.226 Y21.922 E27.48891
G1 X38.723 Y21.554 E27.50964
G1 X38.285 Y21.291 E27.52663
G1 X37.878 Y21.097 E27.54163
M204 S5000
M205 X30 Y30
G0 F3600 X38.658 Y21.328
M204 S500
M205 X20 Y20
G1 F1500 X42.71 Y21.328 E27.6764
M204 S5000
M205 X30 Y30
G0 F3600 X42.656 Y21.257
M204 S500
M205 X20 Y20
G1 F1500 X42.656 Y22.21 E27.70809
M204 S5000
M205 X30 Y30
G0 F3600 X39.99 Y22.445
M204 S500
M205 X20 Y20
G1 F1500 X39.99 Y21.257 E27.74761
M204 S5000
M205 X30 Y30
G0 F3600 X30.154 Y29.154
M204 S500
M205 X20 Y20
G1 F1500 X30.213 Y29.278 E27.75217
G1 X30.515 Y29.785 E27.7718
G1 X30.865 Y30.257 E27.79135
G1 X31.266 Y30.701 E27.81124
G1 X31.677 Y31.072 E27.82966
G1 X32.177 Y31.446 E27.85043
G1 X32.67 Y31.738 E27.86948
G1 X32.795 Y31.797 E27.87408
G1 X30.15 Y31.797 E27.96206
G1 X30.154 Y29.154 E28.04996
M204 S5000
M205 X30 Y30
G0 F3600 X31.992 Y31.508
M204 S500
M205 X20 Y20
G1 F1500 X31.992 Y31.637 E28.05425
M204 S5000
M205 X30 Y30
G0 F3600 X37.882 Y31.797
M204 S500
M205 X20 Y20
G1 F1500 X38.247 Y31.622 E28.06772
G1 X38.763 Y31.316 E28.08767
G1 X39.249 Y30.952 E28.10786
G1 X39.623 Y30.615 E28.12461
G1 X40.039 Y30.155 E28.14524
G1 X40.437 Y29.81 E28.16276
G1 X40.855 Y29.629 E28.17791
G1 X40.912 Y29.617 E28.17984
G1 X41.355 Y29.571 E28.19466
G1 X41.435 Y29.575 E28.19732
G1 X41.914 Y29.688 E28.21369
G1 X42.315 Y29.924 E28.22917
G1 X42.357 Y29.958 E28.23096
G1 X42.655 Y30.292 E28.24585
G1 X42.689 Y30.346 E28.24797
G1 X42.878 Y30.775 E28.26356
G1 X42.89 Y30.83 E28.26544
G1 X42.934 Y31.277 E28.28038
G1 X42.932 Y31.33 E28.28214
G1 X42.822 Y31.797 E28.2981
G1 X37.882 Y31.797 E28.4624
M204 S5000
M205 X30 Y30
G0 F3600 X39.99 Y31.637
M204 S500
M205 X20 Y20
G1 F1500 X39.99 Y30.447 E28.50198
M204 S5000
M205 X30 Y30
G0 F3600 X42.656 Y30.674
M204 S500
M205 X20 Y20
G1 F1500 X42.656 Y31.637 E28.53401
M204 S5000
M205 X30 Y30
G1 F2400 E23.53401
G0 F3600 X53.12 Y31.497
G0 X53.164 Y31.497
G0 X59.834 Y31.408
G0 X59.878 Y31.408
G0 X70.07 Y31.272
M204 S500
M205 X20 Y20
G1 F2400 E28.53401
G1 F1500 X70.108 Y30.829 E28.5488
G1 X70.124 Y30.768 E28.5509
G1 X70.304 Y30.355 E28.56588
G1 X70.331 Y30.311 E28.5676
G1 X70.65 Y29.954 E28.58352
G1 X71.091 Y29.69 E28.60062
G1 X71.151 Y29.668 E28.60274
G1 X71.576 Y29.572 E28.61723
G1 X71.641 Y29.57 E28.6194
G1 X72.15 Y29.629 E28.63644
G1 X72.552 Y29.808 E28.65108
G1 X72.625 Y29.856 E28.65398
G1 X72.957 Y30.15 E28.66873
G1 X73.374 Y30.612 E28.68943
G1 X73.762 Y30.961 E28.70679
G1 X74.234 Y31.317 E28.72645
G1 X74.74 Y31.615 E28.74598
G1 X75.122 Y31.797 E28.76006
G1 X70.18 Y31.797 E28.92443
G1 X70.17 Y31.772 E28.92532
G1 X70.074 Y31.343 E28.93995
G1 X70.07 Y31.272 E28.94231
M204 S5000
M205 X30 Y30
G0 F3600 X71.982 Y31.637
M204 S500
M205 X20 Y20
G1 F1500 X71.982 Y29.773 E29.00431
M204 S5000
M205 X30 Y30
G0 F3600 X71.629 Y23.324
M204 S500
M205 X20 Y20
G1 F1500 X71.566 Y23.322 E29.0064
G1 X71.13 Y23.225 E29.02126
G1 X71.094 Y23.21 E29.02256
G1 X70.635 Y22.931 E29.04042
G1 X70.34 Y22.601 E29.05515
G1 X70.309 Y22.554 E29.05702
G1 X70.125 Y22.131 E29.07236
G1 X70.115 Y22.084 E29.07396
G1 X70.067 Y21.599 E29.09017
G1 X70.177 Y21.097 E29.10726
G1 X75.119 Y21.097 E29.27163
G1 X74.729 Y21.278 E29.28593
G1 X74.249 Y21.572 E29.30466
G1 X73.797 Y21.906 E29.32335
G1 X73.333 Y22.323 E29.3441
G1 X72.951 Y22.748 E29.3631
