;FLAVOR:Marlin
;TIME:1831
;Filament used: 0.707134m
;Layer height: 0.1
;Generated with Cura_SteamEngine 3.2.1
M190 S60
M104 S180
M109 S180
M82 ;absolute extrusion mode
G28 ;Home
G1 Z15.0 F6000 ;Move the platform down 15mm
;Prime the extruder
G92 E0
G1 F200 E3
G92 E0
;LAYER_COUNT:80
;LAYER:0
M107
M204 S5000
M205 X30 Y30
G0 F3600 X49.143 Y14.739 Z0.2
M204 S500
M205 X20 Y20
;TYPE:SKIRT
G1 F1500 X49.416 Y14.078 E0.02379
G1 X49.761 Y13.451 E0.04759
G1 X50.173 Y12.867 E0.07136
G1 X50.649 Y12.332 E0.09518
G1 X51.181 Y11.854 E0.11897
G1 X51.763 Y11.439 E0.14274
G1 X52.387 Y11.09 E0.16652
G1 X53.047 Y10.814 E0.19031
G1 X53.734 Y10.613 E0.21412
G1 X54.438 Y10.49 E0.23789
G1 X55.192 Y10.446 E0.26301
G1 X89.656 Y10.48 E1.40929
G1 X90.37 Y10.521 E1.43308
G1 X90.837 Y10.591 E1.44878
G1 X91.335 Y10.685 E1.46564
G1 X92.029 Y10.857 E1.48942
G1 X92.445 Y11.001 E1.50406
G1 X93.329 Y11.341 E1.53556
G1 X93.982 Y11.634 E1.55937
G1 X94.735 Y12.094 E1.58872
G1 X95.592 Y12.702 E1.62366
G1 X96.152 Y13.148 E1.64748
G1 X96.658 Y13.653 E1.67125
G1 X97.104 Y14.213 E1.69506
G1 X97.742 Y15.11 E1.73168
G1 X98.242 Y15.938 E1.76385
G1 X98.984 Y17.41 E1.81867
G1 X99.278 Y18.087 E1.84322
G1 X99.819 Y19.562 E1.89548
G1 X99.986 Y20.086 E1.91377
G1 X100.205 Y20.891 E1.94152
G1 X100.314 Y21.362 E1.9576
G1 X100.556 Y22.62 E2.0002
G1 X100.651 Y23.319 E2.02367
G1 X100.791 Y25.069 E2.08206
G1 X100.807 Y25.794 E2.10618
G1 X100.757 Y27.283 E2.15573
G1 X100.692 Y28.005 E2.17984
G1 X100.45 Y29.64 E2.23481
G1 X100.323 Y30.276 E2.25638
G1 X100.041 Y31.388 E2.29454
G1 X99.858 Y31.985 E2.31531
G1 X99.309 Y33.508 E2.36915
G1 X98.931 Y34.357 E2.40006
G1 X97.779 Y36.51 E2.48128
G1 X97.407 Y37.121 E2.50507
G1 X96.969 Y37.687 E2.52888
G1 X96.334 Y38.322 E2.55874
G1 X95.563 Y38.992 E2.59272
G1 X94.998 Y39.43 E2.61649
G1 X94.557 Y39.708 E2.63383
G1 X94.119 Y39.96 E2.65064
G1 X93.48 Y40.282 E2.67444
G1 X93.072 Y40.443 E2.68903
G1 X92.192 Y40.756 E2.72009
G1 X91.505 Y40.958 E2.74391
G1 X91.064 Y41.045 E2.75886
G1 X90.573 Y41.124 E2.7754
G1 X89.559 Y41.205 E2.80923
G1 X55.188 Y41.223 E3.95242
G1 X54.474 Y41.183 E3.9762
G1 X53.769 Y41.064 E3.99998
G1 X53.081 Y40.867 E4.02379
G1 X52.42 Y40.595 E4.04756
G1 X51.793 Y40.25 E4.07136
G1 X51.209 Y39.838 E4.09513
G1 X50.674 Y39.363 E4.11893
G1 X50.196 Y38.831 E4.14272
G1 X49.779 Y38.249 E4.16653
G1 X49.431 Y37.625 E4.19029
G1 X49.154 Y36.965 E4.2141
G1 X48.953 Y36.279 E4.23788
G1 X48.829 Y35.574 E4.26168
G1 X48.785 Y34.823 E4.28671
G1 X48.786 Y16.846 E4.88462
G1 X48.826 Y16.132 E4.90841
G1 X48.945 Y15.426 E4.93222
G1 X49.143 Y14.739 E4.956
M204 S5000
M205 X30 Y30
G0 F3600 X49.543 Y14.808
M204 S500
M205 X20 Y20
G1 F1500 X49.815 Y14.172 E4.97901
G1 X50.159 Y13.57 E5.00207
G1 X50.57 Y13.013 E5.02509
G1 X51.042 Y12.507 E5.04811
G1 X51.57 Y12.058 E5.07116
G1 X52.146 Y11.673 E5.0942
G1 X52.762 Y11.357 E5.11723
G1 X53.411 Y11.115 E5.14027
G1 X54.083 Y10.948 E5.1633
G1 X54.77 Y10.86 E5.18633
G1 X55.192 Y10.846 E5.20038
G1 X89.656 Y10.88 E6.34666
G1 X90.347 Y10.921 E6.36968
G1 X90.763 Y10.984 E6.38367
G1 X91.261 Y11.078 E6.40053
G1 X91.933 Y11.246 E6.42357
G1 X92.302 Y11.374 E6.43656
G1 X93.186 Y11.714 E6.46806
G1 X93.817 Y11.999 E6.49109
G1 X94.504 Y12.42 E6.51789
G1 X95.361 Y13.028 E6.55284
G1 X95.902 Y13.461 E6.57588
G1 X96.389 Y13.953 E6.59891
G1 X96.778 Y14.444 E6.61974
G1 X97.416 Y15.341 E6.65635
G1 X97.885 Y16.118 E6.68654
G1 X98.627 Y17.59 E6.74137
G1 X98.902 Y18.225 E6.76438
G1 X99.443 Y19.7 E6.81664
G1 X99.6 Y20.191 E6.83378
G1 X99.819 Y20.996 E6.86153
G1 X99.921 Y21.438 E6.87662
G1 X100.163 Y22.696 E6.91923
G1 X100.252 Y23.351 E6.94121
G1 X100.392 Y25.101 E6.9996
G1 X100.408 Y25.78 E7.02219
G1 X100.358 Y27.269 E7.07175
G1 X100.296 Y27.947 E7.09439
G1 X100.054 Y29.582 E7.14936
G1 X99.935 Y30.178 E7.16958
G1 X99.653 Y31.29 E7.20773
G1 X99.481 Y31.85 E7.22722
G1 X98.932 Y33.373 E7.28106
G1 X98.578 Y34.169 E7.31004
G1 X97.426 Y36.322 E7.39125
G1 X97.065 Y36.912 E7.41426
G1 X96.638 Y37.458 E7.43731
G1 X96.072 Y38.02 E7.46384
G1 X95.301 Y38.69 E7.49782
G1 X94.753 Y39.113 E7.52084
G1 X94.357 Y39.362 E7.5364
G1 X93.919 Y39.614 E7.55321
G1 X93.3 Y39.924 E7.57623
G1 X92.938 Y40.066 E7.58916
G1 X92.058 Y40.379 E7.62023
G1 X91.393 Y40.573 E7.64327
G1 X91 Y40.65 E7.65659
G1 X90.509 Y40.729 E7.67313
G1 X89.559 Y40.805 E7.70483
G1 X55.188 Y40.823 E8.84801
G1 X54.497 Y40.783 E8.87103
G1 X53.815 Y40.664 E8.89406
G1 X53.151 Y40.468 E8.91709
G1 X52.514 Y40.196 E8.94012
G1 X51.912 Y39.852 E8.96318
G1 X51.355 Y39.441 E8.98621
G1 X50.848 Y38.969 E9.00925
G1 X50.399 Y38.442 E9.03227
G1 X50.014 Y37.866 E9.05532
G1 X49.698 Y37.25 E9.07834
G1 X49.455 Y36.602 E9.10136
G1 X49.288 Y35.93 E9.12439
G1 X49.2 Y35.243 E9.14743
G1 X49.185 Y34.823 E9.16141
G1 X49.186 Y16.846 E9.75933
G1 X49.226 Y16.154 E9.78238
G1 X49.345 Y15.472 E9.80541
G1 X49.543 Y14.808 E9.82845
M204 S5000
M205 X30 Y30
G0 F3600 X49.942 Y14.88
M204 S500
M205 X20 Y20
G1 F1500 X50.214 Y14.269 E9.8507
G1 X50.557 Y13.694 E9.87297
G1 X50.966 Y13.165 E9.89521
G1 X51.435 Y12.688 E9.91745
G1 X51.958 Y12.27 E9.93972
G1 X52.526 Y11.918 E9.96195
G1 X53.133 Y11.636 E9.98421
G1 X53.769 Y11.428 E10.00647
G1 X54.425 Y11.298 E10.02871
G1 X55.192 Y11.246 E10.05428
G1 X89.656 Y11.28 E11.20056
G1 X90.323 Y11.321 E11.22278
G1 X90.689 Y11.377 E11.2351
G1 X91.187 Y11.471 E11.25195
G1 X91.836 Y11.634 E11.27421
G1 X92.158 Y11.747 E11.28556
G1 X93.042 Y12.087 E11.31706
G1 X93.651 Y12.364 E11.33931
G1 X94.272 Y12.747 E11.36358
G1 X95.129 Y13.355 E11.39853
G1 X95.651 Y13.774 E11.42079
G1 X96.119 Y14.252 E11.44304
G1 X96.452 Y14.676 E11.46097
G1 X97.09 Y15.573 E11.49758
G1 X97.528 Y16.298 E11.52576
G1 X98.27 Y17.77 E11.58058
G1 X98.527 Y18.363 E11.60208
G1 X99.068 Y19.838 E11.65433
G1 X99.214 Y20.296 E11.67032
G1 X99.433 Y21.101 E11.69807
G1 X99.528 Y21.513 E11.71213
G1 X99.77 Y22.771 E11.75474
G1 X99.853 Y23.382 E11.77525
G1 X99.993 Y25.132 E11.83364
G1 X100.008 Y25.767 E11.85477
G1 X99.958 Y27.256 E11.90432
G1 X99.901 Y27.888 E11.92543
G1 X99.659 Y29.523 E11.9804
G1 X99.547 Y30.08 E11.99929
G1 X99.265 Y31.192 E12.03745
G1 X99.105 Y31.714 E12.05561
G1 X98.556 Y33.237 E12.10946
G1 X98.226 Y33.98 E12.1365
G1 X97.074 Y36.133 E12.21771
G1 X96.723 Y36.703 E12.23998
G1 X96.308 Y37.227 E12.26221
G1 X95.809 Y37.718 E12.28549
G1 X95.038 Y38.388 E12.31946
G1 X94.508 Y38.796 E12.34171
G1 X94.158 Y39.015 E12.35544
G1 X93.72 Y39.267 E12.37225
G1 X93.121 Y39.565 E12.3945
G1 X92.804 Y39.689 E12.40582
G1 X91.924 Y40.002 E12.43689
G1 X91.281 Y40.188 E12.45915
G1 X90.937 Y40.255 E12.47081
G1 X90.446 Y40.334 E12.48735
G1 X89.559 Y40.405 E12.51695
G1 X55.188 Y40.423 E13.66013
G1 X54.52 Y40.383 E13.68239
G1 X53.862 Y40.264 E13.70463
G1 X53.222 Y40.068 E13.72689
G1 X52.611 Y39.796 E13.74913
G1 X52.036 Y39.454 E13.77139
G1 X51.506 Y39.045 E13.79365
G1 X51.029 Y38.576 E13.8159
G1 X50.611 Y38.054 E13.83814
G1 X50.258 Y37.485 E13.86042
G1 X49.976 Y36.879 E13.88265
G1 X49.768 Y36.243 E13.9049
G1 X49.637 Y35.587 E13.92715
G1 X49.585 Y34.823 E13.95262
G1 X49.586 Y16.846 E14.55054
G1 X49.626 Y16.178 E14.5728
G1 X49.745 Y15.52 E14.59504
G1 X49.942 Y14.88 E14.61731
M204 S5000
M205 X30 Y30
G0 F3600 X50.342 Y14.955
M204 S500
M205 X20 Y20
G1 F1500 X50.613 Y14.37 E14.63875
G1 X50.955 Y13.823 E14.66021
G1 X51.361 Y13.323 E14.68163
G1 X51.827 Y12.877 E14.70308
G1 X52.344 Y12.492 E14.72452
G1 X52.904 Y12.173 E14.74596
G1 X53.5 Y11.927 E14.76741
G1 X54.122 Y11.756 E14.78886
G1 X54.76 Y11.664 E14.8103
G1 X55.191 Y11.646 E14.82465
G1 X89.655 Y11.68 E15.97093
G1 X90.614 Y11.77 E16.00296
G1 X91.112 Y11.864 E16.01982
G1 X92.015 Y12.121 E16.05104
G1 X92.899 Y12.461 E16.08255
G1 X93.485 Y12.729 E16.10398
G1 X94.041 Y13.073 E16.12572
G1 X94.898 Y13.681 E16.16067
G1 X95.4 Y14.086 E16.18213
G1 X95.847 Y14.55 E16.20355
G1 X96.126 Y14.908 E16.21865
G1 X96.764 Y15.805 E16.25526
G1 X97.17 Y16.478 E16.2814
G1 X97.912 Y17.95 E16.33623
G1 X98.151 Y18.5 E16.35618
G1 X98.692 Y19.975 E16.40843
G1 X98.828 Y20.401 E16.4233
G1 X99.047 Y21.206 E16.45105
G1 X99.135 Y21.589 E16.46412
G1 X99.377 Y22.847 E16.50673
G1 X99.454 Y23.414 E16.52576
G1 X99.594 Y25.164 E16.58415
G1 X99.608 Y25.754 E16.60378
G1 X99.558 Y27.243 E16.65334
G1 X99.505 Y27.829 E16.67291
G1 X99.263 Y29.464 E16.72788
G1 X99.159 Y29.981 E16.74542
G1 X98.877 Y31.093 E16.78357
G1 X98.729 Y31.578 E16.80044
G1 X98.18 Y33.101 E16.85429
G1 X97.873 Y33.791 E16.8794
G1 X96.721 Y35.944 E16.96062
G1 X96.382 Y36.493 E16.98208
G1 X95.978 Y36.995 E17.00351
G1 X95.547 Y37.416 E17.02355
G1 X94.776 Y38.086 E17.05752
G1 X94.264 Y38.478 E17.07897
G1 X93.958 Y38.668 E17.09095
G1 X93.52 Y38.92 E17.10776
G1 X92.67 Y39.312 E17.13889
G1 X91.79 Y39.625 E17.16996
G1 X90.873 Y39.86 E17.20144
G1 X90.382 Y39.939 E17.21798
G1 X89.559 Y40.005 E17.24544
G1 X55.188 Y40.023 E18.38863
G1 X54.544 Y39.983 E18.41009
G1 X53.911 Y39.864 E18.43151
G1 X53.297 Y39.668 E18.45295
G1 X52.712 Y39.397 E18.47439
G1 X52.165 Y39.056 E18.49583
G1 X51.664 Y38.65 E18.51728
G1 X51.218 Y38.185 E18.53871
G1 X50.832 Y37.668 E18.56017
G1 X50.514 Y37.107 E18.58162
G1 X50.267 Y36.512 E18.60304
G1 X50.096 Y35.89 E18.6245
G1 X50.003 Y35.252 E18.64594
G1 X49.985 Y34.823 E18.66022
G1 X49.986 Y16.846 E19.25814
G1 X50.026 Y16.202 E19.2796
G1 X50.145 Y15.569 E19.30102
G1 X50.342 Y14.955 E19.32247
M204 S5000
M205 X30 Y30
G1 F2400 E14.32247
G0 F3600 X55.204 Y16.21
G0 X55.247 Y16.221
G0 X71.632 Y20.451
G0 X71.695 Y20.467
G0 X72.921 Y20.785
M204 S500
M205 X20 Y20
;TYPE:SUPPORT
G1 F2400 E19.32247
G1 F1500 X72.935 Y20.737 E19.32413
G1 X77.724 Y20.737 E19.48342
G1 X77.196 Y21.058 E19.50397
G1 X77.02 Y21.186 E19.51121
G1 X76.649 Y21.406 E19.52555
G1 X75.985 Y22.159 E19.55894
G1 X75.954 Y22.175 E19.5601
G1 X75.746 Y22.394 E19.57015
G1 X75.478 Y22.584 E19.58108
G1 X75.214 Y22.705 E19.59074
G1 X74.937 Y22.781 E19.60029
G1 X74.661 Y22.808 E19.60951
G1 X74.358 Y22.789 E19.61961
G1 X73.758 Y22.633 E19.64023
G1 X73.322 Y22.217 E19.66027
G1 X73.135 Y21.954 E19.67101
G1 X73.01 Y21.693 E19.68063
G1 X72.935 Y21.427 E19.68982
G1 X72.899 Y21.107 E19.70053
G1 X72.921 Y20.785 E19.71127
M204 S5000
M205 X30 Y30
G0 F3600 X73.085 Y21.328
M204 S500
M205 X20 Y20
G1 F1500 X76.502 Y21.328 E19.82492
M204 S5000
M205 X30 Y30
G0 F3600 X74.648 Y20.897
M204 S500
M205 X20 Y20
G1 F1500 X74.648 Y22.646 E19.88309
M204 S5000
M205 X30 Y30
G0 F3600 X74.611 Y28.866
M204 S500
M205 X20 Y20
G1 F1500 X74.737 Y28.866 E19.88728
G1 X74.851 Y28.877 E19.89109
G1 X74.995 Y28.907 E19.89598
G1 X75.281 Y28.993 E19.90592
G1 X75.513 Y29.106 E19.9145
G1 X75.721 Y29.258 E19.92307
G1 X75.897 Y29.419 E19.931
G1 X77.057 Y30.738 E19.98942
G1 X77.619 Y30.937 E20.00925
G1 X72.936 Y30.937 E20.16501
G1 X72.92 Y30.876 E20.16711
G1 X72.898 Y30.567 E20.17741
G1 X72.924 Y30.293 E20.18657
G1 X73.008 Y29.984 E20.19722
G1 X73.242 Y29.491 E20.21537
G1 X73.538 Y29.253 E20.228
G1 X73.673 Y29.159 E20.23347
G1 X73.819 Y29.068 E20.23919
G1 X74.055 Y28.962 E20.2478
G1 X74.344 Y28.886 E20.25774
G1 X74.611 Y28.866 E20.26664
M204 S5000
M205 X30 Y30
G0 F3600 X74.648 Y29.026
M204 S500
M205 X20 Y20
G1 F1500 X74.648 Y30.777 E20.32488
M204 S5000
M205 X30 Y30
G0 F3600 X75.545 Y29.326
M204 S500
M205 X20 Y20
G1 F1500 X73.716 Y29.326 E20.38571
M204 S5000
M205 X30 Y30
G0 F3600 X83.588 Y30.933
M204 S500
M205 X20 Y20
G1 F1500 X83.75 Y30.836 E20.39199
G1 X84.207 Y30.492 E20.41102
G1 X84.706 Y30.054 E20.4331
G1 X85.076 Y29.626 E20.45192
G1 X85.417 Y29.166 E20.47096
G1 X85.526 Y28.984 E20.47802
G1 X85.526 Y30.937 E20.54298
G1 X83.588 Y30.933 E20.60743
M204 S5000
M205 X30 Y30
G0 F3600 X85.312 Y30.776
M204 S500
M205 X20 Y20
G1 F1500 X85.312 Y29.578 E20.64728
M204 S5000
M205 X30 Y30
G0 F3600 X85.52 Y22.679
M204 S500
M205 X20 Y20
G1 F1500 X85.412 Y22.499 E20.65426
G1 X85.069 Y22.04 E20.67332
G1 X84.652 Y21.571 E20.69419
G1 X84.286 Y21.249 E20.71041
G1 X83.744 Y20.837 E20.73305
G1 X83.572 Y20.737 E20.73967
G1 X85.525 Y20.737 E20.80463
G1 X85.52 Y22.679 E20.86922
M204 S5000
M205 X30 Y30
G0 F3600 X85.312 Y22.09
M204 S500
M205 X20 Y20
G1 F1500 X85.312 Y20.897 E20.9089
M204 S5000
M205 X30 Y30
G0 F3600 X85.363 Y21.328
M204 S500
M205 X20 Y20
G1 F1500 X84.619 Y21.328 E20.93364
M204 S5000
M205 X30 Y30
G1 F2400 E15.93364
G0 F3600 X85.761 Y21.328
G0 X87.026 Y21.328
G0 X91.383 Y24.302
G0 X91.926 Y24.192
G0 X92.35 Y24.248
G0 X92.747 Y24.412
G0 X93.089 Y24.674
G0 X93.324 Y24.981
G0 X93.632 Y25.837
G0 X93.532 Y25.837
M204 S500
M205 X20 Y20
;TYPE:WALL-INNER
G1 F2400 E20.93364
G1 F1500 X93.476 Y25.422 E20.94757
G1 X93.41 Y25.26 E20.95339
G1 X93.317 Y25.035 E20.96149
G1 X93.061 Y24.702 E20.97546
G1 X92.728 Y24.446 E20.98943
G1 X92.34 Y24.286 E21.00339
G1 X91.926 Y24.232 E21.01727
G1 X91.511 Y24.286 E21.03119
G1 X91.123 Y24.447 E21.04516
G1 X90.791 Y24.701 E21.05907
G1 X90.534 Y25.034 E21.07306
G1 X90.375 Y25.422 E21.087
G1 X90.321 Y25.837 E21.10092
G1 X90.375 Y26.252 E21.11484
G1 X90.534 Y26.64 E21.12879
G1 X90.791 Y26.973 E21.14278
G1 X91.123 Y27.227 E21.15668
G1 X91.511 Y27.388 E21.17065
G1 X91.926 Y27.442 E21.18457
G1 X92.34 Y27.388 E21.19846
G1 X92.728 Y27.228 E21.21242
G1 X93.061 Y26.972 E21.22639
G1 X93.317 Y26.639 E21.24036
G1 X93.411 Y26.41 E21.24859
G1 X93.476 Y26.252 E21.25428
G1 X93.528 Y25.86 E21.26743
G1 X93.532 Y25.837 E21.2682
M204 S5000
M205 X30 Y30
G0 F3600 X93.632 Y25.837
G0 X93.38 Y26.575
G0 X88.183 Y34.125
G0 X88.184 Y34.224
M204 S500
M205 X20 Y20
G1 F1500 X87.85 Y34.237 E21.27932
G1 X58.229 Y34.237 E22.26452
G1 X57.988 Y34.237 E22.27254
G1 X57.69 Y34.237 E22.28245
G1 X57.519 Y34.237 E22.28813
G1 X57.364 Y34.237 E22.29329
G1 X57.211 Y34.237 E22.29838
G1 X57.119 Y34.237 E22.30144
G1 X55.776 Y34.237 E22.34611
G1 X55.776 Y32.894 E22.39078
G1 X55.776 Y32.787 E22.39433
G1 X55.776 Y32.495 E22.40405
G1 X55.776 Y32.193 E22.41409
G1 X55.776 Y32.023 E22.41974
G1 X55.776 Y31.874 E22.4247
G1 X55.776 Y31.779 E22.42786
G1 X55.776 Y19.894 E22.82316
G1 X55.776 Y19.787 E22.82672
G1 X55.776 Y19.495 E22.83643
G1 X55.776 Y19.193 E22.84647
G1 X55.776 Y19.023 E22.85213
G1 X55.776 Y18.874 E22.85708
G1 X55.776 Y18.779 E22.86024
G1 X55.776 Y17.437 E22.90488
G1 X57.121 Y17.437 E22.94961
G1 X57.363 Y17.437 E22.95766
G1 X57.662 Y17.437 E22.96761
G1 X57.832 Y17.437 E22.97326
G1 X57.987 Y17.437 E22.97842
G1 X58.141 Y17.437 E22.98354
G1 X58.231 Y17.437 E22.98653
G1 X89.138 Y17.439 E24.0145
G1 X89.454 Y17.452 E24.02502
G1 X89.72 Y17.486 E24.03394
G1 X90.006 Y17.548 E24.04367
G1 X90.277 Y17.629 E24.05308
G1 X90.541 Y17.733 E24.06252
G1 X90.804 Y17.862 E24.07226
G1 X91.027 Y17.997 E24.08093
G1 X91.278 Y18.176 E24.09119
G1 X91.478 Y18.346 E24.09992
G1 X91.646 Y18.515 E24.10784
G1 X92.032 Y19.141 E24.1323
G1 X92.397 Y19.817 E24.15785
G1 X92.727 Y20.525 E24.18383
G1 X93.015 Y21.248 E24.20972
G1 X93.267 Y22.01 E24.23641
G1 X93.46 Y22.73 E24.26121
G1 X93.62 Y23.5 E24.28736
G1 X93.737 Y24.298 E24.31419
G1 X93.802 Y25.038 E24.3389
G1 X93.807 Y25.238 E24.34555
G1 X93.811 Y25.413 E24.35091
G1 X93.822 Y25.83 E24.36175
G1 X93.824 Y25.901 E24.36329
G1 X93.814 Y26.262 E24.37273
G1 X93.809 Y26.433 E24.37798
G1 X93.802 Y26.633 E24.38464
G1 X93.737 Y27.375 E24.40941
G1 X93.623 Y28.158 E24.43573
G1 X93.462 Y28.938 E24.46222
G1 X93.267 Y29.664 E24.48722
G1 X93.019 Y30.415 E24.51353
G1 X92.727 Y31.15 E24.53983
G1 X92.399 Y31.852 E24.56561
G1 X92.033 Y32.531 E24.59126
G1 X91.646 Y33.159 E24.6158
G1 X91.484 Y33.321 E24.62342
G1 X91.254 Y33.517 E24.63347
G1 X91.051 Y33.662 E24.64176
G1 X90.778 Y33.825 E24.65234
G1 X90.526 Y33.948 E24.66167
G1 X90.275 Y34.047 E24.67064
G1 X89.986 Y34.133 E24.68067
G1 X89.712 Y34.191 E24.68998
