;FLAVOR:Marlin
;TIME:1573
;Filament used: 0.642634m
;Layer height: 0.1
;Generated with Cura_SteamEngine 3.2.1
M190 S60
M104 S180
M109 S180
M82 ;absolute extrusion mode
G28 ;Home
G1 Z15.0 F6000 ;Move the platform down 15mm
;Prime the extruder
G92 E0
G1 F200 E3
G92 E0
;LAYER_COUNT:39
;LAYER:0
M107
M204 S5000
M205 X30 Y30
G0 F3600 X57.768 Y15.788 Z0.2
M204 S500
M205 X20 Y20
;TYPE:SKIRT
G1 F1500 X57.96 Y15.099 E0.02379
G1 X58.228 Y14.436 E0.04757
G1 X58.569 Y13.807 E0.07137
G1 X58.978 Y13.22 E0.09517
G1 X59.595 Y12.539 E0.12573
G1 X63.821 Y8.498 E0.32021
G1 X66.864 Y5.275 E0.46763
G1 X67.383 Y4.783 E0.49142
G1 X67.954 Y4.352 E0.51521
G1 X68.57 Y3.988 E0.53901
G1 X69.222 Y3.695 E0.56279
G1 X69.903 Y3.476 E0.58658
G1 X70.604 Y3.334 E0.61037
G1 X71.583 Y3.269 E0.643
G1 X78.063 Y3.336 E0.85854
G1 X87.459 Y3.27 E1.17106
G1 X88.174 Y3.305 E1.19487
G1 X88.88 Y3.42 E1.21866
G1 X89.569 Y3.612 E1.24245
G1 X90.232 Y3.88 E1.26623
G1 X90.861 Y4.221 E1.29003
G1 X91.448 Y4.63 E1.31383
G1 X92.129 Y5.247 E1.34439
G1 X96.167 Y9.469 E1.5387
G1 X99.39 Y12.51 E1.68608
G1 X99.882 Y13.029 E1.70987
G1 X100.313 Y13.6 E1.73366
G1 X100.677 Y14.215 E1.75743
G1 X100.971 Y14.867 E1.78122
G1 X101.19 Y15.548 E1.80501
G1 X101.332 Y16.249 E1.8288
G1 X101.398 Y17.23 E1.8615
G1 X101.332 Y23.714 E2.07717
G1 X101.398 Y33.111 E2.38973
G1 X101.363 Y33.826 E2.41354
G1 X101.248 Y34.532 E2.43733
G1 X101.056 Y35.221 E2.46112
G1 X100.788 Y35.884 E2.4849
G1 X100.447 Y36.513 E2.5087
G1 X100.038 Y37.1 E2.53249
G1 X99.421 Y37.781 E2.56306
G1 X95.195 Y41.822 E2.75753
G1 X92.152 Y45.045 E2.90496
G1 X91.633 Y45.537 E2.92875
G1 X91.062 Y45.968 E2.95254
G1 X90.446 Y46.332 E2.97634
G1 X89.794 Y46.625 E3.00012
G1 X89.113 Y46.844 E3.02391
G1 X88.412 Y46.986 E3.0477
G1 X87.433 Y47.051 E3.08033
G1 X80.953 Y46.984 E3.29587
G1 X71.557 Y47.05 E3.60839
G1 X70.842 Y47.015 E3.6322
G1 X70.136 Y46.9 E3.65599
G1 X69.447 Y46.708 E3.67978
G1 X68.784 Y46.44 E3.70356
G1 X68.155 Y46.099 E3.72736
G1 X67.568 Y45.69 E3.75115
G1 X66.887 Y45.073 E3.78172
G1 X62.846 Y40.847 E3.97619
G1 X59.623 Y37.804 E4.12362
G1 X59.131 Y37.285 E4.14741
G1 X58.7 Y36.714 E4.1712
G1 X58.336 Y36.098 E4.195
G1 X58.043 Y35.446 E4.21877
G1 X57.824 Y34.765 E4.24257
G1 X57.682 Y34.064 E4.26636
G1 X57.617 Y33.085 E4.29899
G1 X57.684 Y26.605 E4.51453
G1 X57.618 Y17.209 E4.82705
G1 X57.653 Y16.494 E4.85086
G1 X57.768 Y15.788 E4.87465
M204 S5000
M205 X30 Y30
G0 F3600 X58.168 Y15.831
M204 S500
M205 X20 Y20
G1 F1500 X58.36 Y15.166 E4.89767
G1 X58.628 Y14.527 E4.92072
G1 X58.968 Y13.924 E4.94374
G1 X59.375 Y13.364 E4.96676
G1 X59.871 Y12.828 E4.99105
G1 X64.115 Y8.77 E5.18635
G1 X67.155 Y5.55 E5.33364
G1 X67.658 Y5.074 E5.35667
G1 X68.213 Y4.66 E5.3797
G1 X68.813 Y4.313 E5.40276
G1 X69.448 Y4.037 E5.42578
G1 X70.11 Y3.836 E5.4488
G1 X70.792 Y3.713 E5.47184
G1 X71.579 Y3.669 E5.49806
G1 X78.062 Y3.736 E5.7137
G1 X87.462 Y3.67 E6.02635
G1 X88.154 Y3.705 E6.0494
G1 X88.837 Y3.82 E6.07243
G1 X89.502 Y4.012 E6.09545
G1 X90.141 Y4.28 E6.1185
G1 X90.744 Y4.62 E6.14153
G1 X91.304 Y5.027 E6.16455
G1 X91.84 Y5.523 E6.18884
G1 X95.895 Y9.764 E6.384
G1 X99.115 Y12.801 E6.53122
G1 X99.591 Y13.304 E6.55425
G1 X100.005 Y13.859 E6.57728
G1 X100.353 Y14.458 E6.60032
G1 X100.629 Y15.093 E6.62335
G1 X100.83 Y15.756 E6.64639
G1 X100.954 Y16.437 E6.66941
G1 X100.998 Y17.226 E6.6957
G1 X100.932 Y23.713 E6.91147
G1 X100.998 Y33.114 E7.22415
G1 X100.963 Y33.806 E7.2472
G1 X100.848 Y34.489 E7.27024
G1 X100.656 Y35.154 E7.29326
G1 X100.388 Y35.793 E7.3163
G1 X100.048 Y36.396 E7.33933
G1 X99.641 Y36.956 E7.36235
G1 X99.145 Y37.492 E7.38664
G1 X94.901 Y41.55 E7.58194
G1 X91.861 Y44.77 E7.72923
G1 X91.358 Y45.246 E7.75226
G1 X90.803 Y45.66 E7.77529
G1 X90.203 Y46.007 E7.79834
G1 X89.568 Y46.283 E7.82137
G1 X88.906 Y46.484 E7.84438
G1 X88.224 Y46.607 E7.86743
G1 X87.437 Y46.651 E7.89365
G1 X80.954 Y46.584 E8.10929
G1 X71.554 Y46.65 E8.42194
G1 X70.862 Y46.615 E8.44498
G1 X70.179 Y46.5 E8.46802
G1 X69.514 Y46.308 E8.49104
G1 X68.875 Y46.04 E8.51409
G1 X68.272 Y45.7 E8.53711
G1 X67.712 Y45.293 E8.56014
G1 X67.176 Y44.797 E8.58443
G1 X63.118 Y40.553 E8.77973
G1 X59.898 Y37.513 E8.92701
G1 X59.422 Y37.01 E8.95005
G1 X59.008 Y36.455 E8.97308
G1 X58.661 Y35.855 E8.99613
G1 X58.385 Y35.22 E9.01916
G1 X58.184 Y34.558 E9.04217
G1 X58.061 Y33.876 E9.06522
G1 X58.017 Y33.089 E9.09144
G1 X58.084 Y26.606 E9.30707
G1 X58.018 Y17.206 E9.61973
G1 X58.053 Y16.514 E9.64277
G1 X58.168 Y15.831 E9.66581
M204 S5000
M205 X30 Y30
G0 F3600 X58.568 Y15.876
M204 S500
M205 X20 Y20
G1 F1500 X58.761 Y15.235 E9.68807
G1 X59.028 Y14.622 E9.71031
G1 X59.367 Y14.045 E9.73257
G1 X59.772 Y13.513 E9.75481
G1 X60.148 Y13.117 E9.77297
G1 X64.38 Y9.07 E9.96773
G1 X67.445 Y5.824 E10.11621
G1 X67.933 Y5.366 E10.13847
G1 X68.472 Y4.969 E10.16074
G1 X69.054 Y4.64 E10.18298
G1 X69.671 Y4.382 E10.20522
G1 X70.315 Y4.2 E10.22748
G1 X70.976 Y4.095 E10.24974
G1 X71.574 Y4.069 E10.26965
G1 X78.06 Y4.136 E10.48538
G1 X87.465 Y4.07 E10.7982
G1 X88.133 Y4.105 E10.82045
G1 X88.792 Y4.22 E10.8427
G1 X89.433 Y4.413 E10.86496
G1 X90.046 Y4.68 E10.8872
G1 X90.623 Y5.019 E10.90946
G1 X91.155 Y5.424 E10.9317
G1 X91.551 Y5.8 E10.94986
G1 X95.605 Y10.039 E11.14495
G1 X98.841 Y13.092 E11.29292
G1 X99.299 Y13.579 E11.31516
G1 X99.696 Y14.117 E11.33739
G1 X100.026 Y14.699 E11.35965
G1 X100.284 Y15.317 E11.38192
G1 X100.467 Y15.96 E11.40416
G1 X100.572 Y16.621 E11.42642
G1 X100.598 Y17.222 E11.44642
G1 X100.532 Y23.712 E11.66229
G1 X100.598 Y33.117 E11.97511
G1 X100.563 Y33.785 E11.99736
G1 X100.448 Y34.444 E12.01961
G1 X100.255 Y35.085 E12.04188
G1 X99.988 Y35.698 E12.06411
G1 X99.649 Y36.275 E12.08637
G1 X99.244 Y36.807 E12.10861
G1 X98.868 Y37.203 E12.12677
G1 X94.636 Y41.25 E12.32153
G1 X91.571 Y44.496 E12.47002
G1 X91.083 Y44.954 E12.49228
G1 X90.544 Y45.351 E12.51454
G1 X89.962 Y45.68 E12.53678
G1 X89.345 Y45.938 E12.55902
G1 X88.701 Y46.12 E12.58128
G1 X88.04 Y46.225 E12.60354
G1 X87.442 Y46.251 E12.62345
G1 X80.956 Y46.184 E12.83919
G1 X71.551 Y46.25 E13.15201
G1 X70.883 Y46.215 E13.17425
G1 X70.224 Y46.1 E13.1965
G1 X69.583 Y45.907 E13.21877
G1 X68.97 Y45.64 E13.24101
G1 X68.393 Y45.301 E13.26327
G1 X67.861 Y44.896 E13.2855
G1 X67.465 Y44.52 E13.30367
G1 X63.418 Y40.288 E13.49842
G1 X60.172 Y37.223 E13.64691
G1 X59.714 Y36.735 E13.66917
G1 X59.317 Y36.196 E13.69143
G1 X58.988 Y35.614 E13.71367
G1 X58.73 Y34.997 E13.73591
G1 X58.548 Y34.353 E13.75817
G1 X58.443 Y33.692 E13.78043
G1 X58.417 Y33.094 E13.80034
G1 X58.484 Y26.608 E14.01608
G1 X58.418 Y17.203 E14.3289
G1 X58.453 Y16.535 E14.35115
G1 X58.568 Y15.876 E14.3734
M204 S5000
M205 X30 Y30
G0 F3600 X58.968 Y15.922
M204 S500
M205 X20 Y20
G1 F1500 X59.161 Y15.307 E14.39483
G1 X59.428 Y14.72 E14.41628
G1 X59.766 Y14.171 E14.43773
G1 X60.169 Y13.668 E14.45916
G1 X60.424 Y13.406 E14.47132
G1 X64.674 Y9.341 E14.66693
G1 X67.736 Y6.099 E14.81525
G1 X68.207 Y5.659 E14.83669
G1 X68.729 Y5.28 E14.85814
G1 X69.293 Y4.968 E14.87958
G1 X69.892 Y4.729 E14.90103
G1 X70.516 Y4.566 E14.92248
G1 X71.155 Y4.482 E14.94392
G1 X71.57 Y4.469 E14.95773
G1 X78.059 Y4.536 E15.17356
G1 X87.468 Y4.47 E15.48651
G1 X88.111 Y4.506 E15.50793
G1 X88.746 Y4.62 E15.52939
G1 X89.361 Y4.813 E15.55083
G1 X89.948 Y5.08 E15.57228
G1 X90.497 Y5.418 E15.59372
G1 X91 Y5.821 E15.61516
G1 X91.262 Y6.076 E15.62732
G1 X95.324 Y10.323 E15.82278
G1 X98.566 Y13.382 E15.97104
G1 X99.007 Y13.853 E15.9925
G1 X99.386 Y14.375 E16.01395
G1 X99.697 Y14.939 E16.03537
G1 X99.937 Y15.538 E16.05684
G1 X100.1 Y16.161 E16.07825
G1 X100.185 Y16.8 E16.09969
G1 X100.198 Y17.218 E16.1136
G1 X100.132 Y23.711 E16.32957
G1 X100.198 Y33.12 E16.64253
G1 X100.162 Y33.763 E16.66394
G1 X100.048 Y34.398 E16.6854
G1 X99.855 Y35.013 E16.70684
G1 X99.588 Y35.6 E16.72829
G1 X99.25 Y36.149 E16.74973
G1 X98.847 Y36.652 E16.77117
G1 X98.592 Y36.914 E16.78333
G1 X94.342 Y40.979 E16.97893
G1 X91.28 Y44.221 E17.12726
G1 X90.809 Y44.661 E17.14869
G1 X90.287 Y45.04 E17.17015
G1 X89.723 Y45.352 E17.19159
G1 X89.124 Y45.591 E17.21304
G1 X88.5 Y45.754 E17.23449
G1 X87.861 Y45.838 E17.25592
G1 X87.446 Y45.851 E17.26973
G1 X80.957 Y45.784 E17.48557
G1 X71.548 Y45.85 E17.79852
G1 X70.905 Y45.814 E17.81994
G1 X70.27 Y45.7 E17.8414
G1 X69.655 Y45.507 E17.86284
G1 X69.068 Y45.24 E17.88429
G1 X68.519 Y44.902 E17.90573
G1 X68.016 Y44.499 E17.92717
G1 X67.754 Y44.244 E17.93933
G1 X63.689 Y39.994 E18.13493
G1 X60.447 Y36.932 E18.28325
G1 X60.007 Y36.461 E18.30469
G1 X59.628 Y35.939 E18.32614
G1 X59.316 Y35.375 E18.34758
G1 X59.077 Y34.776 E18.36903
G1 X58.914 Y34.152 E18.39048
G1 X58.83 Y33.513 E18.41192
G1 X58.817 Y33.098 E18.42573
G1 X58.884 Y26.609 E18.64157
G1 X58.818 Y17.2 E18.95452
G1 X58.854 Y16.557 E18.97594
G1 X58.968 Y15.922 E18.9974
M204 S5000
M205 X30 Y30
G1 F2400 E13.9974
G0 F3600 X70.666 Y15.052
G0 X71.853 Y15.545
G0 X72.838 Y14.99
G0 X72.908 Y15.06
M204 S500
M205 X20 Y20
;TYPE:WALL-INNER
G1 F2400 E18.9974
G1 F1500 X72.908 Y16.138 E19.03325
G1 X72.887 Y16.476 E19.04451
G1 X72.825 Y16.781 E19.05487
G1 X72.724 Y17.081 E19.06539
G1 X72.588 Y17.358 E19.07566
G1 X72.412 Y17.62 E19.08616
G1 X72.205 Y17.856 E19.0966
G1 X71.966 Y18.066 E19.10718
G1 X71.71 Y18.237 E19.11742
G1 X71.429 Y18.375 E19.12783
G1 X71.127 Y18.479 E19.13845
G1 X70.829 Y18.538 E19.14856
G1 X70.484 Y18.56 E19.16006
G1 X69.408 Y18.56 E19.19584
G1 X69.408 Y23.76 E19.3688
G1 X72.301 Y23.76 E19.46502
G1 X72.365 Y23.248 E19.48218
G1 X73.105 Y21.462 E19.54648
G1 X74.28 Y19.931 E19.61067
G1 X75.813 Y18.755 E19.67493
G1 X77.593 Y18.017 E19.73902
G1 X78.108 Y17.952 E19.75629
G1 X78.108 Y15.06 E19.85247
G1 X72.908 Y15.06 E20.02543
M204 S5000
M205 X30 Y30
G0 F3600 X72.838 Y14.99
G0 X74.838 Y14.33
G0 X74.908 Y14.26
M204 S500
M205 X20 Y20
G1 F1500 X84.108 Y14.26 E20.33142
G1 X84.108 Y10.26 E20.46446
G1 X86.908 Y10.26 E20.55759
G1 X86.908 Y14.18 E20.68797
G1 X86.938 Y14.629 E20.70294
G1 X87.03 Y15.092 E20.71864
G1 X87.182 Y15.538 E20.73431
G1 X87.389 Y15.96 E20.74994
G1 X87.651 Y16.352 E20.76562
G1 X87.962 Y16.706 E20.7813
G1 X88.316 Y17.017 E20.79697
G1 X88.708 Y17.279 E20.81265
G1 X89.129 Y17.486 E20.82825
G1 X89.576 Y17.639 E20.84397
G1 X90.039 Y17.73 E20.85966
G1 X90.488 Y17.76 E20.87463
G1 X94.408 Y17.76 E21.00501
G1 X94.408 Y20.56 E21.09814
G1 X90.408 Y20.56 E21.23118
G1 X90.408 Y29.76 E21.53717
G1 X94.408 Y29.76 E21.67021
G1 X94.408 Y32.56 E21.76334
G1 X90.488 Y32.56 E21.89372
G1 X90.039 Y32.59 E21.90869
G1 X89.576 Y32.681 E21.92438
G1 X89.129 Y32.833 E21.94008
G1 X88.707 Y33.041 E21.95573
G1 X88.316 Y33.303 E21.97139
G1 X87.962 Y33.614 E21.98706
G1 X87.651 Y33.968 E22.00273
G1 X87.389 Y34.36 E22.01841
G1 X87.182 Y34.782 E22.03405
G1 X87.03 Y35.227 E22.04969
G1 X86.938 Y35.69 E22.06539
G1 X86.908 Y36.14 E22.08039
G1 X86.908 Y40.06 E22.21077
G1 X84.108 Y40.06 E22.3039
G1 X84.108 Y36.06 E22.43694
G1 X74.908 Y36.06 E22.74293
G1 X74.908 Y40.06 E22.87597
G1 X72.108 Y40.06 E22.9691
G1 X72.108 Y36.141 E23.09944
G1 X72.08 Y35.69 E23.11447
G1 X71.987 Y35.227 E23.13018
G1 X71.835 Y34.782 E23.14582
G1 X71.628 Y34.36 E23.16145
G1 X71.366 Y33.968 E23.17714
G1 X71.055 Y33.614 E23.19281
G1 X70.701 Y33.303 E23.20848
G1 X70.309 Y33.041 E23.22416
G1 X69.888 Y32.833 E23.23978
G1 X69.441 Y32.681 E23.25549
G1 X68.978 Y32.59 E23.27118
G1 X68.528 Y32.56 E23.28618
G1 X64.608 Y32.56 E23.41656
G1 X64.608 Y29.76 E23.50969
G1 X68.608 Y29.76 E23.64273
G1 X68.608 Y20.56 E23.94872
G1 X64.608 Y20.56 E24.08176
G1 X64.608 Y17.76 E24.17489
G1 X68.528 Y17.76 E24.30527
G1 X68.978 Y17.73 E24.32027
G1 X69.441 Y17.639 E24.33596
G1 X69.888 Y17.486 E24.35168
G1 X70.308 Y17.279 E24.36725
G1 X70.701 Y17.017 E24.38296
G1 X71.055 Y16.706 E24.39863
G1 X71.366 Y16.352 E24.41431
G1 X71.628 Y15.96 E24.42999
G1 X71.835 Y15.538 E24.44562
G1 X71.987 Y15.092 E24.46129
G1 X72.08 Y14.629 E24.477
G1 X72.108 Y14.179 E24.492
G1 X72.108 Y10.26 E24.62234
G1 X74.908 Y10.26 E24.71547
G1 X74.908 Y14.26 E24.84851
M204 S5000
M205 X30 Y30
G0 F3600 X74.838 Y14.33
G0 X80.838 Y14.99
G0 X80.908 Y15.06
M204 S500
M205 X20 Y20
G1 F1500 X80.908 Y17.952 E24.9447
G1 X81.423 Y18.017 E24.96197
G1 X83.206 Y18.756 E25.02616
G1 X84.735 Y19.929 E25.09026
G1 X85.912 Y21.462 E25.15454
G1 X86.652 Y23.248 E25.21884
G1 X86.716 Y23.76 E25.236
G1 X89.608 Y23.76 E25.33219
G1 X89.608 Y18.56 E25.50514
G1 X88.532 Y18.56 E25.54093
G1 X88.188 Y18.538 E25.55239
G1 X87.89 Y18.479 E25.5625
G1 X87.588 Y18.375 E25.57312
G1 X87.31 Y18.239 E25.58342
G1 X87.048 Y18.063 E25.59391
G1 X86.812 Y17.856 E25.60435
G1 X86.605 Y17.62 E25.6148
G1 X86.429 Y17.358 E25.62529
G1 X86.293 Y17.081 E25.63556
G1 X86.192 Y16.781 E25.64608
G1 X86.13 Y16.476 E25.65644
G1 X86.108 Y16.136 E25.66777
G1 X86.108 Y15.06 E25.70356
G1 X80.908 Y15.06 E25.87651
M204 S5000
M205 X30 Y30
G0 F3600 X80.838 Y14.99
G0 X77.79 Y18.741
G0 X76.185 Y19.406
G0 X74.81 Y20.461
G0 X73.754 Y21.837
G0 X73.157 Y23.28
G0 X72.848 Y25.075
G0 X72.923 Y25.01
M204 S500
M205 X20 Y20
G1 F1500 X73.15 Y25.01 E25.88406
G1 X73.151 Y25.01 E25.88409
G1 X84.81 Y25.01 E26.27187
G1 X84.81 Y25.31 E26.28185
G1 X73.151 Y25.31 E26.66963
G1 X73.15 Y25.31 E26.66966
G1 X72.923 Y25.31 E26.67721
G1 X72.952 Y25.536 E26.68195
G1 X73.128 Y26.869 E26.72667
G1 X73.788 Y28.463 E26.78405
G1 X74.838 Y29.83 E26.84138
G1 X76.205 Y30.88 E26.89871
G1 X77.8 Y31.54 E26.95612
G1 X79.508 Y31.765 E27.01342
G1 X81.217 Y31.54 E27.07075
G1 X82.811 Y30.88 E27.12814
G1 X84.179 Y29.83 E27.18549
G1 X85.229 Y28.463 E27.24282
G1 X85.889 Y26.869 E27.3002
G1 X86.113 Y25.16 E27.35753
G1 X85.889 Y23.451 E27.41486
G1 X85.229 Y21.857 E27.47224
G1 X84.179 Y20.489 E27.5296
G1 X82.811 Y19.44 E27.58694
G1 X81.217 Y18.779 E27.64433
G1 X79.508 Y18.555 E27.70166
G1 X77.8 Y18.779 E27.75895
G1 X76.205 Y19.44 E27.81638
G1 X74.838 Y20.489 E27.87369
G1 X73.788 Y21.857 E27.93105
G1 X73.128 Y23.451 E27.98843
G1 X72.952 Y24.784 E28.03315
G1 X72.923 Y25.01 E28.03788
M204 S5000
M205 X30 Y30
G0 F3600 X72.848 Y25.075
G0 X69.38 Y26.531
G0 X69.338 Y31.83
G0 X69.408 Y31.76
M204 S500
M205 X20 Y20
G1 F1500 X70.484 Y31.76 E28.07367
G1 X70.827 Y31.782 E28.0851
G1 X71.13 Y31.842 E28.09537
G1 X71.426 Y31.943 E28.10578
G1 X71.706 Y32.081 E28.11616
G1 X71.971 Y32.259 E28.12678
G1 X72.205 Y32.464 E28.13712
G1 X72.412 Y32.7 E28.14756
G1 X72.587 Y32.96 E28.15799
G1 X72.724 Y33.239 E28.16833
G1 X72.825 Y33.538 E28.17882
G1 X72.887 Y33.843 E28.18918
G1 X72.908 Y34.182 E28.20047
G1 X72.908 Y35.26 E28.23633
G1 X78.108 Y35.26 E28.40928
G1 X78.108 Y32.378 E28.50513
G1 X77.601 Y32.304 E28.52218
G1 X75.81 Y31.563 E28.58664
G1 X74.28 Y30.389 E28.65078
G1 X73.105 Y28.858 E28.71497
G1 X72.365 Y27.071 E28.7793
G1 X72.298 Y26.563 E28.79635
G1 X69.608 Y26.559 E28.88582
G1 X69.408 Y26.559 E28.89247
G1 X69.408 Y26.759 E28.89678
G1 X69.408 Y31.76 E29.06311
M204 S5000
M205 X30 Y30
G0 F3600 X69.338 Y31.83
G0 X72.88 Y35.288
G0 X80.838 Y35.33
G0 X80.908 Y35.26
M204 S500
M205 X20 Y20
G1 F1500 X86.108 Y35.26 E29.23606
G1 X86.108 Y34.184 E29.27185
G1 X86.13 Y33.843 E29.28322
G1 X86.192 Y33.538 E29.29357
G1 X86.293 Y33.239 E29.30406
G1 X86.43 Y32.96 E29.3144
G1 X86.605 Y32.7 E29.32483
G1 X86.812 Y32.464 E29.33527
G1 X87.051 Y32.254 E29.34585
G1 X87.302 Y32.086 E29.3559
G1 X87.594 Y31.942 E29.36672
G1 X87.887 Y31.842 E29.37702
G1 X88.19 Y31.782 E29.38729
G1 X88.532 Y31.76 E29.39869
G1 X89.608 Y31.76 E29.43448
G1 X89.608 Y26.56 E29.60743
G1 X86.716 Y26.56 E29.70362
G1 X86.652 Y27.072 E29.72078
G1 X85.912 Y28.858 E29.78508
G1 X84.735 Y30.391 E29.84937
G1 X83.209 Y31.562 E29.91334
G1 X81.416 Y32.304 E29.97788
G1 X80.908 Y32.375 E29.99494
