;FLAVOR:Marlin
;TIME:1774
;Filament used: 0.688454m
;Layer height: 0.1
;Generated with Cura_SteamEngine 3.2.1
M190 S60
M104 S180
M109 S180
M82 ;absolute extrusion mode
G28 ;Home
G1 Z15.0 F6000 ;Move the platform down 15mm
;Prime the extruder
G92 E0
G1 F200 E3
G92 E0
;LAYER_COUNT:80
;LAYER:0
M107
M204 S5000
M205 X30 Y30
G0 F3600 X51.571 Y16.423 Z0.2
M204 S500
M205 X20 Y20
;TYPE:SKIRT
G1 F1500 X51.844 Y15.762 E0.02379
G1 X52.189 Y15.135 E0.04759
G1 X52.602 Y14.551 E0.07138
G1 X53.077 Y14.017 E0.09515
G1 X53.609 Y13.539 E0.11894
G1 X54.191 Y13.123 E0.14273
G1 X54.816 Y12.775 E0.16652
G1 X55.476 Y12.499 E0.19032
G1 X56.162 Y12.298 E0.21409
G1 X56.867 Y12.175 E0.2379
G1 X57.615 Y12.131 E0.26282
G1 X91.242 Y12.135 E1.38126
G1 X91.796 Y12.159 E1.3997
G1 X93.093 Y12.272 E1.443
G1 X93.801 Y12.374 E1.46679
G1 X94.676 Y12.616 E1.49699
G1 X95.449 Y12.89 E1.52427
G1 X96.109 Y13.166 E1.54806
G1 X96.685 Y13.484 E1.56994
G1 X97.428 Y13.945 E1.59903
G1 X98.014 Y14.355 E1.62281
G1 X98.376 Y14.663 E1.63862
G1 X98.851 Y15.098 E1.66004
G1 X99.351 Y15.61 E1.68385
G1 X99.791 Y16.174 E1.70764
G1 X100.057 Y16.593 E1.72414
G1 X100.859 Y17.968 E1.77709
G1 X101.269 Y18.804 E1.80806
G1 X102.177 Y21.061 E1.88897
G1 X102.406 Y21.739 E1.91278
G1 X102.503 Y22.139 E1.92646
G1 X103.012 Y24.571 E2.00911
G1 X103.137 Y25.511 E2.04065
G1 X103.234 Y27.182 E2.09632
G1 X103.234 Y27.928 E2.12113
G1 X103.143 Y29.48 E2.17284
G1 X103.061 Y30.194 E2.19674
G1 X102.786 Y31.786 E2.25048
G1 X102.638 Y32.438 E2.27271
G1 X102.286 Y33.683 E2.31574
G1 X102.072 Y34.311 E2.33781
G1 X101.475 Y35.809 E2.39145
G1 X101.183 Y36.44 E2.41457
G1 X100.535 Y37.661 E2.46055
G1 X100.198 Y38.225 E2.4824
G1 X99.624 Y39.081 E2.51668
G1 X99.193 Y39.652 E2.54047
G1 X98.701 Y40.171 E2.56426
G1 X98.391 Y40.446 E2.57804
G1 X97.715 Y41.006 E2.60724
G1 X97.139 Y41.43 E2.63103
G1 X96.236 Y41.923 E2.66525
G1 X95.605 Y42.204 E2.68822
G1 X94.936 Y42.458 E2.71202
G1 X94.351 Y42.614 E2.73216
G1 X93.693 Y42.756 E2.75455
G1 X92.987 Y42.868 E2.77832
G1 X92.344 Y42.9 E2.79973
G1 X57.612 Y42.908 E3.95493
G1 X56.898 Y42.868 E3.97871
G1 X56.193 Y42.749 E4.00249
G1 X55.506 Y42.552 E4.02626
G1 X54.844 Y42.279 E4.05008
G1 X54.218 Y41.934 E4.07385
G1 X53.633 Y41.522 E4.09765
G1 X53.099 Y41.047 E4.12142
G1 X52.62 Y40.515 E4.14523
G1 X52.204 Y39.933 E4.16902
G1 X51.856 Y39.308 E4.19282
G1 X51.58 Y38.649 E4.21658
G1 X51.378 Y37.962 E4.2404
G1 X51.255 Y37.258 E4.26417
G1 X51.211 Y36.507 E4.28919
G1 X51.214 Y18.53 E4.88711
G1 X51.254 Y17.816 E4.91089
G1 X51.374 Y17.111 E4.93468
G1 X51.571 Y16.423 E4.95848
M204 S5000
M205 X30 Y30
G0 F3600 X51.971 Y16.493
M204 S500
M205 X20 Y20
G1 F1500 X52.243 Y15.856 E4.98152
G1 X52.587 Y15.255 E5.00455
G1 X52.998 Y14.698 E5.02757
G1 X53.471 Y14.191 E5.05063
G1 X53.998 Y13.743 E5.07364
G1 X54.574 Y13.358 E5.09668
G1 X55.191 Y13.042 E5.11974
G1 X55.839 Y12.799 E5.14276
G1 X56.512 Y12.633 E5.16581
G1 X57.198 Y12.545 E5.18882
G1 X57.615 Y12.531 E5.20269
G1 X91.242 Y12.535 E6.32113
G1 X91.762 Y12.558 E6.33844
G1 X93.059 Y12.671 E6.38175
G1 X93.744 Y12.77 E6.40476
G1 X94.543 Y12.993 E6.43236
G1 X95.316 Y13.267 E6.45963
G1 X95.954 Y13.535 E6.48265
G1 X96.474 Y13.824 E6.50244
G1 X97.217 Y14.285 E6.53152
G1 X97.784 Y14.683 E6.55456
G1 X98.106 Y14.958 E6.56864
G1 X98.581 Y15.393 E6.59007
G1 X99.064 Y15.89 E6.61312
G1 X99.487 Y16.438 E6.63614
G1 X99.712 Y16.795 E6.65018
G1 X100.514 Y18.17 E6.70312
G1 X100.897 Y18.954 E6.73214
G1 X101.805 Y21.211 E6.81306
G1 X102.026 Y21.867 E6.83608
G1 X102.112 Y22.221 E6.8482
G1 X102.621 Y24.653 E6.93084
G1 X102.738 Y25.534 E6.9604
G1 X102.835 Y27.205 E7.01607
G1 X102.835 Y27.904 E7.03932
G1 X102.744 Y29.456 E7.09103
G1 X102.666 Y30.126 E7.11346
G1 X102.391 Y31.718 E7.16719
G1 X102.253 Y32.329 E7.18803
G1 X101.901 Y33.574 E7.23106
G1 X101.701 Y34.163 E7.25175
G1 X101.104 Y35.661 E7.30538
G1 X100.83 Y36.253 E7.32708
G1 X100.182 Y37.474 E7.37306
G1 X99.865 Y38.003 E7.39357
G1 X99.291 Y38.859 E7.42785
G1 X98.873 Y39.411 E7.45088
G1 X98.136 Y40.138 E7.48531
G1 X97.46 Y40.698 E7.5145
G1 X96.902 Y41.108 E7.53754
G1 X96.073 Y41.558 E7.56891
G1 X95.442 Y41.839 E7.59188
G1 X94.794 Y42.084 E7.61492
G1 X94.267 Y42.223 E7.63305
G1 X93.609 Y42.365 E7.65544
G1 X92.924 Y42.472 E7.6785
G1 X92.344 Y42.5 E7.69781
G1 X57.612 Y42.508 E8.853
G1 X56.921 Y42.468 E8.87603
G1 X56.239 Y42.349 E8.89905
G1 X55.575 Y42.152 E8.92209
G1 X54.938 Y41.88 E8.94513
G1 X54.337 Y41.536 E8.96816
G1 X53.779 Y41.125 E8.99121
G1 X53.273 Y40.653 E9.01422
G1 X52.824 Y40.125 E9.03728
G1 X52.439 Y39.55 E9.06029
G1 X52.123 Y38.934 E9.08332
G1 X51.88 Y38.285 E9.10637
G1 X51.714 Y37.613 E9.12939
G1 X51.626 Y36.926 E9.15243
G1 X51.611 Y36.507 E9.16637
G1 X51.614 Y18.53 E9.76429
G1 X51.654 Y17.839 E9.78731
G1 X51.774 Y17.156 E9.81037
G1 X51.971 Y16.493 E9.83338
M204 S5000
M205 X30 Y30
G0 F3600 X52.371 Y16.565
M204 S500
M205 X20 Y20
G1 F1500 X52.643 Y15.953 E9.85565
G1 X52.985 Y15.379 E9.87788
G1 X53.394 Y14.849 E9.90014
G1 X53.864 Y14.372 E9.92242
G1 X54.386 Y13.955 E9.94464
G1 X54.955 Y13.603 E9.96689
G1 X55.562 Y13.321 E9.98915
G1 X56.198 Y13.113 E10.01141
G1 X56.854 Y12.983 E10.03365
G1 X57.615 Y12.931 E10.05902
G1 X91.242 Y12.935 E11.17746
G1 X91.727 Y12.956 E11.19361
G1 X93.024 Y13.069 E11.23691
G1 X93.686 Y13.167 E11.25917
G1 X94.409 Y13.37 E11.28414
G1 X95.182 Y13.644 E11.31142
G1 X95.798 Y13.905 E11.33367
G1 X96.263 Y14.164 E11.35137
G1 X97.006 Y14.625 E11.38046
G1 X97.553 Y15.011 E11.40272
G1 X97.836 Y15.253 E11.41511
G1 X98.311 Y15.688 E11.43653
G1 X98.777 Y16.169 E11.45881
G1 X99.182 Y16.701 E11.48104
G1 X99.366 Y16.997 E11.49264
G1 X100.168 Y18.372 E11.54558
G1 X100.526 Y19.103 E11.57265
G1 X101.434 Y21.36 E11.65357
G1 X101.72 Y22.303 E11.68634
G1 X102.229 Y24.735 E11.76898
G1 X102.339 Y25.557 E11.79657
G1 X102.436 Y27.228 E11.85224
G1 X102.435 Y27.881 E11.87396
G1 X102.344 Y29.433 E11.92567
G1 X102.272 Y30.058 E11.94659
G1 X101.997 Y31.65 E12.00033
G1 X101.868 Y32.221 E12.0198
G1 X101.516 Y33.466 E12.06283
G1 X101.329 Y34.015 E12.08212
G1 X100.732 Y35.513 E12.13575
G1 X100.477 Y36.065 E12.15598
G1 X99.829 Y37.286 E12.20195
G1 X99.533 Y37.78 E12.22111
G1 X98.959 Y38.636 E12.25539
G1 X98.554 Y39.168 E12.27762
G1 X97.88 Y39.829 E12.30902
G1 X97.204 Y40.389 E12.33822
G1 X96.665 Y40.785 E12.36046
G1 X95.91 Y41.193 E12.38901
G1 X95.279 Y41.474 E12.41198
G1 X94.653 Y41.709 E12.43422
G1 X94.182 Y41.832 E12.45041
G1 X93.524 Y41.974 E12.4728
G1 X92.863 Y42.076 E12.49505
G1 X92.344 Y42.1 E12.51233
G1 X57.612 Y42.108 E13.66752
G1 X56.944 Y42.068 E13.68978
G1 X56.286 Y41.949 E13.71202
G1 X55.647 Y41.752 E13.73426
G1 X55.035 Y41.481 E13.75652
G1 X54.461 Y41.138 E13.77876
G1 X53.931 Y40.729 E13.80102
G1 X53.454 Y40.26 E13.82327
G1 X53.036 Y39.738 E13.84552
G1 X52.684 Y39.169 E13.86777
G1 X52.401 Y38.562 E13.89004
G1 X52.194 Y37.926 E13.91229
G1 X52.063 Y37.27 E13.93454
G1 X52.011 Y36.507 E13.95998
G1 X52.014 Y18.53 E14.55789
G1 X52.054 Y17.862 E14.58015
G1 X52.174 Y17.204 E14.6024
G1 X52.371 Y16.565 E14.62464
M204 S5000
M205 X30 Y30
G0 F3600 X52.77 Y16.639
M204 S500
M205 X20 Y20
G1 F1500 X53.042 Y16.054 E14.6461
G1 X53.383 Y15.508 E14.66751
G1 X53.79 Y15.007 E14.68897
G1 X54.255 Y14.561 E14.7104
G1 X54.772 Y14.176 E14.73184
G1 X55.333 Y13.858 E14.75329
G1 X55.929 Y13.612 E14.77474
G1 X56.55 Y13.441 E14.79616
G1 X57.188 Y13.348 E14.81761
G1 X57.615 Y13.331 E14.83182
G1 X91.242 Y13.335 E15.95026
G1 X91.692 Y13.355 E15.96524
G1 X92.989 Y13.468 E16.00854
G1 X93.627 Y13.563 E16.02999
G1 X94.275 Y13.747 E16.0524
G1 X95.048 Y14.021 E16.07968
G1 X95.641 Y14.273 E16.10111
G1 X96.053 Y14.503 E16.1168
G1 X96.796 Y14.964 E16.14588
G1 X97.321 Y15.338 E16.16732
G1 X97.566 Y15.548 E16.17806
G1 X98.041 Y15.983 E16.19948
G1 X98.488 Y16.447 E16.22091
G1 X99.021 Y17.198 E16.25154
G1 X99.823 Y18.573 E16.30448
G1 X100.155 Y19.252 E16.32962
G1 X101.063 Y21.509 E16.41053
G1 X101.329 Y22.385 E16.44098
G1 X101.838 Y24.817 E16.52363
G1 X101.939 Y25.581 E16.54926
G1 X102.036 Y27.252 E16.60493
G1 X102.036 Y27.857 E16.62505
G1 X101.945 Y29.409 E16.67676
G1 X101.878 Y29.99 E16.69621
G1 X101.603 Y31.582 E16.74995
G1 X101.483 Y32.112 E16.76802
G1 X101.131 Y33.357 E16.81105
G1 X100.958 Y33.867 E16.82896
G1 X100.361 Y35.365 E16.8826
G1 X100.123 Y35.878 E16.90141
G1 X99.475 Y37.099 E16.94738
G1 X99.201 Y37.557 E16.96513
G1 X98.627 Y38.413 E16.99941
G1 X98.235 Y38.925 E17.02086
G1 X97.625 Y39.521 E17.04923
G1 X96.949 Y40.081 E17.07842
G1 X96.428 Y40.461 E17.09987
G1 X95.747 Y40.827 E17.12558
G1 X95.116 Y41.108 E17.14856
G1 X94.512 Y41.334 E17.17001
G1 X94.098 Y41.441 E17.18423
G1 X93.44 Y41.583 E17.20662
G1 X92.803 Y41.68 E17.22805
G1 X92.344 Y41.7 E17.24333
G1 X57.612 Y41.708 E18.39852
G1 X56.969 Y41.668 E18.41995
G1 X56.335 Y41.549 E18.4414
G1 X55.721 Y41.352 E18.46285
G1 X55.136 Y41.081 E18.4843
G1 X54.589 Y40.74 E18.50573
G1 X54.089 Y40.334 E18.52716
G1 X53.643 Y39.868 E18.54861
G1 X53.257 Y39.352 E18.57004
G1 X52.939 Y38.791 E18.59149
G1 X52.692 Y38.195 E18.61295
G1 X52.521 Y37.574 E18.63437
G1 X52.429 Y36.936 E18.65581
G1 X52.411 Y36.507 E18.67009
G1 X52.414 Y18.53 E19.26801
G1 X52.454 Y17.887 E19.28944
G1 X52.573 Y17.253 E19.31089
G1 X52.77 Y16.639 E19.33234
M204 S5000
M205 X30 Y30
G1 F2400 E14.33234
G0 F3600 X57.95 Y17.895
G0 X57.994 Y17.905
G0 X74.404 Y21.885
G0 X74.467 Y21.9
G0 X75.578 Y22.171
M204 S500
M205 X20 Y20
;TYPE:SUPPORT
G1 F2400 E19.33234
G1 F1500 X80.224 Y22.171 E19.48687
G1 X80.05 Y22.239 E19.49308
G1 X79.733 Y22.485 E19.50643
G1 X79.133 Y22.927 E19.53121
G1 X78.654 Y23.374 E19.553
G1 X78.27 Y23.788 E19.57178
G1 X77.932 Y24.094 E19.58695
G1 X77.515 Y24.279 E19.60212
G1 X77.399 Y24.31 E19.60612
G1 X76.931 Y24.354 E19.62175
G1 X76.488 Y24.251 E19.63688
G1 X76.022 Y23.974 E19.65491
G1 X75.728 Y23.639 E19.66973
G1 X75.531 Y23.201 E19.68571
G1 X75.511 Y23.125 E19.68832
G1 X75.47 Y22.659 E19.70388
G1 X75.578 Y22.171 E19.7205
M204 S5000
M205 X30 Y30
G0 F3600 X77.314 Y22.331
M204 S500
M205 X20 Y20
G1 F1500 X77.314 Y24.158 E19.78127
M204 S5000
M205 X30 Y30
G0 F3600 X77.759 Y23.994
M204 S500
M205 X20 Y20
G1 F1500 X76.37 Y23.994 E19.82747
M204 S5000
M205 X30 Y30
G0 F3600 X85.568 Y22.171
M204 S500
M205 X20 Y20
G1 F1500 X88.204 Y22.171 E19.91514
G1 X88.186 Y24.787 E20.00215
G1 X88.128 Y24.666 E20.00661
G1 X87.83 Y24.159 E20.02617
G1 X87.484 Y23.71 E20.04503
G1 X87.104 Y23.279 E20.06414
G1 X86.655 Y22.874 E20.08425
G1 X86.195 Y22.534 E20.10328
G1 X85.648 Y22.209 E20.12444
G1 X85.568 Y22.171 E20.12738
M204 S5000
M205 X30 Y30
G0 F3600 X87.978 Y22.331
M204 S500
M205 X20 Y20
G1 F1500 X87.978 Y24.088 E20.18582
M204 S5000
M205 X30 Y30
G0 F3600 X88.031 Y23.994
M204 S500
M205 X20 Y20
G1 F1500 X87.905 Y23.994 E20.19001
M204 S5000
M205 X30 Y30
G0 F3600 X88.205 Y30.217
M204 S500
M205 X20 Y20
G1 F1500 X88.205 Y32.869 E20.27822
G1 X85.626 Y32.844 E20.364
G1 X86.177 Y32.519 E20.38528
G1 X86.674 Y32.155 E20.40577
G1 X87.113 Y31.749 E20.42566
G1 X87.493 Y31.335 E20.44435
G1 X87.835 Y30.868 E20.4636
G1 X88.131 Y30.375 E20.48272
G1 X88.205 Y30.217 E20.48853
M204 S5000
M205 X30 Y30
G0 F3600 X87.978 Y30.943
M204 S500
M205 X20 Y20
G1 F1500 X87.978 Y32.706 E20.54716
M204 S5000
M205 X30 Y30
G0 F3600 X88.045 Y31.992
M204 S500
M205 X20 Y20
G1 F1500 X87.086 Y31.992 E20.57906
M204 S5000
M205 X30 Y30
G0 F3600 X80.373 Y32.871
M204 S500
M205 X20 Y20
G1 F1500 X75.58 Y32.871 E20.73848
G1 X75.569 Y32.846 E20.73939
G1 X75.469 Y32.385 E20.75507
G1 X75.467 Y32.335 E20.75674
G1 X75.498 Y31.98 E20.76859
G1 X75.512 Y31.903 E20.77119
G1 X75.724 Y31.405 E20.7892
G1 X76.036 Y31.063 E20.80459
G1 X76.075 Y31.029 E20.80631
G1 X76.479 Y30.796 E20.82183
G1 X76.982 Y30.692 E20.83891
G1 X77.48 Y30.744 E20.85556
G1 X77.893 Y30.926 E20.87057
G1 X78.292 Y31.271 E20.88812
G1 X78.66 Y31.681 E20.90644
G1 X79.066 Y32.062 E20.92496
G1 X79.581 Y32.442 E20.94625
G1 X80.066 Y32.725 E20.96492
G1 X80.373 Y32.871 E20.97623
M204 S5000
M205 X30 Y30
G0 F3600 X78.759 Y31.992
M204 S500
M205 X20 Y20
G1 F1500 X75.662 Y31.992 E21.07924
M204 S5000
M205 X30 Y30
G0 F3600 X77.314 Y32.711
M204 S500
M205 X20 Y20
G1 F1500 X77.314 Y30.888 E21.13987
M204 S5000
M205 X30 Y30
G1 F2400 E16.13987
G0 F3600 X66.77 Y30.888
G0 X65.505 Y30.888
G0 X65.519 Y30.914
G0 X65.5 Y30.879
G0 X63.561 Y27.521
G0 X63.461 Y27.521
M204 S500
M205 X20 Y20
;TYPE:WALL-INNER
G1 F2400 E21.13987
G1 F1500 X63.405 Y27.106 E21.1538
G1 X63.246 Y26.719 E21.16771
G1 X62.99 Y26.386 E21.18168
G1 X62.657 Y26.13 E21.19566
G1 X62.269 Y25.97 E21.20961
G1 X61.855 Y25.916 E21.2235
G1 X61.44 Y25.97 E21.23742
G1 X61.053 Y26.13 E21.25135
G1 X60.719 Y26.386 E21.26534
G1 X60.464 Y26.719 E21.27929
G1 X60.304 Y27.106 E21.29322
G1 X60.25 Y27.521 E21.30714
G1 X60.304 Y27.936 E21.32106
G1 X60.464 Y28.323 E21.33499
G1 X60.719 Y28.656 E21.34894
G1 X61.053 Y28.912 E21.36294
G1 X61.44 Y29.072 E21.37687
G1 X61.855 Y29.126 E21.39078
G1 X62.269 Y29.072 E21.40467
G1 X62.657 Y28.912 E21.41863
G1 X62.99 Y28.656 E21.4326
G1 X63.246 Y28.323 E21.44657
G1 X63.405 Y27.936 E21.46049
G1 X63.461 Y27.521 E21.47441
M204 S5000
M205 X30 Y30
G0 F3600 X63.561 Y27.521
G0 X63.482 Y27.753
G0 X61.421 Y32.94
G0 X61.344 Y33.003
M204 S500
M205 X20 Y20
G1 F1500 X61.131 Y32.792 E21.48439
G1 X60.981 Y32.681 E21.49059
G1 X60.731 Y32.548 E21.50001
G1 X60.57 Y32.489 E21.50571
G1 X60.416 Y32.451 E21.51099
G1 X60.261 Y32.428 E21.5162
G1 X60.091 Y32.42 E21.52186
G1 X59.792 Y32.449 E21.53185
G1 X59.506 Y32.536 E21.5418
G1 X59.351 Y32.608 E21.54748
G1 X59.203 Y32.697 E21.55322
G1 X58.981 Y32.879 E21.56277
G1 X58.867 Y33.006 E21.56845
G1 X58.765 Y33.144 E21.57416
G1 X58.63 Y33.395 E21.58364
G1 X58.603 Y33.469 E21.58626
G1 X58.572 Y33.558 E21.58939
G1 X58.535 Y33.707 E21.5945
G1 X58.509 Y33.877 E21.60022
G1 X58.509 Y34.179 E21.61026
G1 X58.569 Y34.473 E21.62024
G1 X58.603 Y34.571 E21.62369
G1 X58.631 Y34.648 E21.62642
G1 X58.772 Y34.91 E21.63631
G1 X58.961 Y35.142 E21.64627
G1 X59.096 Y35.265 E21.65234
G1 X59.34 Y35.428 E21.6621
G1 X59.491 Y35.5 E21.66766
G1 X59.548 Y35.521 E21.66968
G1 X59.64 Y35.553 E21.67292
G1 X59.794 Y35.591 E21.6782
G1 X59.95 Y35.614 E21.68344
G1 X60.119 Y35.622 E21.68907
G1 X60.417 Y35.593 E21.69903
G1 X60.654 Y35.521 E21.70727
G1 X60.702 Y35.506 E21.70894
G1 X60.872 Y35.427 E21.71518
G1 X61.108 Y35.269 E21.72462
G1 X61.237 Y35.153 E21.73039
G1 X61.354 Y35.023 E21.73621
G1 X61.508 Y34.789 E21.74553
G1 X61.583 Y34.636 E21.75119
G1 X61.636 Y34.485 E21.75652
G1 X61.674 Y34.335 E21.76166
G1 X61.697 Y34.18 E21.76687
G1 X61.705 Y34.021 E21.77217
G1 X61.697 Y33.848 E21.77793
G1 X61.637 Y33.554 E21.78791
G1 X61.518 Y33.267 E21.79824
G1 X61.344 Y33.003 E21.80876
M204 S5000
M205 X30 Y30
G0 F3600 X61.421 Y32.94
G0 X60.21 Y27.521
G0 X61.421 Y21.962
G0 X61.674 Y21.496
G0 X61.736 Y20.844
G0 X61.685 Y20.676
G0 X61.421 Y19.94
G0 X61.344 Y20.003
M204 S500
M205 X20 Y20
G1 F1500 X61.131 Y19.792 E21.81873
G1 X60.981 Y19.681 E21.82494
G1 X60.731 Y19.548 E21.83436
G1 X60.657 Y19.521 E21.83698
G1 X60.57 Y19.489 E21.84006
G1 X60.416 Y19.451 E21.84533
G1 X60.261 Y19.428 E21.85055
G1 X60.091 Y19.42 E21.85621
G1 X59.792 Y19.449 E21.8662
G1 X59.557 Y19.52 E21.87436
G1 X59.506 Y19.536 E21.87614
G1 X59.351 Y19.608 E21.88183
G1 X59.203 Y19.697 E21.88757
G1 X58.981 Y19.879 E21.89712
G1 X58.867 Y20.006 E21.90279
G1 X58.765 Y20.144 E21.9085
G1 X58.63 Y20.395 E21.91798
G1 X58.603 Y20.469 E21.9206
G1 X58.572 Y20.558 E21.92374
G1 X58.535 Y20.707 E21.92884
G1 X58.509 Y20.877 E21.93456
G1 X58.509 Y21.179 E21.94461
G1 X58.569 Y21.473 E21.95459
G1 X58.603 Y21.571 E21.95804
G1 X58.631 Y21.648 E21.96076
